;FLAVOR:Marlin
;TIME:4317
;Filament used: 3.57664m
;Layer height: 0.2
;MINX:89.523
;MINY:76.836
;MINZ:0.24
;MAXX:145.665
;MAXY:158.165
;MAXZ:12.49
;Generated with Cura_SteamEngine master
M140 S55
M105
M190 S55
M104 S200
M105
M109 S200
M82 ;absolute extrusion mode
; Ender 3 Custom Start G-code
G92 E0 ; Reset Extruder
G28 ; Home all axes
G1 Z2.0 F3000 ; Move Z Axis up little to prevent scratching of Heat Bed
G1 X0.1 Y20 Z0.3 F5000.0 ; Move to start position
G1 X0.1 Y200.0 Z0.3 F1500.0 E15 ; Draw the first line
G1 X0.4 Y200.0 Z0.3 F5000.0 ; Move to side a little
G1 X0.4 Y20 Z0.3 F1500.0 E30 ; Draw the second line
G92 E0 ; Reset Extruder
G1 Z2.0 F3000 ; Move Z Axis up little to prevent scratching of Heat Bed
G1 X5 Y20 Z0.3 F5000.0 ; Move over to prevent blob squish
G92 E0
G92 E0
G1 F2700 E-5
;LAYER_COUNT:57
;LAYER:-6
M107
G0 F9000 X94.076 Y82.819 Z0.24
;TYPE:SUPPORT-INTERFACE
G1 F2700 E0
G1 F1125 X94.177 Y82.706 E0.0121
G1 X94.802 Y82.057 E0.08402
G1 X94.927 Y81.937 E0.09785
G1 X95.598 Y81.334 E0.16987
G1 X95.714 Y81.238 E0.18188
G1 X96.426 Y80.688 E0.2537
G1 X96.585 Y80.575 E0.26927
G1 X97.323 Y80.085 E0.33999
G1 X97.449 Y80.009 E0.35173
G1 X98.243 Y79.563 E0.42443
G1 X98.393 Y79.485 E0.43792
G1 X99.208 Y79.102 E0.5098
G1 X99.351 Y79.042 E0.52218
G1 X100.21 Y78.713 E0.59561
G1 X100.36 Y78.661 E0.60828
G1 X101.21 Y78.406 E0.67912
G1 X101.383 Y78.359 E0.69343
G1 X102.278 Y78.159 E0.76664
G1 X102.408 Y78.136 E0.77717
G1 X103.313 Y78.002 E0.8502
G1 X103.482 Y77.984 E0.86377
G1 X104.371 Y77.918 E0.93493
G1 X104.555 Y77.909 E0.94963
G1 X105.06 Y77.901 E0.98995
G1 X130.003 Y77.902 E2.98101
G1 X131.004 Y77.938 E3.06096
G1 X131.127 Y77.947 E3.07081
G1 X132.044 Y78.049 E3.14446
G1 X132.219 Y78.074 E3.15857
G1 X133.108 Y78.238 E3.23073
G1 X133.231 Y78.266 E3.2408
G1 X134.125 Y78.5 E3.31457
G1 X134.288 Y78.549 E3.32815
G1 X135.13 Y78.835 E3.39914
G1 X135.296 Y78.899 E3.41334
G1 X136.099 Y79.24 E3.48298
G1 X136.288 Y79.328 E3.49962
G1 X137.082 Y79.736 E3.57088
G1 X137.199 Y79.803 E3.58164
G1 X137.978 Y80.277 E3.65443
G1 X138.129 Y80.377 E3.66889
G1 X138.843 Y80.888 E3.73898
G1 X138.991 Y81.001 E3.75384
G1 X139.682 Y81.577 E3.82565
G1 X139.795 Y81.678 E3.83775
G1 X140.444 Y82.303 E3.90967
G1 X140.564 Y82.428 E3.9235
G1 X141.167 Y83.099 E3.99551
G1 X141.263 Y83.215 E4.00753
G1 X141.822 Y83.939 E4.08055
G1 X141.916 Y84.07 E4.09342
G1 X142.416 Y84.824 E4.16564
G1 X142.492 Y84.95 E4.17738
G1 X142.938 Y85.744 E4.25008
G1 X143.016 Y85.894 E4.26357
G1 X143.399 Y86.709 E4.33546
G1 X143.459 Y86.852 E4.34783
G1 X143.788 Y87.711 E4.42126
G1 X143.84 Y87.861 E4.43393
G1 X144.095 Y88.711 E4.50477
G1 X144.142 Y88.884 E4.51908
G1 X144.34 Y89.77 E4.59155
G1 X144.365 Y89.909 E4.60282
G1 X144.498 Y90.808 E4.67537
G1 X144.516 Y90.97 E4.68838
G1 X144.583 Y91.872 E4.76058
G1 X144.592 Y92.056 E4.77528
G1 X144.6 Y92.557 E4.81528
G1 X144.6 Y142.487 E8.80091
G1 X144.564 Y143.493 E8.88126
G1 X144.554 Y143.628 E8.89207
G1 X144.452 Y144.545 E8.96572
G1 X144.427 Y144.72 E8.97983
G1 X144.265 Y145.598 E9.0511
G1 X144.235 Y145.732 E9.06206
G1 X144.004 Y146.617 E9.13507
G1 X143.952 Y146.789 E9.14942
G1 X143.676 Y147.601 E9.21788
G1 X143.596 Y147.81 E9.23574
G1 X143.261 Y148.6 E9.30424
G1 X143.18 Y148.775 E9.31963
G1 X142.765 Y149.583 E9.39214
G1 X142.698 Y149.7 E9.4029
G1 X142.224 Y150.479 E9.47569
G1 X142.124 Y150.63 E9.49015
G1 X141.613 Y151.344 E9.56023
G1 X141.5 Y151.492 E9.5751
G1 X140.924 Y152.183 E9.64691
G1 X140.823 Y152.296 E9.659
G1 X140.198 Y152.945 E9.73093
G1 X140.073 Y153.065 E9.74476
G1 X139.403 Y153.667 E9.81666
G1 X139.286 Y153.764 E9.82879
G1 X138.574 Y154.314 E9.90061
G1 X138.415 Y154.427 E9.91618
G1 X137.677 Y154.917 E9.98689
G1 X137.551 Y154.993 E9.99864
G1 X136.757 Y155.439 E10.07133
G1 X136.606 Y155.517 E10.0849
G1 X135.792 Y155.9 E10.15671
G1 X135.649 Y155.96 E10.16909
G1 X134.79 Y156.289 E10.24251
G1 X134.64 Y156.341 E10.25519
G1 X133.79 Y156.596 E10.32602
G1 X133.617 Y156.643 E10.34034
G1 X132.722 Y156.843 E10.41354
G1 X132.592 Y156.866 E10.42408
G1 X131.687 Y157 E10.49711
G1 X131.519 Y157.018 E10.51059
G1 X130.629 Y157.084 E10.58183
G1 X130.445 Y157.093 E10.59654
G1 X129.94 Y157.101 E10.63685
G1 X104.997 Y157.1 E12.62791
G1 X103.996 Y157.064 E12.70787
G1 X103.873 Y157.055 E12.71771
G1 X102.956 Y156.953 E12.79136
G1 X102.781 Y156.928 E12.80547
G1 X101.892 Y156.764 E12.87764
G1 X101.769 Y156.736 E12.88771
G1 X100.875 Y156.502 E12.96147
G1 X100.712 Y156.453 E12.97506
G1 X99.87 Y156.167 E13.04604
G1 X99.704 Y156.103 E13.06024
G1 X98.901 Y155.762 E13.12988
G1 X98.712 Y155.674 E13.14652
G1 X97.918 Y155.266 E13.21778
G1 X97.801 Y155.199 E13.22855
G1 X97.022 Y154.725 E13.30134
G1 X96.871 Y154.625 E13.31579
G1 X96.157 Y154.114 E13.38588
G1 X96.009 Y154.001 E13.40074
G1 X95.318 Y153.425 E13.47255
G1 X95.205 Y153.324 E13.48465
G1 X94.556 Y152.699 E13.55657
G1 X94.436 Y152.574 E13.57041
G1 X93.833 Y151.903 E13.64242
G1 X93.736 Y151.785 E13.65461
G1 X93.178 Y151.063 E13.72745
G1 X93.074 Y150.916 E13.74182
G1 X92.581 Y150.173 E13.813
G1 X92.508 Y150.052 E13.82428
G1 X92.056 Y149.247 E13.89798
G1 X91.984 Y149.108 E13.91047
G1 X91.587 Y148.262 E13.98507
G1 X91.541 Y148.15 E13.99474
G1 X91.212 Y147.291 E14.06816
G1 X91.155 Y147.126 E14.0821
G1 X90.905 Y146.291 E14.15167
G1 X90.858 Y146.118 E14.16598
G1 X90.657 Y145.217 E14.23967
G1 X90.635 Y145.093 E14.24973
G1 X90.5 Y144.179 E14.32348
G1 X90.483 Y144.019 E14.33632
G1 X90.417 Y143.127 E14.40772
G1 X90.408 Y142.946 E14.42219
G1 X90.4 Y142.445 E14.46218
G1 X90.4 Y92.515 E18.44781
G1 X90.436 Y91.509 E18.52817
G1 X90.446 Y91.374 E18.53897
G1 X90.548 Y90.457 E18.61262
G1 X90.573 Y90.282 E18.62673
G1 X90.735 Y89.404 E18.698
G1 X90.765 Y89.27 E18.70896
G1 X90.996 Y88.385 E18.78197
G1 X91.048 Y88.213 E18.79632
G1 X91.334 Y87.371 E18.8673
G1 X91.398 Y87.205 E18.8815
G1 X91.739 Y86.402 E18.95114
G1 X91.82 Y86.227 E18.96653
G1 X92.235 Y85.419 E19.03904
G1 X92.302 Y85.302 E19.04981
G1 X92.776 Y84.523 E19.12259
G1 X92.876 Y84.372 E19.13705
G1 X93.387 Y83.658 E19.20714
G1 X93.5 Y83.51 E19.222
G1 X94.076 Y82.819 E19.29381
G0 F9000 X94.4 Y82.474
G1 F1125 X94.4 Y152.533 E24.88622
G0 F9000 X96 Y153.993
G1 F1125 X96 Y81.017 E30.71148
G0 F9000 X97.6 Y79.924
G1 F1125 X97.6 Y155.076 E36.71044
G0 F9000 X99.2 Y155.888
G1 F1125 X99.2 Y79.105 E42.83959
G0 F9000 X100.8 Y78.529
G1 F1125 X100.8 Y156.479 E49.0619
G0 F9000 X102.4 Y156.857
G1 F1125 X102.4 Y78.137 E55.34567
G0 F9000 X104 Y77.945
G1 F1125 X104 Y157.064 E61.66129
G0 F9000 X105.6 Y157.1
G1 F1125 X105.6 Y77.902 E67.98322
G0 F9000 X107.2 Y77.902
G1 F1125 X107.2 Y157.1 E74.30514
G0 F9000 X108.8 Y157.1
G1 F1125 X108.8 Y77.902 E80.62707
G0 F9000 X110.4 Y77.902
G1 F1125 X110.4 Y157.1 E86.949
G0 F9000 X112 Y157.1
G1 F1125 X112 Y77.902 E93.27092
G0 F9000 X113.6 Y77.902
G1 F1125 X113.6 Y157.1 E99.59285
G0 F9000 X115.2 Y157.1
G1 F1125 X115.2 Y77.902 E105.91478
G0 F9000 X116.8 Y77.902
G1 F1125 X116.8 Y157.1 E112.23671
G0 F9000 X118.4 Y157.1
G1 F1125 X118.4 Y77.902 E118.55863
G0 F9000 X120 Y77.902
G1 F1125 X120 Y157.1 E124.88056
G0 F9000 X121.6 Y157.1
G1 F1125 X121.6 Y77.902 E131.20249
G0 F9000 X123.2 Y77.902
G1 F1125 X123.2 Y157.1 E137.52441
G0 F9000 X124.8 Y157.1
G1 F1125 X124.8 Y77.902 E143.84634
G0 F9000 X126.4 Y77.902
G1 F1125 X126.4 Y157.1 E150.16827
G0 F9000 X128 Y157.1
G1 F1125 X128 Y77.902 E156.49019
G0 F9000 X129.6 Y77.902
G1 F1125 X129.6 Y157.1 E162.81212
G0 F9000 X131.2 Y157.042
G1 F1125 X131.2 Y77.956 E169.12511
G0 F9000 X132.8 Y78.182
G1 F1125 X132.8 Y156.826 E175.40281
G0 F9000 X134.4 Y156.413
G1 F1125 X134.4 Y78.588 E181.61514
G0 F9000 X136 Y79.198
G1 F1125 X136 Y155.803 E187.73008
G0 F9000 X137.6 Y154.964
G1 F1125 X137.6 Y80.047 E193.71028
G0 F9000 X139.2 Y81.176
G1 F1125 X139.2 Y153.831 E199.50992
G0 F9000 X140.8 Y152.32
G1 F1125 X140.8 Y82.691 E205.068
G0 F9000 X142.4 Y84.8
G1 F1125 X142.4 Y150.19 E210.28772
G0 F9000 X144 Y146.631
G1 F1125 X144 Y88.395 E214.93637
G1 F2700 E209.93637
G0 F9000 X145.019 Y88.089
G0 X144.375 Y86.284
G0 X143.415 Y84.419
G0 X142.673 Y83.299
G0 X141.34 Y81.699
G0 X140.383 Y80.776
G0 X138.739 Y79.505
G0 X137.58 Y78.796
G0 X135.7 Y77.914
G0 X134.41 Y77.474
G0 X132.383 Y77.022
G0 X131.057 Y76.875
G0 X104.31 Y76.855
G0 X102.242 Y77.084
G0 X100.927 Y77.38
G0 X98.961 Y78.051
G0 X97.743 Y78.623
G0 X95.977 Y79.702
G0 X94.897 Y80.533
G0 X93.392 Y81.987
G0 X93.15 Y82.279
G0 X92.004 Y83.762
G0 X92.8 Y84.486
G1 F2700 E214.93637
G1 F1125 X92.8 Y150.503 E220.20613
G0 F9000 X91.2 Y147.256
G1 F1125 X91.2 Y87.765 E224.95496
G1 F2700 E219.95496
G0 F300 X91.2 Y87.765 Z0.54
G0 F9000 X90.192 Y87.423
G0 X90.868 Y85.752
G0 X91.874 Y83.958
G0 X92.662 Y82.853
G0 X94.055 Y81.298
G0 X95.056 Y80.402
G0 X96.76 Y79.182
G0 X97.914 Y78.535
G0 X99.841 Y77.714
G0 X101.122 Y77.328
G0 X103.18 Y76.946
G0 X105.053 Y76.836
G0 X131.057 Y76.875
G0 X132.383 Y77.022
G0 X134.41 Y77.474
G0 X135.7 Y77.914
G0 X137.58 Y78.796
G0 X137.908 Y78.996
G0 X139.481 Y80.035
G0 X138.961 Y80.978
;TIME_ELAPSED:161.062756
;LAYER:-5
;TYPE:SUPPORT
G1 F2700 E224.95496
G1 F1125 X138.842 Y80.888 E224.96984
G1 X138.128 Y80.377 E225.05745
G1 X137.977 Y80.277 E225.07552
G1 X137.198 Y79.802 E225.16656
G1 X137.081 Y79.736 E225.17997
G1 X136.287 Y79.328 E225.26904
G1 X136.098 Y79.239 E225.28989
G1 X135.594 Y79.026 E225.34448
G1 X143.482 Y86.914 E226.45756
G1 X143.787 Y87.71 E226.54262
G1 X143.839 Y87.86 E226.55846
G1 X144.094 Y88.71 E226.64701
G1 X144.141 Y88.884 E226.66499
G1 X144.171 Y89.016 E226.6785
G1 X133.487 Y78.333 E228.18606
G1 X133.23 Y78.265 E228.21258
G1 X133.107 Y78.238 E228.22515
G1 X132.218 Y78.073 E228.31537
G1 X132.043 Y78.049 E228.33299
G1 X131.758 Y78.017 E228.36161
G1 X144.488 Y90.748 E230.15802
G1 X144.497 Y90.808 E230.16407
G1 X144.514 Y90.969 E230.18023
G1 X144.582 Y91.871 E230.27048
G1 X144.591 Y92.056 E230.28897
G1 X144.594 Y92.268 E230.31012
G1 X130.237 Y77.911 E232.33605
G1 X130.002 Y77.902 E232.35951
G1 X128.814 Y77.902 E232.47805
G1 X144.599 Y93.688 E234.70556
G1 X144.599 Y95.102 E234.84665
G1 X127.4 Y77.902 E237.27368
G1 X125.985 Y77.902 E237.41487
G1 X144.599 Y96.516 E240.04151
G1 X144.599 Y97.93 E240.1826
G1 X124.571 Y77.902 E243.00877
G1 X123.157 Y77.902 E243.14985
G1 X144.599 Y99.344 E246.17555
G1 X144.599 Y100.759 E246.31674
G1 X121.743 Y77.902 E249.54204
G1 X120.328 Y77.901 E249.68323
G1 X144.599 Y102.173 E253.1082
G1 X144.599 Y103.587 E253.24929
G1 X118.914 Y77.901 E256.87379
G1 X117.499 Y77.901 E257.01498
G1 X144.599 Y105.001 E260.83908
G1 X144.599 Y106.416 E260.98027
G1 X116.085 Y77.901 E265.00398
G1 X114.671 Y77.901 E265.14507
G1 X144.599 Y107.83 E269.3683
G1 X144.599 Y109.244 E269.50939
G1 X113.256 Y77.901 E273.93223
G1 X111.842 Y77.901 E274.07332
G1 X144.599 Y110.658 E278.69568
G1 X144.599 Y112.072 E278.83677
G1 X110.428 Y77.901 E283.65867
G1 X109.013 Y77.901 E283.79986
G1 X144.599 Y113.487 E288.82143
G1 X144.599 Y114.901 E288.96252
G1 X107.599 Y77.901 E294.18362
G1 X106.185 Y77.901 E294.32471
G1 X144.599 Y116.315 E299.74534
G1 X144.599 Y117.729 E299.88643
G1 X104.775 Y77.905 E305.50602
G1 X104.554 Y77.909 E305.52808
G1 X104.37 Y77.917 E305.54646
G1 X103.48 Y77.983 E305.6355
G1 X103.444 Y77.988 E305.63913
G1 X144.599 Y119.143 E311.44655
G1 X144.599 Y120.558 E311.58773
G1 X102.215 Y78.173 E317.56865
G1 X101.382 Y78.358 E317.65379
G1 X101.208 Y78.406 E317.6718
G1 X101.074 Y78.447 E317.68578
G1 X144.599 Y121.972 E323.82763
G1 X144.599 Y123.386 E323.96872
G1 X100.004 Y78.791 E330.26155
G1 X99.349 Y79.041 E330.33151
G1 X99.207 Y79.101 E330.34689
G1 X98.999 Y79.2 E330.36988
G1 X144.599 Y124.8 E336.80453
G1 X144.599 Y126.215 E336.94572
G1 X98.053 Y79.669 E343.51386
G1 X97.447 Y80.009 E343.58319
G1 X97.322 Y80.084 E343.59774
G1 X97.162 Y80.191 E343.61695
G1 X144.599 Y127.629 E350.31089
G1 X144.599 Y129.043 E350.45198
G1 X96.323 Y80.767 E357.26424
G1 X95.713 Y81.237 E357.34108
G1 X95.597 Y81.333 E357.35611
G1 X95.533 Y81.391 E357.36472
G1 X144.599 Y130.457 E364.28847
G1 X144.599 Y131.871 E364.42956
G1 X94.793 Y82.065 E371.45772
G1 X94.176 Y82.706 E371.5465
G1 X94.101 Y82.788 E371.55758
G1 X144.599 Y133.286 E378.6834
G1 X144.599 Y134.7 E378.82449
G1 X93.459 Y83.56 E386.04089
G1 X93.386 Y83.657 E386.05301
G1 X92.875 Y84.371 E386.14062
G1 X92.867 Y84.382 E386.14197
G1 X144.599 Y136.114 E393.44192
G1 X144.599 Y137.528 E393.58301
G1 X92.327 Y85.256 E400.95915
G1 X92.3 Y85.301 E400.96439
G1 X92.234 Y85.419 E400.97788
G1 X91.841 Y86.184 E401.06369
G1 X144.599 Y138.942 E408.50842
G1 X144.599 Y140.357 E408.6496
G1 X91.411 Y87.169 E416.15501
G1 X91.397 Y87.205 E416.15886
G1 X91.333 Y87.37 E416.17652
G1 X91.047 Y88.212 E416.26525
G1 X91.045 Y88.217 E416.26579
G1 X144.599 Y141.771 E423.82283
G1 X144.599 Y142.486 E423.89418
G1 X144.575 Y143.161 E423.96157
G1 X90.749 Y89.335 E431.557
G1 X90.734 Y89.403 E431.56395
G1 X90.571 Y90.281 E431.65305
G1 X90.547 Y90.456 E431.67068
G1 X90.537 Y90.537 E431.67882
G1 X144.461 Y144.461 E439.28808
G1 X144.452 Y144.543 E439.29631
G1 X144.426 Y144.719 E439.31406
G1 X144.265 Y145.597 E439.40313
G1 X144.25 Y145.664 E439.40998
G1 X90.424 Y91.838 E447.00541
G1 X90.4 Y92.514 E447.07291
G1 X90.4 Y93.228 E447.14415
G1 X143.953 Y146.781 E454.70106
G1 X143.951 Y146.788 E454.70178
G1 X143.675 Y147.6 E454.78736
G1 X143.596 Y147.809 E454.80965
G1 X143.587 Y147.83 E454.81193
G1 X90.4 Y94.642 E462.31726
G1 X90.4 Y96.056 E462.45835
G1 X143.159 Y148.816 E469.90329
G1 X142.764 Y149.582 E469.98928
G1 X142.697 Y149.699 E470.00274
G1 X142.671 Y149.742 E470.00775
G1 X90.4 Y97.471 E477.38375
G1 X90.4 Y98.885 E477.52484
G1 X142.132 Y150.617 E484.82479
G1 X142.124 Y150.629 E484.82622
G1 X141.612 Y151.342 E484.91381
G1 X141.54 Y151.439 E484.92586
G1 X90.4 Y100.299 E492.14227
G1 X90.4 Y101.713 E492.28336
G1 X140.898 Y152.211 E499.40917
G1 X140.823 Y152.295 E499.42041
G1 X140.207 Y152.935 E499.50904
G1 X90.4 Y103.127 E506.53742
G1 X90.4 Y104.542 E506.67861
G1 X139.466 Y153.608 E513.60235
G1 X139.402 Y153.666 E513.61097
G1 X139.285 Y153.763 E513.62613
G1 X138.677 Y154.233 E513.70281
G1 X90.4 Y105.956 E520.51522
G1 X90.4 Y107.37 E520.65631
G1 X137.838 Y154.809 E527.35039
G1 X137.677 Y154.916 E527.36968
G1 X137.55 Y154.992 E527.38445
G1 X136.946 Y155.33 E527.45351
G1 X90.4 Y108.784 E534.02166
G1 X90.4 Y110.199 E534.16285
G1 X136.001 Y155.8 E540.59764
G1 X135.792 Y155.899 E540.62072
G1 X135.648 Y155.959 E540.63628
G1 X134.995 Y156.209 E540.70605
G1 X90.4 Y111.613 E546.99896
G1 X90.4 Y113.027 E547.14005
G1 X133.926 Y156.553 E553.28203
G1 X133.789 Y156.595 E553.29633
G1 X133.617 Y156.641 E553.3141
G1 X132.786 Y156.827 E553.39907
G1 X90.4 Y114.441 E559.38019
G1 X90.4 Y115.855 E559.52128
G1 X131.557 Y157.013 E565.32905
G1 X131.519 Y157.017 E565.33286
G1 X130.628 Y157.083 E565.42201
G1 X130.445 Y157.092 E565.44029
G1 X130.225 Y157.095 E565.46224
G1 X90.4 Y117.27 E571.08198
G1 X90.4 Y118.684 E571.22307
G1 X128.815 Y157.099 E576.64384
G1 X127.4 Y157.099 E576.78503
G1 X90.4 Y120.098 E582.0062
G1 X90.4 Y121.512 E582.14729
G1 X125.986 Y157.099 E587.16893
G1 X124.572 Y157.099 E587.31002
G1 X90.4 Y122.926 E592.13213
G1 X90.4 Y124.341 E592.27332
G1 X123.158 Y157.099 E596.89583
G1 X121.743 Y157.099 E597.03701
G1 X90.4 Y125.755 E601.45992
G1 X90.4 Y127.169 E601.60101
G1 X120.329 Y157.099 E605.82439
G1 X118.915 Y157.099 E605.96548
G1 X90.4 Y128.583 E609.98932
G1 X90.4 Y129.998 E610.13051
G1 X117.501 Y157.099 E613.95475
G1 X116.087 Y157.099 E614.09584
G1 X90.4 Y131.412 E617.72056
G1 X90.4 Y132.826 E617.86165
G1 X114.672 Y157.099 E621.28676
G1 X113.258 Y157.099 E621.42785
G1 X90.4 Y134.24 E624.65343
G1 X90.4 Y135.654 E624.79452
G1 X111.844 Y157.099 E627.82057
G1 X110.43 Y157.099 E627.96166
G1 X90.4 Y137.069 E630.78811
G1 X90.4 Y138.483 E630.9292
G1 X109.016 Y157.099 E633.55612
G1 X107.601 Y157.099 E633.69731
G1 X90.4 Y139.897 E636.12462
G1 X90.4 Y141.311 E636.26571
G1 X106.187 Y157.099 E638.4935
G1 X104.996 Y157.099 E638.61234
G1 X104.764 Y157.09 E638.6355
G1 X90.404 Y142.73 E640.66186
G1 X90.408 Y142.945 E640.68331
G1 X90.417 Y143.126 E640.70139
G1 X90.482 Y144.017 E640.79053
G1 X90.5 Y144.178 E640.8067
G1 X90.511 Y144.251 E640.81407
G1 X103.243 Y156.984 E642.61076
