;FLAVOR:Marlin
;TIME:10778
;Filament used: 8.96502m
;Layer height: 0.2
;MINX:76.834
;MINY:64.335
;MINZ:0.24
;MAXX:158.163
;MAXY:170.664
;MAXZ:12.69
;Generated with Cura_SteamEngine master
M140 S55
M105
M190 S55
M104 S200
M105
M109 S200
M82 ;absolute extrusion mode
; Ender 3 Custom Start G-code
G92 E0 ; Reset Extruder
G28 ; Home all axes
G1 Z2.0 F3000 ; Move Z Axis up little to prevent scratching of Heat Bed
G1 X0.1 Y20 Z0.3 F5000.0 ; Move to start position
G1 X0.1 Y200.0 Z0.3 F1500.0 E15 ; Draw the first line
G1 X0.4 Y200.0 Z0.3 F5000.0 ; Move to side a little
G1 X0.4 Y20 Z0.3 F1500.0 E30 ; Draw the second line
G92 E0 ; Reset Extruder
G1 Z2.0 F3000 ; Move Z Axis up little to prevent scratching of Heat Bed
G1 X5 Y20 Z0.3 F5000.0 ; Move over to prevent blob squish
G92 E0
G92 E0
G1 F2700 E-5
;LAYER_COUNT:58
;LAYER:-6
M107
G0 F9000 X81.575 Y70.318 Z0.24
;TYPE:SUPPORT-INTERFACE
G1 F2700 E0
G1 F1125 X81.676 Y70.205 E0.0121
G1 X82.301 Y69.556 E0.08402
G1 X82.426 Y69.436 E0.09785
G1 X83.097 Y68.833 E0.16987
G1 X83.213 Y68.737 E0.18188
G1 X83.925 Y68.187 E0.2537
G1 X84.084 Y68.074 E0.26927
G1 X84.822 Y67.584 E0.33999
G1 X84.948 Y67.508 E0.35173
G1 X85.742 Y67.062 E0.42443
G1 X85.892 Y66.984 E0.43792
G1 X86.707 Y66.601 E0.5098
G1 X86.85 Y66.541 E0.52218
G1 X87.709 Y66.212 E0.59561
G1 X87.859 Y66.16 E0.60828
G1 X88.709 Y65.905 E0.67912
G1 X88.882 Y65.858 E0.69343
G1 X89.777 Y65.658 E0.76664
G1 X89.907 Y65.635 E0.77717
G1 X90.812 Y65.501 E0.8502
G1 X90.981 Y65.483 E0.86377
G1 X91.87 Y65.417 E0.93493
G1 X92.054 Y65.408 E0.94963
G1 X92.559 Y65.4 E0.98995
G1 X142.502 Y65.401 E4.97662
G1 X143.503 Y65.437 E5.05657
G1 X143.626 Y65.446 E5.06642
G1 X144.543 Y65.548 E5.14007
G1 X144.718 Y65.573 E5.15418
G1 X145.607 Y65.737 E5.22634
G1 X145.73 Y65.765 E5.23641
G1 X146.624 Y65.999 E5.31018
G1 X146.787 Y66.048 E5.32376
G1 X147.629 Y66.334 E5.39475
G1 X147.795 Y66.398 E5.40895
G1 X148.598 Y66.739 E5.47859
G1 X148.787 Y66.827 E5.49523
G1 X149.581 Y67.235 E5.56649
G1 X149.698 Y67.302 E5.57725
G1 X150.477 Y67.776 E5.65004
G1 X150.628 Y67.876 E5.6645
G1 X151.342 Y68.387 E5.73458
G1 X151.49 Y68.5 E5.74945
G1 X152.181 Y69.076 E5.82126
G1 X152.294 Y69.177 E5.83335
G1 X152.943 Y69.802 E5.90528
G1 X153.063 Y69.927 E5.91911
G1 X153.666 Y70.598 E5.99112
G1 X153.762 Y70.714 E6.00314
G1 X154.321 Y71.438 E6.07616
G1 X154.415 Y71.569 E6.08903
G1 X154.915 Y72.323 E6.16124
G1 X154.991 Y72.449 E6.17299
G1 X155.437 Y73.243 E6.24569
G1 X155.515 Y73.393 E6.25918
G1 X155.898 Y74.208 E6.33106
G1 X155.958 Y74.351 E6.34344
G1 X156.287 Y75.21 E6.41687
G1 X156.339 Y75.36 E6.42954
G1 X156.594 Y76.21 E6.50038
G1 X156.641 Y76.383 E6.51469
G1 X156.839 Y77.269 E6.58716
G1 X156.864 Y77.408 E6.59843
G1 X156.997 Y78.307 E6.67098
G1 X157.015 Y78.469 E6.68399
G1 X157.082 Y79.371 E6.75619
G1 X157.091 Y79.555 E6.77089
G1 X157.099 Y80.056 E6.81089
G1 X157.099 Y154.986 E12.79213
G1 X157.063 Y155.992 E12.87248
G1 X157.053 Y156.127 E12.88329
G1 X156.951 Y157.044 E12.95694
G1 X156.926 Y157.219 E12.97105
G1 X156.764 Y158.097 E13.04232
G1 X156.734 Y158.231 E13.05328
G1 X156.503 Y159.116 E13.12629
G1 X156.451 Y159.288 E13.14063
G1 X156.175 Y160.1 E13.20909
G1 X156.095 Y160.309 E13.22696
G1 X155.76 Y161.099 E13.29545
G1 X155.679 Y161.274 E13.31084
G1 X155.264 Y162.082 E13.38335
G1 X155.197 Y162.199 E13.39412
G1 X154.723 Y162.978 E13.46691
G1 X154.623 Y163.129 E13.48136
G1 X154.112 Y163.843 E13.55145
G1 X153.999 Y163.991 E13.56631
G1 X153.423 Y164.682 E13.63812
G1 X153.322 Y164.795 E13.65022
G1 X152.697 Y165.444 E13.72214
G1 X152.572 Y165.564 E13.73597
G1 X151.902 Y166.166 E13.80787
G1 X151.785 Y166.263 E13.82001
G1 X151.073 Y166.813 E13.89182
G1 X150.914 Y166.926 E13.90739
G1 X150.176 Y167.416 E13.97811
G1 X150.05 Y167.492 E13.98985
G1 X149.256 Y167.938 E14.06255
G1 X149.105 Y168.016 E14.07611
G1 X148.291 Y168.399 E14.14792
G1 X148.148 Y168.459 E14.1603
G1 X147.289 Y168.788 E14.23373
G1 X147.139 Y168.84 E14.2464
G1 X146.289 Y169.095 E14.31724
G1 X146.116 Y169.142 E14.33155
G1 X145.221 Y169.342 E14.40476
G1 X145.091 Y169.365 E14.41529
G1 X144.186 Y169.499 E14.48832
G1 X144.018 Y169.517 E14.50181
G1 X143.128 Y169.583 E14.57305
G1 X142.944 Y169.592 E14.58775
G1 X142.439 Y169.6 E14.62807
G1 X92.496 Y169.599 E18.61474
G1 X91.495 Y169.563 E18.69469
G1 X91.372 Y169.554 E18.70454
G1 X90.455 Y169.452 E18.77819
G1 X90.28 Y169.427 E18.7923
G1 X89.391 Y169.263 E18.86446
G1 X89.268 Y169.235 E18.87453
G1 X88.374 Y169.001 E18.9483
G1 X88.211 Y168.952 E18.96188
G1 X87.369 Y168.666 E19.03287
G1 X87.203 Y168.602 E19.04707
G1 X86.4 Y168.261 E19.11671
G1 X86.211 Y168.173 E19.13335
G1 X85.417 Y167.765 E19.20461
G1 X85.3 Y167.698 E19.21537
G1 X84.521 Y167.224 E19.28816
G1 X84.37 Y167.124 E19.30262
G1 X83.656 Y166.613 E19.3727
G1 X83.508 Y166.5 E19.38757
G1 X82.817 Y165.924 E19.45938
G1 X82.704 Y165.823 E19.47148
G1 X82.055 Y165.198 E19.5434
G1 X81.935 Y165.073 E19.55723
G1 X81.332 Y164.402 E19.62924
G1 X81.235 Y164.284 E19.64144
G1 X80.677 Y163.562 E19.71427
G1 X80.573 Y163.415 E19.72865
G1 X80.08 Y162.672 E19.79983
G1 X80.007 Y162.551 E19.81111
G1 X79.555 Y161.746 E19.8848
G1 X79.483 Y161.607 E19.8973
G1 X79.086 Y160.761 E19.9719
G1 X79.04 Y160.649 E19.98156
G1 X78.711 Y159.79 E20.05499
G1 X78.654 Y159.625 E20.06892
G1 X78.404 Y158.79 E20.1385
G1 X78.357 Y158.617 E20.15281
G1 X78.156 Y157.716 E20.2265
G1 X78.134 Y157.592 E20.23655
G1 X77.999 Y156.678 E20.3103
G1 X77.982 Y156.518 E20.32315
G1 X77.916 Y155.626 E20.39454
G1 X77.907 Y155.445 E20.40901
G1 X77.899 Y154.944 E20.44901
G1 X77.899 Y80.014 E26.43024
G1 X77.935 Y79.008 E26.5106
G1 X77.945 Y78.873 E26.5214
G1 X78.047 Y77.956 E26.59505
G1 X78.072 Y77.781 E26.60917
G1 X78.234 Y76.903 E26.68043
G1 X78.264 Y76.769 E26.6914
G1 X78.495 Y75.884 E26.76441
G1 X78.547 Y75.712 E26.77875
G1 X78.833 Y74.87 E26.84973
G1 X78.897 Y74.704 E26.86394
G1 X79.238 Y73.901 E26.93357
G1 X79.319 Y73.726 E26.94897
G1 X79.734 Y72.918 E27.02148
G1 X79.801 Y72.801 E27.03224
G1 X80.275 Y72.022 E27.10503
G1 X80.375 Y71.871 E27.11948
G1 X80.886 Y71.157 E27.18957
G1 X80.999 Y71.009 E27.20444
G1 X81.575 Y70.318 E27.27624
G0 F9000 X81.6 Y70.29
G1 F1125 X81.6 Y164.7 E34.81246
G0 F9000 X83.2 Y166.243
G1 F1125 X83.2 Y68.747 E42.59501
G0 F9000 X84.8 Y67.598
G1 F1125 X84.8 Y167.393 E50.56108
G0 F9000 X86.4 Y168.261
G1 F1125 X86.4 Y66.745 E58.66453
G0 F9000 X88 Y66.117
G1 F1125 X88 Y168.88 E66.86751
G0 F9000 X89.6 Y169.301
G1 F1125 X89.6 Y65.697 E75.13763
G0 F9000 X91.2 Y65.466
G1 F1125 X91.2 Y169.534 E83.44479
G0 F9000 X92.8 Y169.599
G1 F1125 X92.8 Y65.401 E91.76232
G0 F9000 X94.4 Y65.401
G1 F1125 X94.4 Y169.599 E100.07986
G0 F9000 X96 Y169.599
G1 F1125 X96 Y65.401 E108.39739
G0 F9000 X97.6 Y65.401
G1 F1125 X97.6 Y169.599 E116.71493
G0 F9000 X99.2 Y169.599
G1 F1125 X99.2 Y65.401 E125.03246
G0 F9000 X100.8 Y65.401
G1 F1125 X100.8 Y169.599 E133.35
G0 F9000 X102.4 Y169.599
G1 F1125 X102.4 Y65.401 E141.66753
G0 F9000 X104 Y65.401
G1 F1125 X104 Y169.599 E149.98507
G0 F9000 X105.6 Y169.599
G1 F1125 X105.6 Y65.401 E158.3026
G0 F9000 X107.2 Y65.401
G1 F1125 X107.2 Y169.599 E166.62014
G0 F9000 X108.8 Y169.599
G1 F1125 X108.8 Y65.401 E174.93767
G0 F9000 X110.4 Y65.401
G1 F1125 X110.4 Y169.599 E183.25521
G0 F9000 X112 Y169.599
G1 F1125 X112 Y65.401 E191.57274
G0 F9000 X113.6 Y65.401
G1 F1125 X113.6 Y169.599 E199.89028
G0 F9000 X115.2 Y169.599
G1 F1125 X115.2 Y65.401 E208.20781
G0 F9000 X116.8 Y65.401
G1 F1125 X116.8 Y169.599 E216.52535
G0 F9000 X118.4 Y169.599
G1 F1125 X118.4 Y65.401 E224.84288
G0 F9000 X120 Y65.401
G1 F1125 X120 Y169.599 E233.16042
G0 F9000 X121.6 Y169.599
G1 F1125 X121.6 Y65.401 E241.47795
G0 F9000 X123.2 Y65.401
G1 F1125 X123.2 Y169.599 E249.79549
G0 F9000 X124.8 Y169.599
G1 F1125 X124.8 Y65.401 E258.11302
G0 F9000 X126.4 Y65.401
G1 F1125 X126.4 Y169.599 E266.43056
G0 F9000 X128 Y169.599
G1 F1125 X128 Y65.401 E274.74809
G0 F9000 X129.6 Y65.401
G1 F1125 X129.6 Y169.599 E283.06563
G0 F9000 X131.2 Y169.599
G1 F1125 X131.2 Y65.401 E291.38316
G0 F9000 X132.8 Y65.401
G1 F1125 X132.8 Y169.599 E299.7007
G0 F9000 X134.4 Y169.599
G1 F1125 X134.4 Y65.401 E308.01823
G0 F9000 X136 Y65.401
G1 F1125 X136 Y169.599 E316.33577
G0 F9000 X137.6 Y169.599
G1 F1125 X137.6 Y65.401 E324.6533
G0 F9000 X139.2 Y65.401
G1 F1125 X139.2 Y169.599 E332.97084
G0 F9000 X140.8 Y169.599
G1 F1125 X140.8 Y65.401 E341.28837
G0 F9000 X142.4 Y65.401
G1 F1125 X142.4 Y169.599 E349.60591
G0 F9000 X144 Y169.519
G1 F1125 X144 Y65.488 E357.91011
G0 F9000 X145.6 Y65.736
G1 F1125 X145.6 Y169.258 E366.17369
G0 F9000 X147.2 Y168.819
G1 F1125 X147.2 Y66.189 E374.36606
G0 F9000 X148.8 Y66.834
G1 F1125 X148.8 Y168.16 E382.45434
G0 F9000 X150.4 Y167.268
G1 F1125 X150.4 Y67.73 E390.39989
G0 F9000 X152 Y68.926
G1 F1125 X152 Y166.078 E398.15498
G0 F9000 X153.6 Y164.47
G1 F1125 X153.6 Y70.525 E405.65408
G0 F9000 X155.2 Y72.822
G1 F1125 X155.2 Y162.194 E412.78814
G1 F2700 E407.78814
G0 F9000 X156.204 Y162.58
G0 X157.086 Y160.7
G0 X157.21 Y160.335
G0 X157.767 Y158.488
G0 X156.8 Y157.902
G1 F2700 E412.78814
G1 F1125 X156.8 Y77.095 E419.2385
G1 F2700 E414.2385
G0 F9000 X157.838 Y76.863
G0 X157.286 Y74.841
G0 X156.465 Y72.914
G0 X155.818 Y71.76
G0 X154.598 Y70.056
G0 X153.702 Y69.055
G0 X152.147 Y67.662
G0 X151.042 Y66.874
G0 X149.248 Y65.868
G0 X147.984 Y65.331
G0 X145.987 Y64.732
G0 X144.671 Y64.491
G0 X142.486 Y64.336
G0 X91.809 Y64.354
G0 X89.741 Y64.583
G0 X88.426 Y64.879
G0 X86.46 Y65.55
G0 X85.242 Y66.122
G0 X83.476 Y67.201
G0 X82.396 Y68.032
G0 X80.891 Y69.486
G0 X80.197 Y70.322
G0 X79.09 Y71.921
G0 X80 Y72.473
G1 F2700 E419.2385
G1 F1125 X80 Y162.538 E426.42788
G0 F9000 X78.4 Y158.775
G1 F1125 X78.4 Y76.247 E433.01562
G0 F300 X78.4 Y76.247 Z0.54
G0 F9000 X78.544 Y75.716
;TIME_ELAPSED:301.622476
;LAYER:-5
;TYPE:SUPPORT
G1 F1125 X157.098 Y154.27 E444.10044
G1 X157.098 Y154.985 E444.17178
G1 X157.074 Y155.66 E444.23918
G1 X78.248 Y76.834 E455.36238
G1 X78.233 Y76.902 E455.36932
G1 X78.07 Y77.781 E455.45853
G1 X78.046 Y77.955 E455.47605
G1 X78.037 Y78.037 E455.48428
G1 X156.96 Y156.96 E466.62117
G1 X156.95 Y157.042 E466.62941
G1 X156.926 Y157.218 E466.64714
G1 X156.764 Y158.096 E466.73622
G1 X156.749 Y158.163 E466.74307
G1 X77.923 Y79.337 E477.86628
G1 X77.899 Y80.013 E477.93377
G1 X77.898 Y80.726 E478.00491
G1 X156.453 Y159.281 E489.08987
G1 X156.45 Y159.287 E489.09054
G1 X156.175 Y160.099 E489.17608
G1 X156.095 Y160.308 E489.19841
G1 X156.086 Y160.329 E489.20069
G1 X77.898 Y82.141 E500.23386
G1 X77.898 Y83.555 E500.37495
G1 X155.658 Y161.315 E511.34773
G1 X155.263 Y162.081 E511.43372
G1 X155.196 Y162.198 E511.44718
G1 X155.17 Y162.241 E511.45219
G1 X77.898 Y84.969 E522.35611
G1 X77.898 Y86.383 E522.4972
G1 X154.631 Y163.116 E533.32505
G1 X154.623 Y163.128 E533.32649
G1 X154.112 Y163.842 E533.4141
G1 X154.038 Y163.938 E533.42619
G1 X77.898 Y87.797 E544.17044
G1 X77.898 Y89.212 E544.31163
G1 X153.397 Y164.711 E554.96535
G1 X153.321 Y164.794 E554.97658
G1 X152.706 Y165.433 E555.06508
G1 X77.898 Y90.626 E565.62122
G1 X77.898 Y92.04 E565.76231
G1 X151.965 Y166.107 E576.21397
G1 X151.902 Y166.165 E576.22251
G1 X151.784 Y166.262 E576.23775
G1 X151.175 Y166.732 E576.31451
G1 X77.898 Y93.454 E586.65476
G1 X77.898 Y94.868 E586.79585
G1 X150.337 Y167.307 E597.01777
G1 X150.176 Y167.415 E597.03712
G1 X150.05 Y167.491 E597.0518
G1 X149.445 Y167.83 E597.121
G1 X77.898 Y96.283 E607.21705
G1 X77.898 Y97.697 E607.35814
G1 X148.5 Y168.299 E617.32084
G1 X148.29 Y168.398 E617.34401
G1 X148.147 Y168.458 E617.35948
G1 X147.494 Y168.707 E617.42922
G1 X77.898 Y99.111 E627.24996
G1 X77.898 Y100.525 E627.39105
G1 X146.425 Y169.052 E637.06095
G1 X146.289 Y169.094 E637.07516
G1 X146.116 Y169.141 E637.09304
G1 X145.284 Y169.326 E637.17809
G1 X77.898 Y101.94 E646.68698
G1 X77.898 Y103.354 E646.82807
G1 X144.056 Y169.511 E656.16361
G1 X144.017 Y169.516 E656.16753
G1 X143.128 Y169.582 E656.25648
G1 X142.944 Y169.591 E656.27486
G1 X142.723 Y169.593 E656.29691
G1 X77.898 Y104.768 E665.44442
G1 X77.898 Y106.182 E665.58551
G1 X141.314 Y169.598 E674.53419
G1 X139.9 Y169.598 E674.67528
G1 X77.898 Y107.596 E683.42444
G1 X77.898 Y109.011 E683.56563
G1 X138.486 Y169.598 E692.11518
G1 X137.071 Y169.598 E692.25637
G1 X77.898 Y110.425 E700.60631
G1 X77.898 Y111.839 E700.7474
G1 X135.657 Y169.598 E708.89782
G1 X134.243 Y169.598 E709.03891
G1 X77.898 Y113.253 E716.9898
G1 X77.898 Y114.667 E717.13089
G1 X132.829 Y169.598 E724.88225
G1 X131.415 Y169.598 E725.02334
G1 X77.898 Y116.082 E732.57509
G1 X77.898 Y117.496 E732.71618
G1 X130 Y169.598 E740.06834
G1 X128.586 Y169.598 E740.20943
G1 X77.898 Y118.91 E747.36205
G1 X77.898 Y120.324 E747.50314
G1 X127.172 Y169.598 E754.45623
G1 X125.758 Y169.598 E754.59732
G1 X77.898 Y121.739 E761.35082
G1 X77.898 Y123.153 E761.49191
G1 X124.344 Y169.598 E768.04587
G1 X122.929 Y169.598 E768.18706
G1 X77.898 Y124.567 E774.54142
G1 X77.898 Y125.981 E774.68251
G1 X121.515 Y169.598 E780.83734
G1 X120.101 Y169.598 E780.97843
G1 X77.898 Y127.395 E786.93373
G1 X77.898 Y128.81 E787.07492
G1 X118.687 Y169.598 E792.83061
G1 X117.272 Y169.598 E792.9718
G1 X77.898 Y130.224 E798.5279
G1 X77.898 Y131.638 E798.66899
G1 X115.858 Y169.598 E804.02555
G1 X114.444 Y169.598 E804.16664
G1 X77.898 Y133.052 E809.32368
G1 X77.898 Y134.466 E809.46477
G1 X113.03 Y169.598 E814.42227
G1 X111.616 Y169.598 E814.56336
G1 X77.898 Y135.881 E819.32127
G1 X77.898 Y137.295 E819.46236
G1 X110.201 Y169.598 E824.02066
G1 X108.787 Y169.598 E824.16175
G1 X77.898 Y138.709 E828.52052
G1 X77.898 Y140.123 E828.66161
G1 X107.373 Y169.598 E832.82085
G1 X105.959 Y169.598 E832.96194
G1 X77.898 Y141.538 E836.92158
G1 X77.898 Y142.952 E837.06267
G1 X104.545 Y169.598 E840.82278
G1 X103.13 Y169.598 E840.96397
G1 X77.898 Y144.366 E844.52447
G1 X77.898 Y145.78 E844.66556
G1 X101.716 Y169.598 E848.02654
G1 X100.302 Y169.598 E848.16763
G1 X77.898 Y147.194 E851.32908
G1 X77.898 Y148.609 E851.47027
G1 X98.888 Y169.598 E854.43211
G1 X97.473 Y169.598 E854.5733
G1 X77.898 Y150.023 E857.33554
G1 X77.898 Y151.437 E857.47663
G1 X96.059 Y169.598 E860.03935
G1 X94.645 Y169.598 E860.18044
G1 X77.898 Y152.851 E862.54362
G1 X77.898 Y154.265 E862.68471
G1 X93.231 Y169.598 E864.84836
G1 X92.495 Y169.598 E864.9218
G1 X91.79 Y169.572 E864.99219
G1 X77.921 Y155.703 E866.94926
G1 X77.981 Y156.517 E867.0307
G1 X77.998 Y156.677 E867.04675
G1 X78.087 Y157.283 E867.10787
G1 X90.219 Y169.415 E868.81983
G1 X89.39 Y169.262 E868.90394
G1 X89.267 Y169.234 E868.91653
G1 X88.394 Y169.004 E869.00661
G1 X78.499 Y159.109 E870.4029
G1 X78.653 Y159.624 E870.45654
G1 X78.71 Y159.789 E870.47395
G1 X79.039 Y160.648 E870.56574
G1 X79.086 Y160.76 E870.57786
G1 X79.395 Y161.419 E870.65048
G1 X86.079 Y168.104 E871.59374
G1 X85.417 Y167.763 E871.66804
G1 X85.299 Y167.697 E871.68153
G1 X84.521 Y167.222 E871.77248
G1 X84.37 Y167.123 E871.7905
G1 X83.655 Y166.612 E871.87819
G1 X83.507 Y166.499 E871.89677
G1 X82.817 Y165.923 E871.98646
G1 X82.703 Y165.822 E872.00165
G1 X82.055 Y165.197 E872.09148
G1 X81.935 Y165.072 E872.10877
G1 X81.332 Y164.401 E872.19879
G1 X81.235 Y164.283 E872.21403
G1 X80.677 Y163.561 E872.30508
G1 X80.572 Y163.414 E872.32311
G1 X80.079 Y162.671 E872.41208
G1 X80.007 Y162.55 E872.42613
G1 X79.555 Y161.745 E872.51825
G1 X79.483 Y161.606 E872.53387
G1 F2700 E867.53387
G0 F9000 X78.52 Y162.06
G0 X77.712 Y160.159
G0 X77.326 Y158.878
G0 X76.944 Y156.82
G0 X76.834 Y154.947
G0 X76.873 Y78.943
G0 X77.02 Y77.617
G0 X77.472 Y75.59
G0 X78.546 Y75.712
G1 F2700 E872.53387
G1 F1125 X78.832 Y74.869 E872.62269
G1 X78.896 Y74.704 E872.64035
G1 X78.91 Y74.668 E872.6442
G1 X157.098 Y152.855 E883.6773
G1 X157.098 Y151.441 E883.81839
G1 X79.34 Y73.683 E894.79089
G1 X79.733 Y72.918 E894.8767
G1 X79.799 Y72.8 E894.89019
G1 X79.826 Y72.755 E894.89543
G1 X157.098 Y150.027 E905.79934
G1 X157.098 Y148.613 E905.94043
G1 X80.366 Y71.881 E916.76815
G1 X80.374 Y71.871 E916.76942
G1 X80.885 Y71.156 E916.85711
G1 X80.958 Y71.059 E916.86923
G1 X157.098 Y147.199 E927.6134
G1 X157.098 Y145.784 E927.75459
G1 X81.6 Y70.287 E938.40811
G1 X81.675 Y70.205 E938.41919
G1 X82.292 Y69.564 E938.50797
G1 X157.098 Y144.37 E949.0639
