;FLAVOR:Marlin
;TIME:7502
;Filament used: 6.2715m
;Layer height: 0.2
;MINX:77.156
;MINY:76.834
;MINZ:0.24
;MAXX:158.164
;MAXY:158.163
;MAXZ:12.49
;Generated with Cura_SteamEngine master
M140 S55
M105
M190 S55
M104 S200
M105
M109 S200
M82 ;absolute extrusion mode
; Ender 3 Custom Start G-code
G92 E0 ; Reset Extruder
G28 ; Home all axes
G1 Z2.0 F3000 ; Move Z Axis up little to prevent scratching of Heat Bed
G1 X0.1 Y20 Z0.3 F5000.0 ; Move to start position
G1 X0.1 Y200.0 Z0.3 F1500.0 E15 ; Draw the first line
G1 X0.4 Y200.0 Z0.3 F5000.0 ; Move to side a little
G1 X0.4 Y20 Z0.3 F1500.0 E30 ; Draw the second line
G92 E0 ; Reset Extruder
G1 Z2.0 F3000 ; Move Z Axis up little to prevent scratching of Heat Bed
G1 X5 Y20 Z0.3 F5000.0 ; Move over to prevent blob squish
G92 E0
G92 E0
G1 F2700 E-5
;LAYER_COUNT:57
;LAYER:-6
M107
G0 F9000 X82.302 Y82.055 Z0.24
;TYPE:SUPPORT-INTERFACE
G1 F2700 E0
G1 F1125 X82.427 Y81.935 E0.01383
G1 X83.098 Y81.332 E0.08584
G1 X83.214 Y81.236 E0.09786
G1 X83.926 Y80.686 E0.16968
G1 X84.085 Y80.573 E0.18525
G1 X84.823 Y80.083 E0.25596
G1 X84.949 Y80.007 E0.26771
G1 X85.743 Y79.561 E0.34041
G1 X85.893 Y79.483 E0.3539
G1 X86.708 Y79.1 E0.42578
G1 X86.851 Y79.04 E0.43816
G1 X87.71 Y78.711 E0.51159
G1 X87.86 Y78.659 E0.52426
G1 X88.71 Y78.404 E0.5951
G1 X88.883 Y78.357 E0.60941
G1 X89.778 Y78.157 E0.68261
G1 X89.908 Y78.134 E0.69315
G1 X90.813 Y78 E0.76618
G1 X90.982 Y77.982 E0.77975
G1 X91.871 Y77.916 E0.85091
G1 X92.055 Y77.907 E0.86561
G1 X92.56 Y77.899 E0.90593
G1 X142.503 Y77.9 E4.8926
G1 X143.504 Y77.936 E4.97255
G1 X143.627 Y77.945 E4.9824
G1 X144.544 Y78.047 E5.05605
G1 X144.719 Y78.072 E5.07016
G1 X145.608 Y78.236 E5.14232
G1 X145.731 Y78.264 E5.15239
G1 X146.625 Y78.498 E5.22615
G1 X146.788 Y78.547 E5.23974
G1 X147.63 Y78.833 E5.31073
G1 X147.796 Y78.897 E5.32493
G1 X148.599 Y79.238 E5.39457
G1 X148.788 Y79.326 E5.41121
G1 X149.582 Y79.734 E5.48247
G1 X149.699 Y79.801 E5.49323
G1 X150.478 Y80.275 E5.56602
G1 X150.629 Y80.375 E5.58048
G1 X151.343 Y80.886 E5.65056
G1 X151.491 Y80.999 E5.66543
G1 X152.182 Y81.575 E5.73724
G1 X152.295 Y81.676 E5.74933
G1 X152.944 Y82.301 E5.82126
G1 X153.064 Y82.426 E5.83509
G1 X153.667 Y83.097 E5.9071
G1 X153.763 Y83.213 E5.91912
G1 X154.322 Y83.937 E5.99213
G1 X154.416 Y84.068 E6.005
G1 X154.916 Y84.822 E6.07722
G1 X154.992 Y84.948 E6.08897
G1 X155.438 Y85.742 E6.16166
G1 X155.516 Y85.892 E6.17516
G1 X155.899 Y86.707 E6.24704
G1 X155.959 Y86.85 E6.25942
G1 X156.288 Y87.709 E6.33285
G1 X156.34 Y87.859 E6.34552
G1 X156.595 Y88.709 E6.41636
G1 X156.642 Y88.882 E6.43067
G1 X156.84 Y89.768 E6.50314
G1 X156.865 Y89.907 E6.51441
G1 X156.998 Y90.806 E6.58695
G1 X157.016 Y90.968 E6.59997
G1 X157.083 Y91.87 E6.67217
G1 X157.092 Y92.054 E6.68687
G1 X157.1 Y92.555 E6.72687
G1 X157.1 Y142.485 E10.7125
G1 X157.064 Y143.491 E10.79285
G1 X157.054 Y143.626 E10.80366
G1 X156.952 Y144.543 E10.87731
G1 X156.927 Y144.718 E10.89142
G1 X156.765 Y145.596 E10.96269
G1 X156.735 Y145.73 E10.97365
G1 X156.504 Y146.615 E11.04666
G1 X156.452 Y146.787 E11.061
G1 X156.176 Y147.599 E11.12946
G1 X156.096 Y147.808 E11.14733
G1 X155.761 Y148.598 E11.21582
G1 X155.68 Y148.773 E11.23122
G1 X155.265 Y149.581 E11.30372
G1 X155.198 Y149.698 E11.31449
G1 X154.724 Y150.477 E11.38728
G1 X154.624 Y150.628 E11.40173
G1 X154.113 Y151.342 E11.47182
G1 X154 Y151.49 E11.48668
G1 X153.424 Y152.181 E11.55849
G1 X153.323 Y152.294 E11.57059
G1 X152.698 Y152.943 E11.64251
G1 X152.573 Y153.063 E11.65635
G1 X151.903 Y153.665 E11.72825
G1 X151.786 Y153.762 E11.74038
G1 X151.074 Y154.312 E11.81219
G1 X150.915 Y154.425 E11.82777
G1 X150.177 Y154.915 E11.89848
G1 X150.051 Y154.991 E11.91022
G1 X149.257 Y155.437 E11.98292
G1 X149.106 Y155.515 E11.99649
G1 X148.292 Y155.898 E12.0683
G1 X148.149 Y155.958 E12.08067
G1 X147.29 Y156.287 E12.1541
G1 X147.14 Y156.339 E12.16677
G1 X146.29 Y156.594 E12.23761
G1 X146.117 Y156.641 E12.25192
G1 X145.222 Y156.841 E12.32513
G1 X145.092 Y156.864 E12.33567
G1 X144.187 Y156.998 E12.40869
G1 X144.019 Y157.016 E12.42218
G1 X143.129 Y157.082 E12.49342
G1 X142.945 Y157.091 E12.50813
G1 X142.44 Y157.099 E12.54844
G1 X92.497 Y157.098 E16.53511
G1 X91.496 Y157.062 E16.61506
G1 X91.373 Y157.053 E16.62491
G1 X90.456 Y156.951 E16.69856
G1 X90.281 Y156.926 E16.71267
G1 X89.392 Y156.762 E16.78483
G1 X89.269 Y156.734 E16.7949
G1 X88.375 Y156.5 E16.86867
G1 X88.212 Y156.451 E16.88225
G1 X87.37 Y156.165 E16.95324
G1 X87.204 Y156.101 E16.96744
G1 X86.401 Y155.76 E17.03708
G1 X86.212 Y155.672 E17.05372
G1 X85.418 Y155.264 E17.12498
G1 X85.301 Y155.197 E17.13574
G1 X84.522 Y154.723 E17.20853
G1 X84.371 Y154.623 E17.22299
G1 X83.657 Y154.112 E17.29308
G1 X83.509 Y153.999 E17.30794
G1 X82.818 Y153.423 E17.37975
G1 X82.705 Y153.322 E17.39185
G1 X82.056 Y152.697 E17.46377
G1 X81.936 Y152.572 E17.4776
G1 X81.333 Y151.901 E17.54961
G1 X81.236 Y151.783 E17.56181
G1 X80.678 Y151.061 E17.63465
G1 X80.574 Y150.914 E17.64902
G1 X80.081 Y150.171 E17.7202
G1 X80.008 Y150.05 E17.73148
G1 X79.556 Y149.245 E17.80517
G1 X79.484 Y149.106 E17.81767
G1 X79.087 Y148.26 E17.89227
G1 X79.041 Y148.148 E17.90193
G1 X78.712 Y147.289 E17.97536
G1 X78.655 Y147.124 E17.98929
G1 X78.405 Y146.289 E18.05887
G1 X78.358 Y146.116 E18.07318
G1 X78.157 Y145.215 E18.14687
G1 X78.135 Y145.091 E18.15692
G1 X78 Y144.177 E18.23067
G1 X77.983 Y144.017 E18.24352
G1 X77.917 Y143.125 E18.31491
G1 X77.908 Y142.944 E18.32938
G1 X77.9 Y142.443 E18.36938
G1 X77.9 Y92.513 E22.35501
G1 X77.936 Y91.507 E22.43536
G1 X77.946 Y91.372 E22.44617
G1 X78.048 Y90.455 E22.51982
G1 X78.073 Y90.28 E22.53393
G1 X78.235 Y89.402 E22.6052
G1 X78.265 Y89.268 E22.61616
G1 X78.496 Y88.383 E22.68917
G1 X78.548 Y88.211 E22.70351
G1 X78.834 Y87.369 E22.7745
G1 X78.898 Y87.203 E22.7887
G1 X79.239 Y86.4 E22.85834
G1 X79.32 Y86.225 E22.87373
G1 X79.735 Y85.417 E22.94624
G1 X79.802 Y85.3 E22.957
G1 X80.276 Y84.521 E23.02979
G1 X80.376 Y84.37 E23.04425
G1 X80.887 Y83.656 E23.11433
G1 X81 Y83.508 E23.1292
G1 X81.576 Y82.817 E23.20101
G1 X81.677 Y82.704 E23.21311
G1 X82.302 Y82.055 E23.28503
G0 F9000 X81.6 Y82.79
G1 F1125 X81.6 Y152.198 E28.82547
G0 F9000 X83.2 Y153.741
G1 F1125 X83.2 Y81.247 E34.61226
G0 F9000 X84.8 Y80.098
G1 F1125 X84.8 Y154.892 E40.58264
G0 F9000 X86.4 Y155.759
G1 F1125 X86.4 Y79.244 E46.6904
G0 F9000 X88 Y78.617
G1 F1125 X88 Y156.378 E52.89762
G0 F9000 X89.6 Y156.8
G1 F1125 X89.6 Y78.196 E59.17213
G0 F9000 X91.2 Y77.965
G1 F1125 X91.2 Y157.033 E65.48368
G0 F9000 X92.8 Y157.098
G1 F1125 X92.8 Y77.9 E71.80561
G0 F9000 X94.4 Y77.9
G1 F1125 X94.4 Y157.098 E78.12753
G0 F9000 X96 Y157.098
G1 F1125 X96 Y77.9 E84.44946
G0 F9000 X97.6 Y77.9
G1 F1125 X97.6 Y157.098 E90.77139
G0 F9000 X99.2 Y157.098
G1 F1125 X99.2 Y77.9 E97.09331
G0 F9000 X100.8 Y77.9
G1 F1125 X100.8 Y157.098 E103.41524
G0 F9000 X102.4 Y157.098
G1 F1125 X102.4 Y77.9 E109.73717
G0 F9000 X104 Y77.9
G1 F1125 X104 Y157.098 E116.05909
G0 F9000 X105.6 Y157.098
G1 F1125 X105.6 Y77.9 E122.38102
G0 F9000 X107.2 Y77.9
G1 F1125 X107.2 Y157.098 E128.70295
G0 F9000 X108.8 Y157.098
G1 F1125 X108.8 Y77.9 E135.02487
G0 F9000 X110.4 Y77.9
G1 F1125 X110.4 Y157.098 E141.3468
G0 F9000 X112 Y157.098
G1 F1125 X112 Y77.9 E147.66873
G0 F9000 X113.6 Y77.9
G1 F1125 X113.6 Y157.098 E153.99065
G0 F9000 X115.2 Y157.098
G1 F1125 X115.2 Y77.9 E160.31258
G0 F9000 X116.8 Y77.9
G1 F1125 X116.8 Y157.098 E166.63451
G0 F9000 X118.4 Y157.098
G1 F1125 X118.4 Y77.9 E172.95643
G0 F9000 X120 Y77.9
G1 F1125 X120 Y157.098 E179.27836
G0 F9000 X121.6 Y157.098
G1 F1125 X121.6 Y77.9 E185.60029
G0 F9000 X123.2 Y77.9
G1 F1125 X123.2 Y157.098 E191.92221
G0 F9000 X124.8 Y157.098
G1 F1125 X124.8 Y77.9 E198.24414
G0 F9000 X126.4 Y77.9
G1 F1125 X126.4 Y157.098 E204.56607
G0 F9000 X128 Y157.098
G1 F1125 X128 Y77.9 E210.888
G0 F9000 X129.6 Y77.9
G1 F1125 X129.6 Y157.098 E217.20992
G0 F9000 X131.2 Y157.098
G1 F1125 X131.2 Y77.9 E223.53185
G0 F9000 X132.8 Y77.9
G1 F1125 X132.8 Y157.098 E229.85378
G0 F9000 X134.4 Y157.098
G1 F1125 X134.4 Y77.9 E236.1757
G0 F9000 X136 Y77.9
G1 F1125 X136 Y157.098 E242.49763
G0 F9000 X137.6 Y157.098
G1 F1125 X137.6 Y77.9 E248.81956
G0 F9000 X139.2 Y77.9
G1 F1125 X139.2 Y157.098 E255.14148
G0 F9000 X140.8 Y157.098
G1 F1125 X140.8 Y77.9 E261.46341
G0 F9000 X142.4 Y77.9
G1 F1125 X142.4 Y157.098 E267.78534
G0 F9000 X144 Y157.018
G1 F1125 X144 Y77.987 E274.09393
G0 F9000 X145.6 Y78.235
G1 F1125 X145.6 Y156.757 E280.3619
G0 F9000 X147.2 Y156.319
G1 F1125 X147.2 Y78.687 E286.55882
G0 F9000 X148.8 Y79.333
G1 F1125 X148.8 Y155.659 E292.65149
G0 F9000 X150.4 Y154.767
G1 F1125 X150.4 Y80.228 E298.60152
G0 F9000 X152 Y81.424
G1 F1125 X152 Y153.578 E304.36116
G0 F9000 X153.6 Y151.97
G1 F1125 X153.6 Y83.023 E309.86481
G0 F9000 X155.2 Y85.319
G1 F1125 X155.2 Y149.695 E315.00358
G1 F2700 E310.00358
G0 F9000 X156.205 Y150.079
G0 X157.087 Y148.199
G0 X157.211 Y147.834
G0 X157.768 Y145.987
G0 X156.8 Y145.407
G1 F2700 E315.00358
G1 F1125 X156.8 Y89.59 E319.45913
G1 F2700 E314.45913
G0 F9000 X157.838 Y89.358
G0 X157.287 Y87.34
G0 X156.466 Y85.413
G0 X155.819 Y84.259
G0 X154.599 Y82.555
G0 X153.703 Y81.554
G0 X152.148 Y80.161
G0 X151.043 Y79.373
G0 X149.249 Y78.367
G0 X147.985 Y77.83
G0 X145.988 Y77.231
G0 X144.672 Y76.99
G0 X142.487 Y76.835
G0 X91.81 Y76.853
G0 X89.742 Y77.082
G0 X88.427 Y77.378
G0 X86.461 Y78.049
G0 X85.243 Y78.621
G0 X83.477 Y79.7
G0 X82.397 Y80.531
G0 X80.892 Y81.985
G0 X80.198 Y82.821
G0 X79.09 Y84.422
G0 X80 Y84.974
G1 F2700 E319.45913
G1 F1125 X80 Y150.035 E324.65258
G0 F9000 X78.4 Y146.27
G1 F1125 X78.4 Y88.75 E329.24408
G1 F2700 E324.24408
G0 F300 X78.4 Y88.75 Z0.54
G0 F9000 X77.473 Y88.089
G0 X77.913 Y86.799
G0 X78.626 Y85.277
G0 X79.366 Y83.968
G0 X80.276 Y84.52
;TIME_ELAPSED:232.796125
;LAYER:-5
;TYPE:SUPPORT
G1 F2700 E329.24408
G1 F1125 X79.801 Y85.298 E329.33503
G1 X79.743 Y85.4 E329.34674
G1 X149.591 Y155.248 E339.20305
G1 X149.257 Y155.436 E339.24129
G1 X149.106 Y155.513 E339.2582
G1 X148.655 Y155.726 E339.30797
G1 X79.266 Y86.337 E349.09951
G1 X79.239 Y86.399 E349.10626
G1 X78.898 Y87.202 E349.19331
G1 X78.847 Y87.332 E349.20724
G1 X147.659 Y156.144 E358.91736
G1 X147.29 Y156.286 E358.95681
G1 X147.14 Y156.338 E358.97265
G1 X146.6 Y156.499 E359.02887
G1 X78.493 Y88.392 E368.63951
G1 X78.264 Y89.267 E368.72976
G1 X78.235 Y89.401 E368.74344
G1 X78.211 Y89.525 E368.75604
G1 X145.47 Y156.783 E378.24694
G1 X145.222 Y156.839 E378.27231
G1 X145.091 Y156.863 E378.2856
G1 X144.258 Y156.986 E378.36961
G1 X78.015 Y90.743 E387.71722
G1 X77.945 Y91.37 E387.78017
G1 X77.935 Y91.506 E387.79378
G1 X77.916 Y92.058 E387.84889
G1 X142.947 Y157.089 E397.02546
G0 F9000 X142.945 Y157.09
G1 F1125 X142.44 Y157.098 E397.07586
G1 X141.541 Y157.097 E397.16556
G1 X77.9 Y93.456 E406.14599
G1 X77.9 Y94.871 E406.28718
G1 X140.127 Y157.097 E415.06801
G1 X138.713 Y157.097 E415.2091
G1 X77.9 Y96.285 E423.7904
G1 X77.9 Y97.699 E423.93149
G1 X137.298 Y157.097 E432.31319
G1 X135.884 Y157.097 E432.45428
G1 X77.9 Y99.113 E440.63645
G1 X77.9 Y100.527 E440.77754
G1 X134.47 Y157.097 E448.76018
G1 X133.056 Y157.097 E448.90127
G1 X77.9 Y101.942 E456.68431
G1 X77.9 Y103.356 E456.82539
G1 X131.642 Y157.097 E464.4089
G1 X130.227 Y157.097 E464.55009
G1 X77.9 Y104.77 E471.934
G1 X77.9 Y106.184 E472.07508
G1 X128.813 Y157.097 E479.25946
G1 X127.399 Y157.097 E479.40055
G1 X77.9 Y107.599 E486.38532
G1 X77.9 Y109.013 E486.52641
G1 X125.985 Y157.097 E493.31165
G1 X124.571 Y157.097 E493.45274
G1 X77.9 Y110.427 E500.03845
G1 X77.9 Y111.841 E500.17954
G1 X123.156 Y157.097 E506.56565
G1 X121.742 Y157.097 E506.70674
G1 X77.9 Y113.255 E512.89332
G1 X77.9 Y114.67 E513.03451
G1 X120.328 Y157.097 E519.02149
G1 X118.914 Y157.097 E519.16258
G1 X77.9 Y116.084 E524.95003
G1 X77.9 Y117.498 E525.09112
G1 X117.499 Y157.097 E530.67897
G1 X116.085 Y157.097 E530.82005
G1 X77.9 Y118.912 E536.20837
G1 X77.9 Y120.326 E536.34946
G1 X114.67 Y157.097 E541.53818
G1 X113.256 Y157.097 E541.67926
G1 X77.9 Y121.741 E546.66838
G1 X77.9 Y123.155 E546.80947
G1 X111.842 Y157.097 E551.59905
G1 X110.428 Y157.097 E551.74014
G1 X77.9 Y124.569 E556.33019
G1 X77.9 Y125.983 E556.47128
G1 X109.013 Y157.097 E560.86173
G1 X107.599 Y157.097 E561.00282
G1 X77.9 Y127.398 E565.19367
G1 X77.9 Y128.812 E565.33476
G1 X106.185 Y157.097 E569.32608
G1 X104.771 Y157.097 E569.46717
G1 X77.9 Y130.226 E573.25896
G1 X77.9 Y131.64 E573.40005
G1 X103.357 Y157.097 E576.99231
G1 X101.942 Y157.097 E577.13349
G1 X77.9 Y133.054 E580.52615
G1 X77.9 Y134.469 E580.66734
G1 X100.528 Y157.097 E583.8604
G1 X99.114 Y157.097 E584.00149
G1 X77.9 Y135.883 E586.99501
G1 X77.9 Y137.297 E587.1361
G1 X97.7 Y157.097 E589.93009
G1 X96.286 Y157.097 E590.07118
G1 X77.9 Y138.711 E592.66565
G1 X77.9 Y140.125 E592.80674
G1 X94.871 Y157.097 E595.2016
G1 X93.457 Y157.097 E595.34269
G1 X77.9 Y141.54 E597.53795
G1 X77.9 Y142.442 E597.62795
G1 X77.907 Y142.943 E597.67794
G1 X77.908 Y142.962 E597.67984
G1 X92.026 Y157.08 E599.67204
G1 X91.496 Y157.061 E599.72496
G1 X91.373 Y157.051 E599.73728
G1 X90.485 Y156.953 E599.82642
G1 X78.049 Y144.517 E601.58127
G1 X78.134 Y145.09 E601.63907
G1 X78.156 Y145.214 E601.65164
G1 X78.358 Y146.115 E601.74377
G1 X78.403 Y146.286 E601.76142
G1 X88.702 Y156.584 E603.21465
G1 X88.374 Y156.498 E603.24848
G1 X88.211 Y156.45 E603.26543
G1 X87.37 Y156.164 E603.35407
G1 X87.203 Y156.1 E603.37191
G1 X86.508 Y155.804 E603.44729
G1 X79.196 Y148.493 E604.47902
G0 F9000 X79.483 Y149.105
G1 F1125 X79.555 Y149.244 E604.49464
G1 X80.007 Y150.049 E604.58676
G1 X80.08 Y150.17 E604.60086
G1 X80.574 Y150.912 E604.6898
G1 X80.678 Y151.06 E604.70785
G1 X81.235 Y151.782 E604.79884
G1 X81.332 Y151.9 E604.81408
G1 X81.935 Y152.571 E604.9041
G1 X82.056 Y152.696 E604.92146
G1 X82.705 Y153.321 E605.01136
G1 X82.817 Y153.422 E605.02641
G1 X83.509 Y153.997 E605.11618
G1 X83.657 Y154.111 E605.13482
G1 X84.371 Y154.622 E605.22243
G1 X84.521 Y154.722 E605.24042
G1 X85.301 Y155.195 E605.33144
G1 X85.417 Y155.262 E605.34481
G1 X86.211 Y155.67 E605.43388
G1 X86.4 Y155.759 E605.45473
G1 X86.508 Y155.804 E605.4664
G1 F2700 E600.4664
G0 F9000 X86.092 Y156.785
G0 X88.09 Y157.526
G0 X90.117 Y157.978
G0 X91.443 Y158.125
G0 X143.19 Y158.145
G0 X145.258 Y157.916
G0 X146.573 Y157.62
G0 X148.539 Y156.949
G0 X149.757 Y156.377
G0 X151.523 Y155.298
G0 X152.603 Y154.467
G0 X154.108 Y153.013
G0 X154.35 Y152.721
G0 X155.496 Y151.238
G0 X154.722 Y150.479
G1 F2700 E605.4664
G1 F1125 X84.524 Y80.281 E615.3721
G1 X84.084 Y80.572 E615.42473
G1 X83.925 Y80.685 E615.4442
G1 X83.693 Y80.865 E615.4735
G1 X154.137 Y151.308 E625.41384
G1 X154.112 Y151.342 E625.41805
G1 X153.999 Y151.49 E625.43663
G1 X153.501 Y152.087 E625.5142
G1 X82.912 Y81.498 E635.47507
G1 X82.426 Y81.935 E635.54028
G1 X82.3 Y82.054 E635.55758
G1 X82.179 Y82.179 E635.57494
G1 X152.817 Y152.817 E645.54272
G1 X152.697 Y152.942 E645.56001
G1 X152.573 Y153.062 E645.57723
G1 X152.085 Y153.5 E645.64266
G1 X81.496 Y82.911 E655.60353
G1 X80.999 Y83.507 E655.68096
G1 X80.887 Y83.654 E655.6994
G1 X80.861 Y83.69 E655.70383
G1 X151.304 Y154.133 E665.6441
G1 X151.074 Y154.311 E665.67312
G1 X150.914 Y154.423 E665.69261
G1 X150.473 Y154.716 E665.74544
G1 X80.276 Y84.519 E675.65099
G1 F2700 E670.65099
G0 F9000 X79.504 Y83.76
G0 X80.775 Y82.116
G0 X81.698 Y81.159
G0 X83.299 Y79.826
G0 X84.418 Y79.084
G0 X86.283 Y78.124
G0 X87.542 Y77.643
G0 X89.566 Y77.114
G0 X90.879 Y76.923
G0 X92.553 Y76.834
G0 X143.557 Y76.873
G0 X144.883 Y77.02
G0 X146.91 Y77.472
G0 X148.903 Y78.211
G0 X148.488 Y79.191
G1 F2700 E675.65099
G1 F1125 X147.795 Y78.897 E675.72611
G1 X147.629 Y78.833 E675.74386
G1 X146.786 Y78.546 E675.83271
G1 X146.624 Y78.497 E675.8496
G1 X146.293 Y78.411 E675.88373
G1 X156.595 Y88.713 E677.33745
G1 X156.641 Y88.881 E677.35483
G1 X156.839 Y89.767 E677.44541
G1 X156.864 Y89.907 E677.45961
G1 X156.949 Y90.481 E677.5175
G1 X144.511 Y78.043 E679.27264
G1 X143.626 Y77.945 E679.36149
G1 X143.503 Y77.935 E679.3738
G1 X142.97 Y77.916 E679.42702
G1 X157.09 Y92.036 E681.4195
G1 X157.09 Y92.053 E681.4212
G1 X157.099 Y92.554 E681.47119
G1 X157.099 Y93.459 E681.5615
G1 X141.539 Y77.899 E683.75718
G1 X140.125 Y77.899 E683.89827
