;FLAVOR:Marlin
;TIME:2472
;Filament used: 2.08729m
;Layer height: 0.2
;MINX:89.354
;MINY:89.335
;MINZ:0.24
;MAXX:145.665
;MAXY:145.244
;MAXZ:12.49
;Generated with Cura_SteamEngine master
M140 S55
M105
M190 S55
M104 S200
M105
M109 S200
M82 ;absolute extrusion mode
; Ender 3 Custom Start G-code
G92 E0 ; Reset Extruder
G28 ; Home all axes
G1 Z2.0 F3000 ; Move Z Axis up little to prevent scratching of Heat Bed
G1 X0.1 Y20 Z0.3 F5000.0 ; Move to start position
G1 X0.1 Y200.0 Z0.3 F1500.0 E15 ; Draw the first line
G1 X0.4 Y200.0 Z0.3 F5000.0 ; Move to side a little
G1 X0.4 Y20 Z0.3 F1500.0 E30 ; Draw the second line
G92 E0 ; Reset Extruder
G1 Z2.0 F3000 ; Move Z Axis up little to prevent scratching of Heat Bed
G1 X5 Y20 Z0.3 F5000.0 ; Move over to prevent blob squish
G92 E0
G92 E0
G1 F2700 E-5
;LAYER_COUNT:57
;LAYER:-6
M107
G0 F9000 X94.802 Y94.556 Z0.24
;TYPE:SUPPORT-INTERFACE
G1 F2700 E0
G1 F1125 X94.927 Y94.436 E0.01383
G1 X95.598 Y93.833 E0.08584
G1 X95.714 Y93.737 E0.09786
G1 X96.426 Y93.187 E0.16968
G1 X96.585 Y93.074 E0.18525
G1 X97.323 Y92.584 E0.25596
G1 X97.449 Y92.508 E0.26771
G1 X98.243 Y92.062 E0.34041
G1 X98.393 Y91.984 E0.3539
G1 X99.208 Y91.601 E0.42578
G1 X99.351 Y91.541 E0.43816
G1 X100.21 Y91.212 E0.51159
G1 X100.36 Y91.16 E0.52426
G1 X101.21 Y90.905 E0.5951
G1 X101.383 Y90.858 E0.60941
G1 X102.278 Y90.658 E0.68261
G1 X102.408 Y90.635 E0.69315
G1 X103.313 Y90.501 E0.76618
G1 X103.482 Y90.483 E0.77975
G1 X104.371 Y90.417 E0.85091
G1 X104.555 Y90.408 E0.86561
G1 X105.06 Y90.4 E0.90593
G1 X130.003 Y90.401 E2.89699
G1 X131.004 Y90.437 E2.97694
G1 X131.127 Y90.446 E2.98679
G1 X132.044 Y90.548 E3.06044
G1 X132.219 Y90.573 E3.07455
G1 X133.108 Y90.737 E3.14671
G1 X133.231 Y90.765 E3.15678
G1 X134.125 Y90.999 E3.23055
G1 X134.288 Y91.048 E3.24413
G1 X135.13 Y91.334 E3.31512
G1 X135.296 Y91.398 E3.32932
G1 X136.099 Y91.739 E3.39896
G1 X136.288 Y91.827 E3.4156
G1 X137.082 Y92.235 E3.48686
G1 X137.199 Y92.302 E3.49762
G1 X137.978 Y92.776 E3.57041
G1 X138.129 Y92.876 E3.58487
G1 X138.843 Y93.387 E3.65495
G1 X138.991 Y93.5 E3.66982
G1 X139.682 Y94.076 E3.74163
G1 X139.795 Y94.177 E3.75373
G1 X140.444 Y94.802 E3.82565
G1 X140.564 Y94.927 E3.83948
G1 X141.167 Y95.598 E3.91149
G1 X141.263 Y95.714 E3.92351
G1 X141.822 Y96.438 E3.99653
G1 X141.916 Y96.569 E4.0094
G1 X142.416 Y97.323 E4.08162
G1 X142.492 Y97.449 E4.09336
G1 X142.938 Y98.243 E4.16606
G1 X143.016 Y98.393 E4.17955
G1 X143.399 Y99.208 E4.25143
G1 X143.459 Y99.351 E4.26381
G1 X143.788 Y100.21 E4.33724
G1 X143.84 Y100.36 E4.34991
G1 X144.095 Y101.21 E4.42075
G1 X144.142 Y101.383 E4.43506
G1 X144.34 Y102.269 E4.50753
G1 X144.365 Y102.408 E4.5188
G1 X144.498 Y103.307 E4.59135
G1 X144.516 Y103.469 E4.60436
G1 X144.583 Y104.371 E4.67656
G1 X144.592 Y104.555 E4.69126
G1 X144.6 Y105.056 E4.73126
G1 X144.6 Y129.986 E6.72128
G1 X144.564 Y130.992 E6.80163
G1 X144.554 Y131.127 E6.81244
G1 X144.452 Y132.044 E6.88609
G1 X144.427 Y132.219 E6.9002
G1 X144.265 Y133.097 E6.97147
G1 X144.235 Y133.231 E6.98243
G1 X144.004 Y134.116 E7.05544
G1 X143.952 Y134.288 E7.06979
G1 X143.676 Y135.1 E7.13825
G1 X143.596 Y135.309 E7.15611
G1 X143.261 Y136.099 E7.22461
G1 X143.18 Y136.274 E7.24
G1 X142.765 Y137.082 E7.31251
G1 X142.698 Y137.199 E7.32327
G1 X142.224 Y137.978 E7.39606
G1 X142.124 Y138.129 E7.41052
G1 X141.613 Y138.843 E7.4806
G1 X141.5 Y138.991 E7.49547
G1 X140.924 Y139.682 E7.56728
G1 X140.823 Y139.795 E7.57938
G1 X140.198 Y140.444 E7.6513
G1 X140.073 Y140.564 E7.66513
G1 X139.403 Y141.166 E7.73703
G1 X139.286 Y141.263 E7.74916
G1 X138.574 Y141.813 E7.82098
G1 X138.415 Y141.926 E7.83655
G1 X137.677 Y142.416 E7.90726
G1 X137.551 Y142.492 E7.91901
G1 X136.757 Y142.938 E7.9917
G1 X136.606 Y143.016 E8.00527
G1 X135.792 Y143.399 E8.07708
G1 X135.649 Y143.459 E8.08946
G1 X134.79 Y143.788 E8.16289
G1 X134.64 Y143.84 E8.17556
G1 X133.79 Y144.095 E8.2464
G1 X133.617 Y144.142 E8.26071
G1 X132.722 Y144.342 E8.33391
G1 X132.592 Y144.365 E8.34445
G1 X131.687 Y144.499 E8.41748
G1 X131.519 Y144.517 E8.43097
G1 X130.629 Y144.583 E8.5022
G1 X130.445 Y144.592 E8.51691
G1 X129.94 Y144.6 E8.55723
G1 X104.997 Y144.599 E10.54828
G1 X103.996 Y144.563 E10.62824
G1 X103.873 Y144.554 E10.63808
G1 X102.956 Y144.452 E10.71173
G1 X102.781 Y144.427 E10.72585
G1 X101.892 Y144.263 E10.79801
G1 X101.769 Y144.235 E10.80808
G1 X100.875 Y144.001 E10.88184
G1 X100.712 Y143.952 E10.89543
G1 X99.87 Y143.666 E10.96641
G1 X99.704 Y143.602 E10.98061
G1 X98.901 Y143.261 E11.05025
G1 X98.712 Y143.173 E11.0669
G1 X97.918 Y142.765 E11.13815
G1 X97.801 Y142.698 E11.14892
G1 X97.022 Y142.224 E11.22171
G1 X96.871 Y142.124 E11.23616
G1 X96.157 Y141.613 E11.30625
G1 X96.009 Y141.5 E11.32111
G1 X95.318 Y140.924 E11.39292
G1 X95.205 Y140.823 E11.40502
G1 X94.556 Y140.198 E11.47694
G1 X94.436 Y140.073 E11.49078
G1 X93.833 Y139.402 E11.56279
G1 X93.736 Y139.284 E11.57498
G1 X93.178 Y138.562 E11.64782
G1 X93.074 Y138.415 E11.6622
G1 X92.581 Y137.672 E11.73337
G1 X92.508 Y137.551 E11.74465
G1 X92.056 Y136.746 E11.81835
G1 X91.984 Y136.607 E11.83084
G1 X91.587 Y135.761 E11.90544
G1 X91.541 Y135.649 E11.91511
G1 X91.212 Y134.79 E11.98853
G1 X91.155 Y134.625 E12.00247
G1 X90.905 Y133.79 E12.07204
G1 X90.858 Y133.617 E12.08635
G1 X90.657 Y132.716 E12.16004
G1 X90.635 Y132.592 E12.1701
G1 X90.5 Y131.678 E12.24385
G1 X90.483 Y131.518 E12.25669
G1 X90.417 Y130.626 E12.32809
G1 X90.408 Y130.445 E12.34256
G1 X90.4 Y129.944 E12.38255
G1 X90.4 Y105.014 E14.37257
G1 X90.436 Y104.008 E14.45293
G1 X90.446 Y103.873 E14.46373
G1 X90.548 Y102.956 E14.53738
G1 X90.573 Y102.781 E14.5515
G1 X90.735 Y101.903 E14.62276
G1 X90.765 Y101.769 E14.63373
G1 X90.996 Y100.884 E14.70674
G1 X91.048 Y100.712 E14.72108
G1 X91.334 Y99.87 E14.79206
G1 X91.398 Y99.704 E14.80627
G1 X91.739 Y98.901 E14.8759
G1 X91.82 Y98.726 E14.8913
G1 X92.235 Y97.918 E14.96381
G1 X92.302 Y97.801 E14.97457
G1 X92.776 Y97.022 E15.04736
G1 X92.876 Y96.871 E15.06181
G1 X93.387 Y96.157 E15.1319
G1 X93.5 Y96.009 E15.14677
G1 X94.076 Y95.318 E15.21857
G1 X94.177 Y95.205 E15.23067
G1 X94.802 Y94.556 E15.3026
G0 F9000 X94.4 Y94.973
G1 F1125 X94.4 Y140.032 E18.8994
G0 F9000 X96 Y141.492
G1 F1125 X96 Y93.516 E22.72905
G0 F9000 X97.6 Y92.423
G1 F1125 X97.6 Y142.575 E26.7324
G0 F9000 X99.2 Y143.387
G1 F1125 X99.2 Y91.604 E30.86594
G0 F9000 X100.8 Y91.028
G1 F1125 X100.8 Y143.978 E35.09264
G0 F9000 X102.4 Y144.356
G1 F1125 X102.4 Y90.636 E39.3808
G0 F9000 X104 Y90.444
G1 F1125 X104 Y144.563 E43.70082
G0 F9000 X105.6 Y144.599
G1 F1125 X105.6 Y90.401 E48.02714
G0 F9000 X107.2 Y90.401
G1 F1125 X107.2 Y144.599 E52.35345
G0 F9000 X108.8 Y144.599
G1 F1125 X108.8 Y90.401 E56.67977
G0 F9000 X110.4 Y90.401
G1 F1125 X110.4 Y144.599 E61.00609
G0 F9000 X112 Y144.599
G1 F1125 X112 Y90.401 E65.33241
G0 F9000 X113.6 Y90.401
G1 F1125 X113.6 Y144.599 E69.65873
G0 F9000 X115.2 Y144.599
G1 F1125 X115.2 Y90.401 E73.98505
G0 F9000 X116.8 Y90.401
G1 F1125 X116.8 Y144.599 E78.31137
G0 F9000 X118.4 Y144.599
G1 F1125 X118.4 Y90.401 E82.63769
G0 F9000 X120 Y90.401
G1 F1125 X120 Y144.599 E86.964
G0 F9000 X121.6 Y144.599
G1 F1125 X121.6 Y90.401 E91.29032
G0 F9000 X123.2 Y90.401
G1 F1125 X123.2 Y144.599 E95.61664
G0 F9000 X124.8 Y144.599
G1 F1125 X124.8 Y90.401 E99.94296
G0 F9000 X126.4 Y90.401
G1 F1125 X126.4 Y144.599 E104.26928
G0 F9000 X128 Y144.599
G1 F1125 X128 Y90.401 E108.5956
G0 F9000 X129.6 Y90.401
G1 F1125 X129.6 Y144.599 E112.92192
G0 F9000 X131.2 Y144.541
G1 F1125 X131.2 Y90.455 E117.2393
G0 F9000 X132.8 Y90.681
G1 F1125 X132.8 Y144.325 E121.52139
G0 F9000 X134.4 Y143.912
G1 F1125 X134.4 Y91.087 E125.73811
G0 F9000 X136 Y91.697
G1 F1125 X136 Y143.302 E129.85745
G0 F9000 X137.6 Y142.463
G1 F1125 X137.6 Y92.546 E133.84204
G0 F9000 X139.2 Y93.675
G1 F1125 X139.2 Y141.33 E137.64606
G0 F9000 X140.8 Y139.819
G1 F1125 X140.8 Y95.19 E141.20854
G0 F9000 X142.4 Y97.299
G1 F1125 X142.4 Y137.689 E144.43265
G0 F9000 X144 Y134.13
G1 F1125 X144 Y100.894 E147.08569
G1 F2700 E142.08569
G0 F9000 X145.019 Y100.588
G0 X144.375 Y98.783
G0 X143.415 Y96.918
G0 X142.673 Y95.798
G0 X141.34 Y94.198
G0 X140.383 Y93.275
G0 X138.739 Y92.004
G0 X137.58 Y91.295
G0 X135.7 Y90.413
G0 X134.41 Y89.973
G0 X132.383 Y89.521
G0 X131.057 Y89.374
G0 X104.31 Y89.354
G0 X102.242 Y89.583
G0 X100.927 Y89.879
G0 X98.961 Y90.55
G0 X97.743 Y91.122
G0 X95.977 Y92.201
G0 X94.897 Y93.032
G0 X93.392 Y94.486
G0 X93.15 Y94.778
G0 X92.004 Y96.261
G0 X92.8 Y96.985
G1 F2700 E147.08569
G1 F1125 X92.8 Y138.002 E150.35984
G0 F9000 X91.2 Y134.755
G1 F1125 X91.2 Y100.264 E153.11307
G0 F300 X91.2 Y100.264 Z0.54
G0 F9000 X92.775 Y97.021
;TIME_ELAPSED:112.218418
;LAYER:-5
;TYPE:SUPPORT
G1 F1125 X92.302 Y97.8 E153.204
G1 X92.244 Y97.901 E153.21562
G1 X137.091 Y142.748 E159.54402
G1 X136.757 Y142.937 E159.58231
G1 X136.605 Y143.015 E159.59936
G1 X136.155 Y143.226 E159.64895
G1 X91.766 Y98.837 E165.91272
G1 X91.738 Y98.9 E165.9196
G1 X91.397 Y99.703 E166.00664
G1 X91.347 Y99.832 E166.02045
G1 X135.159 Y143.645 E172.20287
G1 X134.79 Y143.787 E172.24232
G1 X134.64 Y143.839 E172.25816
G1 X134.101 Y144 E172.31429
G1 X90.993 Y100.892 E178.39729
G1 X90.764 Y101.768 E178.48764
G1 X90.735 Y101.901 E178.50122
G1 X90.711 Y102.025 E178.51382
G1 X132.971 Y144.285 E184.47717
G1 X132.721 Y144.341 E184.50273
G1 X132.592 Y144.364 E184.5158
G1 X131.758 Y144.486 E184.59991
G1 X90.515 Y103.243 E190.41974
G1 X90.446 Y103.872 E190.48288
G1 X90.436 Y104.006 E190.49628
G1 X90.416 Y104.558 E190.5514
G1 X130.448 Y144.59 E196.20035
G0 F9000 X130.444 Y144.591
G1 F1125 X129.94 Y144.599 E196.25064
G1 X129.042 Y144.599 E196.34025
G1 X90.4 Y105.956 E201.79312
G1 X90.4 Y107.37 E201.93421
G1 X127.628 Y144.599 E207.18755
G1 X126.214 Y144.599 E207.32864
G1 X90.4 Y108.784 E212.38246
G1 X90.4 Y110.199 E212.52364
G1 X124.8 Y144.599 E217.37786
G1 X123.385 Y144.599 E217.51905
G1 X90.4 Y111.613 E222.17366
G1 X90.4 Y113.027 E222.31475
G1 X121.971 Y144.599 E226.76982
G1 X120.557 Y144.599 E226.91091
G1 X90.4 Y114.441 E231.16646
G1 X90.4 Y115.855 E231.30755
G1 X119.143 Y144.599 E235.36357
G1 X117.729 Y144.599 E235.50466
G1 X90.4 Y117.27 E239.36108
G1 X90.4 Y118.684 E239.50217
G1 X116.314 Y144.598 E243.15891
G1 X114.899 Y144.598 E243.3001
G1 X90.4 Y120.098 E246.75725
G1 X90.4 Y121.512 E246.89834
G1 X113.485 Y144.598 E250.15595
G1 X112.071 Y144.598 E250.29704
G1 X90.4 Y122.926 E253.35512
G1 X90.4 Y124.341 E253.49631
G1 X110.657 Y144.598 E256.35479
G1 X109.243 Y144.598 E256.49588
G1 X90.4 Y125.755 E259.15483
G1 X90.4 Y127.169 E259.29592
G1 X107.828 Y144.598 E261.75527
G1 X106.414 Y144.598 E261.89636
G1 X90.4 Y128.583 E264.15618
G1 X90.4 Y129.942 E264.29178
G1 X90.4 Y129.998 E264.29737
G1 X105 Y144.598 E266.35759
G0 F9000 X104.997 Y144.598
G1 F1125 X103.995 Y144.562 E266.45763
G1 X103.873 Y144.553 E266.46984
G1 X103.499 Y144.511 E266.50739
G1 X90.48 Y131.492 E268.34451
G1 X90.482 Y131.517 E268.34701
G1 X90.499 Y131.677 E268.36307
G1 X90.634 Y132.591 E268.45526
G1 X90.656 Y132.715 E268.46782
G1 X90.762 Y133.188 E268.51619
G1 X101.818 Y144.244 E270.07631
G1 X101.769 Y144.234 E270.0813
G1 X100.875 Y144 E270.17351
G1 X100.711 Y143.951 E270.19059
G1 X99.869 Y143.665 E270.27932
G1 X99.796 Y143.636 E270.28716
G1 X91.374 Y135.215 E271.47552
G1 X91.54 Y135.648 E271.52179
G1 X91.587 Y135.76 E271.53391
G1 X91.983 Y136.606 E271.62712
G1 X92.056 Y136.745 E271.64278
G1 X92.507 Y137.55 E271.73485
G1 X92.58 Y137.671 E271.74895
G1 X92.906 Y138.16 E271.80759
G1 X96.86 Y142.115 E272.36562
G1 X96.156 Y141.612 E272.45195
G1 X96.009 Y141.499 E272.47045
G1 X95.317 Y140.923 E272.56029
G1 X95.204 Y140.821 E272.57548
G1 X94.556 Y140.197 E272.66524
G1 X94.435 Y140.072 E272.6826
G1 X93.833 Y139.401 E272.77255
G1 X93.736 Y139.283 E272.78779
G1 X93.177 Y138.561 E272.8789
G1 X93.074 Y138.414 E272.89681
G1 F2700 E267.89681
G0 F9000 X92.187 Y139.003
G0 X91.122 Y137.257
G0 X90.55 Y136.038
G0 X89.879 Y134.073
G0 X89.583 Y132.758
G0 X89.354 Y130.687
G0 X89.374 Y103.943
G0 X89.521 Y102.617
G0 X89.973 Y100.59
G0 X90.413 Y99.3
G0 X91.126 Y97.778
G0 X91.867 Y96.468
G0 X92.776 Y97.019
G1 F2700 E272.89681
G1 F1125 X137.974 Y142.216 E279.27466
G1 X138.415 Y141.925 E279.32738
G1 X138.573 Y141.812 E279.34677
G1 X138.805 Y141.633 E279.376
G1 X93.361 Y96.189 E285.78864
G1 X93.386 Y96.155 E285.79285
G1 X93.5 Y96.008 E285.81142
G1 X93.997 Y95.411 E285.88893
G1 X139.586 Y141 E292.32203
G1 X140.072 Y140.563 E292.38724
G1 X140.198 Y140.442 E292.40467
G1 X140.318 Y140.318 E292.42189
G1 X94.68 Y94.68 E298.8619
G1 X94.801 Y94.556 E298.87919
G1 X94.926 Y94.435 E298.89655
G1 X95.412 Y93.998 E298.96176
G1 X141.002 Y139.587 E305.39494
G1 X141.499 Y138.991 E305.47237
G1 X141.612 Y138.843 E305.49095
G1 X141.637 Y138.809 E305.49516
G1 X96.194 Y93.365 E311.90773
G1 X96.425 Y93.186 E311.93689
G1 X96.584 Y93.074 E311.95629
G1 X97.024 Y92.782 E312.00898
G1 X142.222 Y137.979 E318.38684
G0 F9000 X142.223 Y137.977
G1 F1125 X142.697 Y137.199 E318.47774
G1 X142.754 Y137.098 E318.48931
G1 X97.907 Y92.25 E324.81778
G1 X98.241 Y92.061 E324.85607
G1 X98.391 Y91.983 E324.87294
G1 X98.843 Y91.772 E324.92272
G1 X143.232 Y136.161 E331.18648
G1 X143.26 Y136.098 E331.19336
G1 X143.595 Y135.309 E331.27889
G1 X143.65 Y135.165 E331.29427
G1 X99.839 Y91.353 E337.47655
G1 X100.209 Y91.211 E337.51609
G1 X100.359 Y91.16 E337.5319
G1 X100.898 Y90.998 E337.58806
G1 X144.005 Y134.106 E343.67099
G1 X144.234 Y133.23 E343.76134
G1 X144.263 Y133.097 E343.77492
G1 X144.287 Y132.973 E343.78752
G1 X102.027 Y90.714 E349.75079
G1 X102.277 Y90.658 E349.77636
G1 X102.407 Y90.635 E349.78953
G1 X103.24 Y90.512 E349.87355
G1 X144.483 Y131.755 E355.69338
G1 X144.553 Y131.126 E355.75653
G1 X144.563 Y130.992 E355.76994
G1 X144.582 Y130.44 E355.82505
G1 X104.55 Y90.408 E361.474
G0 F9000 X104.554 Y90.407
G1 F1125 X105.059 Y90.4 E361.52439
G1 X105.957 Y90.4 E361.614
G1 X144.599 Y129.042 E367.0668
G1 X144.599 Y127.628 E367.20789
G1 X107.371 Y90.4 E372.46116
G1 X108.785 Y90.4 E372.60225
G1 X144.599 Y126.214 E377.65599
G1 X144.599 Y124.8 E377.79708
G1 X110.199 Y90.4 E382.65129
G1 X111.613 Y90.4 E382.79238
G1 X144.599 Y123.385 E387.44699
G1 X144.599 Y121.971 E387.58808
G1 X113.028 Y90.4 E392.04309
G1 X114.442 Y90.4 E392.18418
G1 X144.599 Y120.557 E396.43966
G1 X144.599 Y119.143 E396.58075
G1 X115.856 Y90.4 E400.6367
G1 X117.27 Y90.4 E400.77779
G1 X144.599 Y117.729 E404.6342
G1 X144.599 Y116.314 E404.77539
G1 X118.685 Y90.401 E408.43207
G1 X120.099 Y90.401 E408.57316
G1 X144.599 Y114.9 E412.0303
G1 X144.599 Y113.486 E412.17139
G1 X121.514 Y90.401 E415.42893
G1 X122.928 Y90.401 E415.57002
G1 X144.599 Y112.072 E418.62804
G1 X144.599 Y110.657 E418.76923
G1 X124.342 Y90.401 E421.62764
G1 X125.756 Y90.401 E421.76873
G1 X144.599 Y109.243 E424.42761
G1 X144.599 Y107.829 E424.5687
G1 X127.171 Y90.401 E427.02797
G1 X128.585 Y90.401 E427.16906
G1 X144.599 Y106.415 E429.42881
G1 X144.599 Y105.056 E429.56441
G1 X144.598 Y105 E429.57
G1 X129.999 Y90.401 E431.63008
G0 F9000 X130.002 Y90.401
G1 F1125 X131.003 Y90.436 E431.73002
G1 X131.125 Y90.446 E431.74223
G1 X131.499 Y90.487 E431.77978
G1 X144.517 Y103.505 E433.61676
G1 X144.514 Y103.468 E433.62046
G1 X144.497 Y103.306 E433.63671
G1 X144.364 Y102.407 E433.72739
G1 X144.338 Y102.268 E433.7415
G1 X144.237 Y101.81 E433.7883
G1 X133.18 Y90.754 E435.34849
G1 X133.23 Y90.765 E435.3536
G1 X134.124 Y90.998 E435.44578
G1 X134.287 Y91.047 E435.46277
G1 X135.129 Y91.334 E435.55153
G1 X135.203 Y91.362 E435.55942
G1 X143.624 Y99.784 E436.74779
G1 X143.458 Y99.35 E436.79415
G1 X143.398 Y99.208 E436.80953
G1 X143.015 Y98.392 E436.89948
G1 X142.937 Y98.242 E436.91635
G1 X142.491 Y97.448 E437.00722
G1 X142.415 Y97.323 E437.02181
G1 X142.096 Y96.841 E437.07949
G1 X138.138 Y92.884 E437.63793
G1 X138.842 Y93.386 E437.72421
G1 X138.989 Y93.5 E437.74277
G1 X139.681 Y94.075 E437.83254
G1 X139.794 Y94.177 E437.84773
G1 X140.443 Y94.802 E437.93763
G1 X140.563 Y94.926 E437.95485
G1 X141.166 Y95.598 E438.04494
G1 X141.262 Y95.713 E438.05989
G1 X141.821 Y96.438 E438.15124
G1 X141.915 Y96.568 E438.16724
G1 F2700 E433.16724
G0 F300 X141.915 Y96.568 Z0.74
G0 F9000 X142.673 Y95.798
G0 X141.34 Y94.198
