;FLAVOR:Marlin
;TIME:8994
;Filament used: 5.24131m
;Layer height: 0.2
;MINX:49.156
;MINY:70.835
;MINZ:0.24
;MAXX:174.164
;MAXY:182.164
;MAXZ:9.09
;Generated with Cura_SteamEngine master
M140 S60
M105
M190 S60
M104 S200
M105
M109 S200
M82 ;absolute extrusion mode
; Ender 3 Custom Start G-code
G92 E0 ; Reset Extruder
G28 ; Home all axes
G1 Z2.0 F3000 ; Move Z Axis up little to prevent scratching of Heat Bed
G1 X0.1 Y20 Z0.3 F5000.0 ; Move to start position
G1 X0.1 Y200.0 Z0.3 F1500.0 E15 ; Draw the first line
G1 X0.4 Y200.0 Z0.3 F5000.0 ; Move to side a little
G1 X0.4 Y20 Z0.3 F1500.0 E30 ; Draw the second line
G92 E0 ; Reset Extruder
G1 Z2.0 F3000 ; Move Z Axis up little to prevent scratching of Heat Bed
G1 X5 Y20 Z0.3 F5000.0 ; Move over to prevent blob squish
G92 E0
G92 E0
G1 F2700 E-5
;LAYER_COUNT:40
;LAYER:-6
M107
G0 F9000 X78.302 Y76.056 Z0.24
;TYPE:SUPPORT-INTERFACE
G1 F2700 E0
G1 F1125 X78.427 Y75.936 E0.01383
G1 X79.098 Y75.333 E0.08584
G1 X79.214 Y75.237 E0.09786
G1 X79.926 Y74.687 E0.16968
G1 X80.085 Y74.574 E0.18525
G1 X80.823 Y74.084 E0.25596
G1 X80.949 Y74.008 E0.26771
G1 X81.743 Y73.562 E0.34041
G1 X81.893 Y73.484 E0.3539
G1 X82.708 Y73.101 E0.42578
G1 X82.851 Y73.041 E0.43816
G1 X83.71 Y72.712 E0.51159
G1 X83.86 Y72.66 E0.52426
G1 X84.71 Y72.405 E0.5951
G1 X84.883 Y72.358 E0.60941
G1 X85.778 Y72.158 E0.68261
G1 X85.908 Y72.135 E0.69315
G1 X86.813 Y72.001 E0.76618
G1 X86.982 Y71.983 E0.77975
G1 X87.871 Y71.917 E0.85091
G1 X88.055 Y71.908 E0.86561
G1 X88.56 Y71.9 E0.90593
G1 X98.503 Y71.901 E1.69962
G1 X99.504 Y71.937 E1.77958
G1 X99.627 Y71.946 E1.78942
G1 X100.544 Y72.048 E1.86307
G1 X100.719 Y72.073 E1.87718
G1 X101.608 Y72.237 E1.94935
G1 X101.731 Y72.265 E1.95941
G1 X102.625 Y72.499 E2.03318
G1 X102.788 Y72.548 E2.04677
G1 X104.109 Y72.997 E2.15814
G1 X104.113 Y72.984 E2.15923
G1 X104.196 Y73.011 E2.16619
G1 X104.867 Y73.135 E2.22066
G1 X105.549 Y73.173 E2.27519
G1 X106.231 Y73.124 E2.32977
G1 X106.898 Y72.991 E2.38406
G1 X107.436 Y72.816 E2.42922
G1 X107.683 Y72.721 E2.45034
G1 X107.874 Y72.656 E2.46645
G1 X108.71 Y72.405 E2.53613
G1 X108.883 Y72.358 E2.55044
G1 X109.778 Y72.158 E2.62364
G1 X109.908 Y72.135 E2.63418
G1 X110.813 Y72.001 E2.70721
G1 X110.982 Y71.983 E2.72077
G1 X111.871 Y71.917 E2.79193
G1 X112.055 Y71.908 E2.80664
G1 X112.56 Y71.9 E2.84695
G1 X122.503 Y71.901 E3.64065
G1 X123.504 Y71.937 E3.7206
G1 X123.627 Y71.946 E3.73045
G1 X124.544 Y72.048 E3.8041
G1 X124.719 Y72.073 E3.81821
G1 X125.608 Y72.237 E3.89037
G1 X125.731 Y72.265 E3.90044
G1 X126.625 Y72.499 E3.97421
G1 X126.788 Y72.548 E3.98779
G1 X128.109 Y72.997 E4.09917
G1 X128.113 Y72.984 E4.10025
G1 X128.196 Y73.011 E4.10722
G1 X128.867 Y73.135 E4.16169
G1 X129.549 Y73.173 E4.21621
G1 X130.231 Y73.124 E4.27079
G1 X130.898 Y72.991 E4.32508
G1 X131.436 Y72.816 E4.37025
G1 X131.683 Y72.721 E4.39137
G1 X131.874 Y72.656 E4.40747
G1 X132.71 Y72.405 E4.47715
G1 X132.883 Y72.358 E4.49146
G1 X133.778 Y72.158 E4.56467
G1 X133.908 Y72.135 E4.5752
G1 X134.813 Y72.001 E4.64823
G1 X134.982 Y71.983 E4.6618
G1 X135.871 Y71.917 E4.73296
G1 X136.055 Y71.908 E4.74766
G1 X136.56 Y71.9 E4.78798
G1 X146.503 Y71.901 E5.58167
G1 X147.504 Y71.937 E5.66163
G1 X147.627 Y71.946 E5.67147
G1 X148.544 Y72.048 E5.74512
G1 X148.719 Y72.073 E5.75924
G1 X149.608 Y72.237 E5.8314
G1 X149.731 Y72.265 E5.84147
G1 X150.625 Y72.499 E5.91523
G1 X150.788 Y72.548 E5.92882
G1 X151.63 Y72.834 E5.9998
G1 X151.796 Y72.898 E6.014
G1 X152.599 Y73.239 E6.08364
G1 X152.788 Y73.327 E6.10029
G1 X153.582 Y73.735 E6.17154
G1 X153.699 Y73.802 E6.18231
G1 X154.478 Y74.276 E6.2551
G1 X154.629 Y74.376 E6.26955
G1 X155.343 Y74.887 E6.33964
G1 X155.491 Y75 E6.3545
G1 X156.182 Y75.576 E6.42631
G1 X156.295 Y75.677 E6.43841
G1 X156.944 Y76.302 E6.51033
G1 X157.064 Y76.427 E6.52417
G1 X157.667 Y77.098 E6.59618
G1 X157.763 Y77.214 E6.6082
G1 X158.322 Y77.938 E6.68121
G1 X158.416 Y78.069 E6.69408
G1 X158.916 Y78.823 E6.7663
G1 X158.992 Y78.949 E6.77805
G1 X159.438 Y79.743 E6.85074
G1 X159.516 Y79.893 E6.86424
G1 X159.899 Y80.708 E6.93612
G1 X159.959 Y80.851 E6.9485
G1 X160.288 Y81.71 E7.02193
G1 X160.34 Y81.86 E7.0346
G1 X160.595 Y82.71 E7.10544
G1 X160.642 Y82.883 E7.11975
G1 X160.84 Y83.769 E7.19222
G1 X160.865 Y83.908 E7.20349
G1 X160.998 Y84.807 E7.27603
G1 X161.016 Y84.969 E7.28904
G1 X161.083 Y85.871 E7.36124
G1 X161.092 Y86.055 E7.37595
G1 X161.1 Y86.556 E7.41595
G1 X161.1 Y96.486 E8.2086
G1 X161.064 Y97.492 E8.28896
G1 X161.054 Y97.627 E8.29976
G1 X160.952 Y98.544 E8.37341
G1 X160.927 Y98.719 E8.38752
G1 X160.765 Y99.597 E8.45879
G1 X160.735 Y99.731 E8.46975
G1 X160.504 Y100.616 E8.54276
G1 X160.452 Y100.788 E8.55711
G1 X160.17 Y101.616 E8.62693
G1 X160.104 Y101.789 E8.64171
G1 X159.849 Y102.39 E8.69383
G1 X159.626 Y103.023 E8.7474
G1 X159.483 Y103.691 E8.80193
G1 X159.424 Y104.37 E8.85633
G1 X159.452 Y105.053 E8.9109
G1 X159.566 Y105.726 E8.96539
G1 X159.728 Y106.259 E9.00985
G1 X159.713 Y106.267 E9.01121
G1 X159.959 Y106.851 E9.0618
G1 X160.288 Y107.71 E9.13522
G1 X160.34 Y107.86 E9.1479
G1 X160.595 Y108.71 E9.21873
G1 X160.642 Y108.883 E9.23304
G1 X160.84 Y109.769 E9.30551
G1 X160.865 Y109.908 E9.31679
G1 X160.998 Y110.807 E9.38933
G1 X161.016 Y110.969 E9.40234
G1 X161.083 Y111.871 E9.47454
G1 X161.092 Y112.055 E9.48925
G1 X161.1 Y112.556 E9.52924
G1 X161.1 Y116.193 E9.81956
G1 X161.142 Y116.861 E9.87299
G1 X161.271 Y117.532 E9.92753
G1 X161.484 Y118.181 E9.98206
G1 X161.776 Y118.798 E10.03655
G1 X162.144 Y119.373 E10.09104
G1 X162.582 Y119.897 E10.14556
G1 X163.082 Y120.361 E10.20001
G1 X163.64 Y120.762 E10.25486
G1 X164.38 Y121.147 E10.32145
G1 X164.623 Y121.25 E10.34251
G1 X164.774 Y121.32 E10.3558
G1 X165.582 Y121.735 E10.42831
G1 X165.699 Y121.802 E10.43907
G1 X166.478 Y122.276 E10.51186
G1 X166.629 Y122.376 E10.52632
G1 X167.343 Y122.887 E10.5964
G1 X167.491 Y123 E10.61127
G1 X168.182 Y123.576 E10.68308
G1 X168.295 Y123.677 E10.69517
G1 X168.944 Y124.302 E10.7671
G1 X169.064 Y124.427 E10.78093
G1 X169.667 Y125.098 E10.85294
G1 X169.763 Y125.214 E10.86496
G1 X170.313 Y125.926 E10.93678
G1 X170.426 Y126.085 E10.95235
G1 X170.916 Y126.823 E11.02306
G1 X170.992 Y126.949 E11.03481
G1 X171.438 Y127.743 E11.1075
G1 X171.516 Y127.893 E11.121
G1 X171.899 Y128.708 E11.19288
G1 X171.959 Y128.851 E11.20526
G1 X172.288 Y129.71 E11.27869
G1 X172.34 Y129.86 E11.29136
G1 X172.595 Y130.71 E11.3622
G1 X172.642 Y130.883 E11.37651
G1 X172.84 Y131.769 E11.44898
G1 X172.865 Y131.908 E11.46025
G1 X172.998 Y132.807 E11.53279
G1 X173.016 Y132.969 E11.5458
G1 X173.083 Y133.871 E11.618
G1 X173.092 Y134.055 E11.63271
G1 X173.1 Y134.556 E11.67271
G1 X173.1 Y144.486 E12.46536
G1 X173.064 Y145.492 E12.54572
G1 X173.054 Y145.627 E12.55652
G1 X172.952 Y146.544 E12.63017
G1 X172.927 Y146.719 E12.64428
G1 X172.765 Y147.597 E12.71555
G1 X172.735 Y147.731 E12.72651
G1 X172.504 Y148.616 E12.79953
G1 X172.452 Y148.788 E12.81387
G1 X172.176 Y149.6 E12.88233
G1 X172.096 Y149.809 E12.90019
G1 X171.761 Y150.599 E12.96869
G1 X171.68 Y150.774 E12.98408
G1 X171.265 Y151.582 E13.05659
G1 X171.198 Y151.699 E13.06735
G1 X170.724 Y152.478 E13.14014
G1 X170.624 Y152.629 E13.1546
G1 X170.113 Y153.343 E13.22469
G1 X170 Y153.491 E13.23955
G1 X169.424 Y154.182 E13.31136
G1 X169.323 Y154.295 E13.32346
G1 X168.698 Y154.944 E13.39538
G1 X168.573 Y155.064 E13.40921
G1 X167.903 Y155.666 E13.48111
G1 X167.786 Y155.763 E13.49324
G1 X167.074 Y156.313 E13.56506
G1 X166.915 Y156.426 E13.58063
G1 X166.177 Y156.916 E13.65134
G1 X166.051 Y156.992 E13.66309
G1 X165.257 Y157.438 E13.73578
G1 X165.106 Y157.516 E13.74935
G1 X164.292 Y157.899 E13.82116
G1 X164.149 Y157.959 E13.83354
G1 X163.29 Y158.288 E13.90697
G1 X163.14 Y158.34 E13.91964
G1 X162.29 Y158.595 E13.99048
G1 X162.117 Y158.642 E14.00479
G1 X161.222 Y158.842 E14.07799
G1 X161.092 Y158.865 E14.08853
G1 X160.187 Y158.999 E14.16156
G1 X160.019 Y159.017 E14.17505
G1 X159.129 Y159.083 E14.24629
G1 X158.945 Y159.092 E14.26099
G1 X158.44 Y159.1 E14.30131
G1 X148.497 Y159.099 E15.095
G1 X147.496 Y159.063 E15.17496
G1 X147.373 Y159.054 E15.1848
G1 X146.456 Y158.952 E15.25845
G1 X146.281 Y158.927 E15.27256
G1 X145.392 Y158.763 E15.34472
G1 X145.269 Y158.735 E15.35479
G1 X144.375 Y158.501 E15.42856
G1 X143.76 Y158.316 E15.47983
G1 X143.755 Y158.331 E15.48109
G1 X143.548 Y158.276 E15.49818
G1 X142.871 Y158.186 E15.5527
G1 X142.188 Y158.182 E15.60722
G1 X141.51 Y158.265 E15.66175
G1 X140.848 Y158.432 E15.71625
G1 X140.212 Y158.682 E15.7708
G1 X139.614 Y159.009 E15.8252
G1 X139.061 Y159.41 E15.87973
G1 X138.563 Y159.877 E15.93422
G1 X138.128 Y160.404 E15.98877
G1 X137.763 Y160.98 E16.04321
G1 X137.473 Y161.598 E16.0977
G1 X137.264 Y162.249 E16.15228
G1 X137.139 Y162.92 E16.20676
G1 X137.1 Y163.562 E16.2581
G1 X137.1 Y166.486 E16.49151
G1 X137.064 Y167.492 E16.57186
G1 X137.054 Y167.627 E16.58267
G1 X136.952 Y168.544 E16.65632
G1 X136.927 Y168.719 E16.67043
G1 X136.765 Y169.597 E16.7417
G1 X136.735 Y169.731 E16.75266
G1 X136.504 Y170.616 E16.82567
G1 X136.452 Y170.788 E16.84001
G1 X136.176 Y171.6 E16.90847
G1 X136.096 Y171.809 E16.92634
G1 X135.761 Y172.599 E16.99483
G1 X135.68 Y172.774 E17.01023
G1 X135.265 Y173.582 E17.08274
G1 X135.198 Y173.699 E17.0935
G1 X134.724 Y174.478 E17.16629
G1 X134.624 Y174.629 E17.18074
G1 X134.113 Y175.343 E17.25083
G1 X134 Y175.491 E17.2657
G1 X133.424 Y176.182 E17.3375
G1 X133.323 Y176.295 E17.3496
G1 X132.698 Y176.944 E17.42153
G1 X132.573 Y177.064 E17.43536
G1 X131.903 Y177.666 E17.50726
G1 X131.786 Y177.763 E17.51939
G1 X131.074 Y178.313 E17.59121
G1 X130.915 Y178.426 E17.60678
G1 X130.177 Y178.916 E17.67749
G1 X130.051 Y178.992 E17.68924
G1 X129.257 Y179.438 E17.76193
G1 X129.106 Y179.516 E17.7755
G1 X128.292 Y179.899 E17.84731
G1 X128.149 Y179.959 E17.85969
G1 X127.29 Y180.288 E17.93311
G1 X127.14 Y180.34 E17.94579
G1 X126.29 Y180.595 E18.01662
G1 X126.117 Y180.642 E18.03093
G1 X125.222 Y180.842 E18.10414
G1 X125.092 Y180.865 E18.11468
G1 X124.187 Y180.999 E18.18771
G1 X124.019 Y181.017 E18.20119
G1 X123.129 Y181.083 E18.27243
G1 X122.945 Y181.092 E18.28714
G1 X122.44 Y181.1 E18.32745
G1 X112.497 Y181.099 E19.12115
G1 X111.496 Y181.063 E19.2011
G1 X111.373 Y181.054 E19.21095
G1 X110.456 Y180.952 E19.2846
G1 X110.281 Y180.927 E19.29871
G1 X109.392 Y180.763 E19.37087
G1 X109.269 Y180.735 E19.38094
G1 X108.375 Y180.501 E19.45471
G1 X108.212 Y180.452 E19.46829
G1 X107.37 Y180.166 E19.53928
G1 X107.204 Y180.102 E19.55348
G1 X106.401 Y179.761 E19.62312
G1 X106.212 Y179.673 E19.63976
G1 X105.418 Y179.265 E19.71102
G1 X105.301 Y179.198 E19.72178
G1 X104.522 Y178.724 E19.79457
G1 X104.371 Y178.624 E19.80903
G1 X103.657 Y178.113 E19.87911
G1 X103.509 Y178 E19.89398
G1 X102.818 Y177.424 E19.96579
G1 X102.705 Y177.323 E19.97788
G1 X102.056 Y176.698 E20.04981
G1 X101.936 Y176.573 E20.06364
G1 X101.333 Y175.902 E20.13565
G1 X101.236 Y175.784 E20.14784
G1 X100.678 Y175.062 E20.22068
G1 X100.574 Y174.915 E20.23506
G1 X100.081 Y174.172 E20.30624
G1 X100.008 Y174.051 E20.31752
G1 X99.556 Y173.246 E20.39121
G1 X99.484 Y173.107 E20.40371
G1 X99.087 Y172.261 E20.4783
G1 X99.041 Y172.149 E20.48797
G1 X98.712 Y171.29 E20.5614
G1 X98.655 Y171.125 E20.57533
G1 X98.405 Y170.29 E20.64491
G1 X98.358 Y170.117 E20.65922
G1 X98.157 Y169.216 E20.73291
G1 X98.135 Y169.092 E20.74296
G1 X98 Y168.178 E20.81671
G1 X97.983 Y168.018 E20.82955
G1 X97.917 Y167.126 E20.90095
G1 X97.908 Y166.945 E20.91542
G1 X97.9 Y166.444 E20.95542
G1 X97.9 Y163.556 E21.18595
G1 X97.858 Y162.888 E21.23938
G1 X97.729 Y162.217 E21.29392
G1 X97.516 Y161.568 E21.34844
G1 X97.224 Y160.951 E21.40293
G1 X96.856 Y160.376 E21.45743
G1 X96.418 Y159.852 E21.51194
G1 X95.918 Y159.388 E21.56639
G1 X95.362 Y158.989 E21.62102
G1 X94.762 Y158.665 E21.67545
G1 X94.126 Y158.419 E21.72989
G1 X93.462 Y158.255 E21.78448
G1 X92.784 Y158.176 E21.83897
G1 X92.101 Y158.183 E21.89349
G1 X91.429 Y158.276 E21.94765
G1 X90.952 Y158.395 E21.98689
G1 X90.252 Y158.606 E22.04525
G1 X90.119 Y158.641 E22.05623
G1 X89.222 Y158.842 E22.12961
G1 X89.092 Y158.865 E22.14014
G1 X88.187 Y158.999 E22.21317
G1 X88.019 Y159.017 E22.22666
G1 X87.129 Y159.083 E22.2979
G1 X86.945 Y159.092 E22.3126
G1 X86.44 Y159.1 E22.35292
G1 X76.497 Y159.099 E23.14661
G1 X75.496 Y159.063 E23.22657
G1 X75.373 Y159.054 E23.23641
G1 X74.456 Y158.952 E23.31006
G1 X74.281 Y158.927 E23.32417
G1 X73.392 Y158.763 E23.39634
G1 X73.269 Y158.735 E23.40641
G1 X72.375 Y158.501 E23.48017
G1 X72.212 Y158.452 E23.49376
G1 X71.37 Y158.166 E23.56474
G1 X71.204 Y158.102 E23.57894
G1 X70.401 Y157.761 E23.64858
G1 X70.212 Y157.673 E23.66523
G1 X69.418 Y157.265 E23.73648
G1 X69.301 Y157.198 E23.74725
G1 X68.522 Y156.724 E23.82004
G1 X68.371 Y156.624 E23.83449
G1 X67.657 Y156.113 E23.90458
G1 X67.509 Y156 E23.91944
G1 X66.818 Y155.424 E23.99125
G1 X66.705 Y155.323 E24.00335
G1 X66.056 Y154.698 E24.07527
G1 X65.936 Y154.573 E24.08911
G1 X65.333 Y153.902 E24.16112
G1 X65.236 Y153.784 E24.17331
G1 X64.678 Y153.062 E24.24615
G1 X64.574 Y152.915 E24.26052
G1 X64.081 Y152.172 E24.3317
G1 X64.008 Y152.051 E24.34298
G1 X63.556 Y151.246 E24.41668
G1 X63.484 Y151.107 E24.42917
G1 X63.087 Y150.261 E24.50377
G1 X63.041 Y150.149 E24.51344
G1 X62.712 Y149.29 E24.58686
G1 X62.655 Y149.125 E24.6008
G1 X62.405 Y148.29 E24.67037
G1 X62.358 Y148.117 E24.68468
G1 X62.157 Y147.216 E24.75837
G1 X62.135 Y147.092 E24.76843
G1 X62 Y146.178 E24.84218
G1 X61.983 Y146.018 E24.85502
G1 X61.917 Y145.126 E24.92642
G1 X61.908 Y144.945 E24.94089
G1 X61.9 Y144.444 E24.98088
G1 X61.9 Y138.807 E25.43085
G1 X61.858 Y138.139 E25.48428
G1 X61.729 Y137.468 E25.53882
G1 X61.516 Y136.819 E25.59335
G1 X61.224 Y136.202 E25.64784
G1 X60.856 Y135.627 E25.70233
G1 X60.418 Y135.103 E25.75685
G1 X59.918 Y134.639 E25.8113
G1 X59.36 Y134.238 E25.86615
G1 X58.62 Y133.853 E25.93273
G1 X58.377 Y133.75 E25.9538
G1 X58.225 Y133.68 E25.96716
G1 X57.418 Y133.265 E26.0396
G1 X57.301 Y133.198 E26.05036
G1 X56.522 Y132.724 E26.12315
G1 X56.371 Y132.624 E26.13761
G1 X55.657 Y132.113 E26.20769
G1 X55.509 Y132 E26.22256
G1 X54.818 Y131.424 E26.29437
G1 X54.705 Y131.323 E26.30646
G1 X54.056 Y130.698 E26.37839
G1 X53.936 Y130.573 E26.39222
G1 X53.333 Y129.902 E26.46423
G1 X53.236 Y129.784 E26.47642
G1 X52.678 Y129.062 E26.54926
G1 X52.574 Y128.915 E26.56364
G1 X52.081 Y128.172 E26.63482
G1 X52.008 Y128.051 E26.6461
G1 X51.556 Y127.246 E26.71979
G1 X51.484 Y127.107 E26.73229
G1 X51.101 Y126.291 E26.80424
G1 X51.036 Y126.137 E26.81759
G1 X50.712 Y125.29 E26.88997
G1 X50.655 Y125.125 E26.90391
G1 X50.405 Y124.29 E26.97349
G1 X50.358 Y124.117 E26.9878
G1 X50.157 Y123.216 E27.06149
G1 X50.135 Y123.092 E27.07154
G1 X50 Y122.178 E27.14529
G1 X49.983 Y122.018 E27.15813
G1 X49.917 Y121.126 E27.22953
G1 X49.908 Y120.945 E27.244
G1 X49.9 Y120.444 E27.28399
G1 X49.9 Y110.514 E28.07665
G1 X49.936 Y109.508 E28.157
G1 X49.946 Y109.373 E28.16781
G1 X50.048 Y108.456 E28.24146
G1 X50.073 Y108.281 E28.25557
G1 X50.235 Y107.403 E28.32684
G1 X50.265 Y107.269 E28.3378
G1 X50.496 Y106.384 E28.41081
G1 X50.548 Y106.212 E28.42516
G1 X50.834 Y105.37 E28.49614
G1 X50.898 Y105.204 E28.51034
G1 X51.239 Y104.401 E28.57998
G1 X51.32 Y104.226 E28.59537
G1 X51.735 Y103.418 E28.66788
G1 X51.802 Y103.301 E28.67864
G1 X52.276 Y102.522 E28.75143
G1 X52.376 Y102.371 E28.76589
G1 X52.887 Y101.657 E28.83598
G1 X53 Y101.509 E28.85084
G1 X53.576 Y100.818 E28.92265
G1 X53.677 Y100.705 E28.93475
G1 X54.302 Y100.056 E29.00667
G1 X54.427 Y99.936 E29.0205
G1 X55.098 Y99.333 E29.09252
G1 X55.214 Y99.237 E29.10454
G1 X55.926 Y98.687 E29.17635
G1 X56.085 Y98.574 E29.19192
G1 X56.823 Y98.084 E29.26264
G1 X56.949 Y98.008 E29.27438
G1 X57.743 Y97.562 E29.34708
G1 X57.893 Y97.484 E29.36057
G1 X58.708 Y97.101 E29.43246
G1 X58.851 Y97.041 E29.44483
G1 X59.71 Y96.712 E29.51826
G1 X59.86 Y96.66 E29.53093
G1 X60.71 Y96.405 E29.60177
G1 X60.883 Y96.358 E29.61608
G1 X61.778 Y96.158 E29.68929
G1 X61.908 Y96.135 E29.69982
G1 X62.813 Y96.001 E29.77285
G1 X62.982 Y95.983 E29.78642
G1 X63.871 Y95.917 E29.85758
G1 X64.055 Y95.908 E29.87228
G1 X64.56 Y95.9 E29.9126
G1 X68.513 Y95.9 E30.22815
