;FLAVOR:Marlin
;TIME:2750
;Filament used: 1.27016m
;Layer height: 0.2
;MINX:96.869
;MINY:96.837
;MINZ:0.24
;MAXX:138.154
;MAXY:138.155
;MAXZ:44.89
;Generated with Cura_SteamEngine master
M140 S55
M105
M190 S55
M104 S200
M105
M109 S200
M82 ;absolute extrusion mode
; Ender 3 Custom Start G-code
G92 E0 ; Reset Extruder
G28 ; Home all axes
G1 Z2.0 F3000 ; Move Z Axis up little to prevent scratching of Heat Bed
G1 X0.1 Y20 Z0.3 F5000.0 ; Move to start position
G1 X0.1 Y200.0 Z0.3 F1500.0 E15 ; Draw the first line
G1 X0.4 Y200.0 Z0.3 F5000.0 ; Move to side a little
G1 X0.4 Y20 Z0.3 F1500.0 E30 ; Draw the second line
G92 E0 ; Reset Extruder
G1 Z2.0 F3000 ; Move Z Axis up little to prevent scratching of Heat Bed
G1 X5 Y20 Z0.3 F5000.0 ; Move over to prevent blob squish
G92 E0
G92 E0
G1 F2700 E-5
;LAYER_COUNT:219
;LAYER:-6
M107
G0 F9000 X103.528 Y102.375 Z0.24
;TYPE:SUPPORT-INTERFACE
G1 F2700 E0
G1 F1125 X103.665 Y102.24 E0.01535
G1 X104.313 Y101.647 E0.08547
G1 X104.434 Y101.544 E0.09815
G1 X105.157 Y100.973 E0.17169
G1 X105.288 Y100.878 E0.18461
G1 X106.022 Y100.381 E0.25537
G1 X106.162 Y100.294 E0.26853
G1 X106.946 Y99.842 E0.34077
G1 X107.132 Y99.743 E0.35759
G1 X107.213 Y99.703 E0.3648
G1 X107.724 Y99.439 E0.41071
G1 X107.849 Y99.38 E0.42174
G1 X108.714 Y98.999 E0.49719
G1 X108.867 Y98.938 E0.51034
G1 X109.699 Y98.64 E0.58089
G1 X110.685 Y98.359 E0.66273
G1 X110.853 Y98.318 E0.67653
G1 X111.732 Y98.136 E0.74818
G1 X111.891 Y98.109 E0.76106
G1 X112.808 Y97.988 E0.83489
G1 X112.953 Y97.973 E0.84653
G1 X113.49 Y97.938 E0.88948
G1 X113.682 Y97.921 E0.90487
G1 X113.827 Y97.914 E0.91646
G1 X114.47 Y97.901 E0.9678
G1 X122.398 Y97.902 E1.60064
G1 X123.399 Y97.938 E1.6806
G1 X123.522 Y97.947 E1.69044
G1 X124.439 Y98.049 E1.76409
G1 X124.614 Y98.074 E1.77821
G1 X125.503 Y98.238 E1.85037
G1 X125.626 Y98.266 E1.86044
G1 X126.532 Y98.503 E1.93519
G1 X126.667 Y98.543 E1.94643
G1 X127.568 Y98.849 E2.02239
G1 X127.678 Y98.893 E2.03184
G1 X128.507 Y99.241 E2.10361
G1 X128.681 Y99.321 E2.1189
G1 X129.474 Y99.724 E2.1899
G1 X129.609 Y99.799 E2.20223
G1 X130.385 Y100.267 E2.27457
G1 X130.528 Y100.36 E2.28819
G1 X131.27 Y100.885 E2.36074
G1 X131.394 Y100.98 E2.37321
G1 X132.082 Y101.547 E2.44438
G1 X132.219 Y101.669 E2.45902
G1 X132.87 Y102.29 E2.53084
G1 X132.972 Y102.396 E2.54258
G1 X133.565 Y103.05 E2.61305
G1 X133.693 Y103.202 E2.62891
G1 X134.246 Y103.91 E2.70063
G1 X134.33 Y104.025 E2.71199
G1 X134.849 Y104.802 E2.78658
G1 X134.918 Y104.914 E2.79708
G1 X135.376 Y105.72 E2.87108
G1 X135.444 Y105.848 E2.88265
G1 X135.838 Y106.678 E2.95599
G1 X135.892 Y106.799 E2.96657
G1 X136.134 Y107.398 E3.01814
G1 X136.159 Y107.468 E3.02407
G1 X136.464 Y108.375 E3.10046
G1 X136.514 Y108.547 E3.11475
G1 X136.733 Y109.402 E3.18521
G1 X136.768 Y109.562 E3.19828
G1 X136.932 Y110.469 E3.27186
G1 X136.952 Y110.61 E3.28322
G1 X137.048 Y111.528 E3.3569
G1 X137.058 Y111.666 E3.36795
G1 X137.09 Y112.631 E3.44502
G1 X137.088 Y117.741 E3.85292
G1 X137.09 Y117.829 E3.85995
G1 X137.088 Y121.688 E4.16799
G1 X137.085 Y121.79 E4.17614
G1 X137.087 Y122.148 E4.20471
G1 X137.09 Y122.289 E4.21597
G1 X137.09 Y122.381 E4.22331
G1 X137.054 Y123.387 E4.30367
G1 X137.044 Y123.522 E4.31448
G1 X136.942 Y124.439 E4.38813
G1 X136.917 Y124.614 E4.40224
G1 X136.755 Y125.492 E4.47351
G1 X136.725 Y125.626 E4.48447
G1 X136.488 Y126.532 E4.55922
G1 X136.448 Y126.667 E4.57046
G1 X136.143 Y127.565 E4.64616
G1 X136.109 Y127.652 E4.65362
G1 X135.75 Y128.507 E4.72764
G1 X135.67 Y128.681 E4.74293
G1 X135.274 Y129.461 E4.81276
G1 X135.192 Y129.609 E4.82626
G1 X134.724 Y130.385 E4.8986
G1 X134.631 Y130.528 E4.91222
G1 X134.108 Y131.267 E4.98449
G1 X134.012 Y131.393 E4.99713
G1 X133.444 Y132.082 E5.06841
G1 X133.322 Y132.219 E5.08305
G1 X132.712 Y132.859 E5.15363
G1 X132.595 Y132.972 E5.16661
G1 X131.94 Y133.566 E5.2372
G1 X131.796 Y133.688 E5.25226
G1 X131.071 Y134.253 E5.32563
G1 X130.966 Y134.33 E5.33603
G1 X130.189 Y134.849 E5.41061
G1 X130.068 Y134.923 E5.42193
G1 X129.271 Y135.376 E5.49511
G1 X129.136 Y135.447 E5.50729
G1 X128.304 Y135.842 E5.58081
G1 X128.179 Y135.897 E5.59171
G1 X127.593 Y136.134 E5.64217
G1 X126.616 Y136.464 E5.72448
G1 X126.444 Y136.514 E5.73878
G1 X125.589 Y136.733 E5.80923
G1 X125.429 Y136.768 E5.82231
G1 X124.522 Y136.932 E5.89588
G1 X124.38 Y136.952 E5.90733
G1 X123.451 Y137.049 E5.98189
G1 X123.325 Y137.058 E5.99197
G1 X122.358 Y137.09 E6.06921
G1 X112.593 Y137.089 E6.84869
G1 X111.592 Y137.053 E6.92865
G1 X111.469 Y137.044 E6.93849
G1 X110.552 Y136.942 E7.01214
G1 X110.377 Y136.917 E7.02625
G1 X109.488 Y136.753 E7.09841
G1 X109.365 Y136.725 E7.10848
G1 X108.474 Y136.492 E7.182
G1 X108.298 Y136.44 E7.19665
G1 X107.529 Y136.181 E7.26142
G1 X107.487 Y136.167 E7.26495
G1 X106.531 Y135.773 E7.34749
G1 X106.388 Y135.708 E7.36003
G1 X105.561 Y135.293 E7.43389
G1 X105.429 Y135.22 E7.44593
G1 X104.681 Y134.772 E7.51553
G1 X104.525 Y134.672 E7.53032
G1 X103.782 Y134.152 E7.60272
G1 X103.655 Y134.055 E7.61547
G1 X102.931 Y133.465 E7.69002
G1 X102.854 Y133.398 E7.69817
G1 X102.153 Y132.736 E7.77514
G1 X102.077 Y132.658 E7.78383
G1 X101.446 Y131.968 E7.85847
G1 X101.353 Y131.858 E7.86997
G1 X100.778 Y131.129 E7.94408
G1 X100.696 Y131.016 E7.95523
G1 X100.182 Y130.256 E8.02846
G1 X100.104 Y130.131 E8.04023
G1 X99.648 Y129.336 E8.11338
G1 X99.573 Y129.193 E8.12627
G1 X99.186 Y128.388 E8.19757
G1 X99.109 Y128.217 E8.21254
G1 X98.845 Y127.565 E8.26869
G1 X98.526 Y126.615 E8.34869
G1 X98.478 Y126.45 E8.3624
G1 X98.254 Y125.575 E8.4345
G1 X98.216 Y125.401 E8.44872
G1 X98.056 Y124.507 E8.52122
G1 X98.036 Y124.366 E8.53258
G1 X97.941 Y123.449 E8.60617
G1 X97.931 Y123.31 E8.6173
G1 X97.901 Y122.414 E8.68886
G1 X97.9 Y116.252 E9.18074
G1 X97.936 Y115.246 E9.26109
G1 X97.946 Y115.111 E9.2719
G1 X98.045 Y114.215 E9.34386
G1 X98.142 Y113.57 E9.39592
G1 X98.13 Y113.567 E9.39691
G1 X98.152 Y113.397 E9.41059
G1 X98.153 Y113.373 E9.41251
G1 X98.181 Y113.152 E9.43029
G1 X98.31 Y112.338 E9.49608
G1 X98.331 Y112.218 E9.50581
G1 X98.352 Y112.12 E9.51381
G1 X98.629 Y110.965 E9.60862
G1 X98.665 Y110.825 E9.62016
G1 X98.806 Y110.396 E9.6562
G1 X98.99 Y109.809 E9.70531
G1 X99.04 Y109.666 E9.7174
G1 X99.371 Y108.829 E9.78925
G1 X99.444 Y108.664 E9.80365
G1 X99.831 Y107.86 E9.87488
G1 X99.905 Y107.721 E9.88745
G1 X100.349 Y106.949 E9.95854
G1 X100.492 Y106.72 E9.98009
G1 X100.738 Y106.281 E10.02026
G1 X100.994 Y105.77 E10.06588
G1 X101.066 Y105.639 E10.07781
G1 X101.539 Y104.845 E10.15159
G1 X101.622 Y104.717 E10.16376
G1 X102.158 Y103.952 E10.23833
G1 X102.222 Y103.866 E10.24688
G1 X102.811 Y103.143 E10.32132
G1 X102.918 Y103.022 E10.33422
G1 X103.528 Y102.375 E10.4052
G0 F9000 X104 Y101.933
G1 F1125 X104 Y134.304 E12.98919
G0 F9000 X105.6 Y135.312
G1 F1125 X105.6 Y100.666 E15.75479
G0 F9000 X107.2 Y99.709
G1 F1125 X107.2 Y136.048 E18.65552
G0 F9000 X108.8 Y136.577
G1 F1125 X108.8 Y98.964 E21.65795
G0 F9000 X110.4 Y98.44
G1 F1125 X110.4 Y136.92 E24.72959
G0 F9000 X112 Y137.067
G1 F1125 X112 Y98.094 E27.84059
G0 F9000 X113.6 Y97.928
G1 F1125 X113.6 Y137.089 E30.96659
G0 F9000 X115.2 Y137.089
G1 F1125 X115.2 Y97.902 E34.09466
G0 F9000 X116.8 Y97.902
G1 F1125 X116.8 Y137.089 E37.22274
G0 F9000 X118.4 Y137.089
G1 F1125 X118.4 Y97.902 E40.35082
G0 F9000 X120 Y97.902
G1 F1125 X120 Y137.089 E43.47889
G0 F9000 X121.6 Y137.089
G1 F1125 X121.6 Y97.902 E46.60697
G0 F9000 X123.2 Y97.931
G1 F1125 X123.2 Y137.063 E49.73065
G0 F9000 X124.8 Y136.882
G1 F1125 X124.8 Y98.109 E52.82568
G0 F9000 X126.4 Y98.469
G1 F1125 X126.4 Y136.526 E55.86356
G0 F9000 X128 Y135.97
G1 F1125 X128 Y99.029 E58.81235
G0 F9000 X129.6 Y99.794
G1 F1125 X129.6 Y135.19 E61.63781
G0 F9000 X131.2 Y134.153
G1 F1125 X131.2 Y100.836 E64.29731
G0 F9000 X132.8 Y102.224
G1 F1125 X132.8 Y132.767 E66.73539
G0 F9000 X134.4 Y130.855
G1 F1125 X134.4 Y104.13 E68.86869
G0 F9000 X136 Y107.067
G1 F1125 X136 Y127.912 E70.53263
G1 F2700 E65.53263
G0 F9000 X136.982 Y128.324
G0 X136.11 Y130.149
G0 X134.969 Y131.894
G0 X134.11 Y132.936
G0 X132.637 Y134.371
G0 X131.568 Y135.208
G0 X129.788 Y136.307
G0 X127.828 Y137.178
G0 X125.827 Y137.77
G0 X124.502 Y138.009
G0 X122.369 Y138.155
G0 X111.539 Y138.116
G0 X110.213 Y137.969
G0 X108.183 Y137.516
G0 X106.997 Y137.118
G0 X105.072 Y136.238
G0 X103.925 Y135.552
G0 X102.57 Y134.525
G0 X101.669 Y133.744
G0 X102.4 Y132.969
G1 F2700 E70.53263
G1 F1125 X102.4 Y103.647 E72.87324
G0 F9000 X100.8 Y106.157
G1 F1125 X100.8 Y131.156 E74.86877
G0 F9000 X99.2 Y128.417
G1 F1125 X99.2 Y109.261 E76.39788
G1 F2700 E71.39788
G0 F300 X99.2 Y109.261 Z0.54
G0 F9000 X98.039 Y109.303
G0 X97.597 Y110.705
G0 X97.232 Y112.341
G0 X96.874 Y115.181
G0 X96.869 Y123.374
G0 X97.006 Y124.683
G0 X97.449 Y126.724
G0 X98.002 Y128.277
G0 X98.619 Y129.664
G0 X99.663 Y129.361
;TIME_ELAPSED:60.225654
;LAYER:-5
;TYPE:SUPPORT
G1 F2700 E76.39788
G1 F1125 X105.626 Y135.324 E77.23933
G1 X105.561 Y135.292 E77.24656
G1 X105.428 Y135.219 E77.2617
G1 X104.68 Y134.771 E77.34869
G1 X104.524 Y134.671 E77.36718
G1 X103.782 Y134.15 E77.45765
G1 X103.654 Y134.054 E77.47361
G1 X102.931 Y133.464 E77.56673
G1 X102.854 Y133.397 E77.57691
G1 X102.152 Y132.735 E77.67319
G1 X102.076 Y132.657 E77.68406
G1 X101.445 Y131.967 E77.77735
G1 X101.353 Y131.857 E77.79166
G1 X100.778 Y131.128 E77.88431
G1 X100.696 Y131.015 E77.89824
G1 X100.182 Y130.255 E77.98978
G1 X100.103 Y130.13 E78.00454
G1 F2700 E73.00454
G0 F9000 X99.287 Y130.831
G0 X100.534 Y132.538
G0 X101.411 Y133.5
G0 X102.991 Y134.887
G0 X103.309 Y135.109
G0 X104.906 Y136.146
G0 X105.626 Y135.324
G1 F2700 E78.00454
G1 F1125 X106.387 Y135.707 E78.08955
G1 X106.53 Y135.772 E78.10522
G1 X107.487 Y136.166 E78.20849
G1 X107.528 Y136.18 E78.21281
G1 X108.081 Y136.366 E78.27102
G1 X98.625 Y126.909 E79.60544
G1 X98.526 Y126.613 E79.63658
G1 X98.478 Y126.449 E79.65363
G1 X98.254 Y125.574 E79.74376
G1 X98.216 Y125.4 E79.76153
G1 X98.147 Y125.017 E79.80036
G1 X109.971 Y136.841 E81.46885
G1 X110.377 Y136.916 E81.51005
G1 X110.551 Y136.941 E81.52759
G1 X111.469 Y137.043 E81.61975
G1 X111.592 Y137.052 E81.63206
G0 F9000 X111.596 Y137.052
G1 F1125 X97.937 Y123.392 E83.55956
G1 X97.931 Y123.309 E83.56786
G1 X97.901 Y122.413 E83.65732
G1 X97.9 Y121.941 E83.70441
G1 X113.046 Y137.088 E85.84175
G1 X114.46 Y137.088 E85.98284
G1 X97.9 Y120.527 E88.3197
G1 X97.9 Y119.113 E88.46079
G1 X115.875 Y137.088 E90.99726
G1 X117.289 Y137.088 E91.13835
G1 X97.9 Y117.699 E93.87435
G1 X97.9 Y116.285 E94.01543
G1 X118.704 Y137.088 E96.95103
G1 X120.118 Y137.088 E97.09212
G1 X97.965 Y114.935 E100.21815
G1 X98.045 Y114.214 E100.29053
G1 X98.124 Y113.68 E100.3444
G1 X121.532 Y137.088 E103.64752
G1 X122.357 Y137.089 E103.72984
G1 X122.927 Y137.069 E103.78675
G1 X98.293 Y112.435 E107.26287
G1 X98.309 Y112.337 E107.27278
G1 X98.33 Y112.217 E107.28493
G1 X98.352 Y112.119 E107.29496
G1 X98.553 Y111.28 E107.38104
G1 X124.237 Y136.965 E111.0054
G1 X124.38 Y136.951 E111.01974
G1 X124.521 Y136.931 E111.03395
G1 X125.429 Y136.767 E111.12601
G1 X125.448 Y136.762 E111.12797
G1 X98.871 Y110.185 E114.87828
G1 X98.989 Y109.808 E114.91769
G1 X99.04 Y109.665 E114.93284
G1 X99.245 Y109.144 E114.98871
G1 X126.574 Y136.474 E118.84519
G1 X126.615 Y136.463 E118.84943
G1 X127.593 Y136.133 E118.95242
G1 X127.632 Y136.117 E118.95663
G1 X99.682 Y108.167 E122.90067
G1 X99.83 Y107.859 E122.93477
G1 X99.904 Y107.719 E122.95057
G1 X100.176 Y107.247 E123.00493
G1 X128.619 Y135.69 E127.01854
G1 X129.136 Y135.446 E127.07559
G1 X129.271 Y135.374 E127.09085
G1 X129.555 Y135.212 E127.12348
G1 X100.696 Y106.353 E131.19579
G1 X100.737 Y106.28 E131.20415
G1 X100.993 Y105.769 E131.26117
G1 X101.066 Y105.638 E131.27614
G1 X101.188 Y105.431 E131.30011
G1 X130.438 Y134.681 E135.4276
G1 X130.966 Y134.329 E135.49092
G1 X131.07 Y134.252 E135.50383
G1 X131.268 Y134.097 E135.52892
G1 X101.73 Y104.559 E139.69706
G1 X102.157 Y103.951 E139.77119
G1 X102.222 Y103.865 E139.78195
G1 X102.324 Y103.738 E139.7982
G1 X132.05 Y133.464 E143.99286
G1 X132.595 Y132.971 E144.06619
G1 X132.712 Y132.858 E144.08242
G1 X132.784 Y132.784 E144.09272
G1 X102.967 Y102.967 E148.30022
G1 X103.527 Y102.374 E148.3816
G1 X103.659 Y102.244 E148.40009
G1 X133.467 Y132.053 E152.60639
G1 X134.01 Y131.393 E152.69167
G1 X134.102 Y131.274 E152.70668
G1 X104.4 Y101.572 E156.89795
G1 X104.433 Y101.544 E156.90227
G1 X105.155 Y100.972 E156.99418
G1 X105.19 Y100.947 E156.99847
G1 X134.686 Y130.443 E161.16068
G1 X134.723 Y130.384 E161.16762
G1 X135.191 Y129.609 E161.25796
G1 X135.217 Y129.561 E161.26341
G1 X106.031 Y100.374 E165.38194
G1 X106.161 Y100.293 E165.39722
G1 X106.925 Y99.854 E165.48514
G1 X135.695 Y128.624 E169.5449
G1 X135.748 Y128.506 E169.55781
G1 X136.108 Y127.651 E169.65037
G1 X136.117 Y127.632 E169.65247
G1 X107.86 Y99.375 E173.63984
G1 X108.713 Y98.999 E173.73285
G1 X108.846 Y98.946 E173.74714
G1 X136.475 Y126.575 E177.64589
G1 X136.487 Y126.532 E177.65034
G1 X136.724 Y125.626 E177.74379
G1 X136.754 Y125.491 E177.75759
G1 X136.762 Y125.449 E177.76185
G1 X109.897 Y98.583 E181.55286
G1 X110.684 Y98.359 E181.63451
G1 X110.852 Y98.318 E181.65176
G1 X111.013 Y98.285 E181.66816
G1 X136.963 Y124.235 E185.32999
G1 X137.042 Y123.521 E185.40167
G1 X137.053 Y123.386 E185.41518
G1 X137.069 Y122.927 E185.46101
G1 X112.209 Y98.067 E188.96902
G1 X112.807 Y97.988 E189.02921
G1 X112.952 Y97.973 E189.04376
G1 X113.489 Y97.938 E189.09745
G1 X113.494 Y97.938 E189.09795
G1 X137.088 Y121.531 E192.42725
G1 X137.088 Y120.117 E192.56834
G1 X114.871 Y97.901 E195.70333
G1 X116.285 Y97.901 E195.84442
G1 X137.088 Y118.704 E198.77994
G1 X137.088 Y117.828 E198.86735
G1 X137.087 Y117.741 E198.87603
G1 X137.088 Y117.289 E198.92113
G1 X117.7 Y97.901 E201.65699
G1 X119.114 Y97.901 E201.79808
G1 X137.088 Y115.875 E204.3344
G1 X137.088 Y114.461 E204.47549
G1 X120.529 Y97.901 E206.81222
G1 X121.943 Y97.901 E206.95331
G1 X137.089 Y113.047 E209.09057
G1 X137.089 Y112.63 E209.13218
G1 X137.057 Y111.666 E209.22842
G1 X137.052 Y111.596 E209.23542
G1 X123.393 Y97.937 E211.16286
G0 F9000 X123.397 Y97.937
G1 F1125 X123.521 Y97.947 E211.17527
G1 X124.438 Y98.048 E211.26732
G1 X124.613 Y98.074 E211.28497
G1 X125.019 Y98.149 E211.32617
G1 X136.841 Y109.971 E212.99438
G1 X136.767 Y109.561 E213.03595
G1 X136.731 Y109.402 E213.05222
G1 X136.513 Y108.547 E213.14026
G1 X136.463 Y108.375 E213.15813
G1 X136.364 Y108.079 E213.18928
G1 X126.91 Y98.625 E214.52334
G1 X127.567 Y98.848 E214.59257
G1 X127.677 Y98.892 E214.60439
G1 X128.506 Y99.241 E214.69414
G1 X128.679 Y99.32 E214.71312
G1 X129.37 Y99.671 E214.79045
G1 X135.317 Y105.619 E215.62971
G0 F9000 X134.917 Y104.913
G1 F1125 X134.848 Y104.801 E215.64283
G1 X134.329 Y104.025 E215.73598
G1 X134.244 Y103.91 E215.75025
G1 X133.692 Y103.202 E215.83983
G1 X133.564 Y103.05 E215.85966
G1 X132.971 Y102.396 E215.94775
G1 X132.869 Y102.29 E215.96242
G1 X132.218 Y101.668 E216.05226
G1 X132.081 Y101.546 E216.07057
G1 X131.393 Y100.98 E216.15946
G1 X131.269 Y100.885 E216.17505
G1 X130.526 Y100.36 E216.26583
G1 X130.384 Y100.267 E216.28276
G1 X129.607 Y99.798 E216.37332
G1 X129.473 Y99.723 E216.38864
G1 X129.37 Y99.671 E216.40016
G1 F2700 E211.40016
G0 F300 X129.37 Y99.671 Z0.74
G0 F9000 X129.852 Y98.722
G0 X127.864 Y97.825
G0 X125.883 Y97.233
G0 X125.316 Y98
;TIME_ELAPSED:137.720345
;LAYER:-4
;TYPE:SUPPORT-INTERFACE
G1 F2700 E216.40016
G1 F1500 X111.403 Y98 E216.86291
G1 X111.692 Y97.94 E216.87272
G1 X111.873 Y97.909 E216.87883
G1 X112.787 Y97.789 E216.90949
G1 X112.926 Y97.775 E216.91414
G1 X113.013 Y97.768 E216.91704
G1 X113.378 Y97.746 E216.9292
G1 X113.66 Y97.723 E216.93861
G1 X113.83 Y97.714 E216.94428
G1 X114.468 Y97.701 E216.9655
G1 X122.405 Y97.701 E217.22949
G1 X123.409 Y97.737 E217.2629
G1 X123.544 Y97.747 E217.2674
G1 X124.461 Y97.849 E217.29809
G1 X124.635 Y97.874 E217.30394
G1 F2700 E212.30394
G0 F9000 X124.567 Y96.992
G0 X122.382 Y96.837
G0 X113.403 Y96.877
G0 X111.528 Y97.091
G0 X111.403 Y98
G1 F2700 E217.30394
G1 F1500 X110.809 Y98.123 E217.32411
G1 X110.64 Y98.163 E217.32989
G1 X109.81 Y98.4 E217.3586
G1 X126.875 Y98.4 E217.92618
G1 X127.58 Y98.639 E217.95094
G1 X127.629 Y98.657 E217.95268
