;FLAVOR:Marlin
;TIME:13009
;Filament used: 9.12485m
;Layer height: 0.2
;MINX:57.336
;MINY:60.836
;MINZ:0.24
;MAXX:177.664
;MAXY:174.165
;MAXZ:9.09
;Generated with Cura_SteamEngine master
M140 S60
M105
M190 S60
M104 S200
M105
M109 S200
M82 ;absolute extrusion mode
; Ender 3 Custom Start G-code
G92 E0 ; Reset Extruder
G28 ; Home all axes
G1 Z2.0 F3000 ; Move Z Axis up little to prevent scratching of Heat Bed
G1 X0.1 Y20 Z0.3 F5000.0 ; Move to start position
G1 X0.1 Y200.0 Z0.3 F1500.0 E15 ; Draw the first line
G1 X0.4 Y200.0 Z0.3 F5000.0 ; Move to side a little
G1 X0.4 Y20 Z0.3 F1500.0 E30 ; Draw the second line
G92 E0 ; Reset Extruder
G1 Z2.0 F3000 ; Move Z Axis up little to prevent scratching of Heat Bed
G1 X5 Y20 Z0.3 F5000.0 ; Move over to prevent blob squish
G92 E0
G92 E0
G1 F2700 E-5
;LAYER_COUNT:40
;LAYER:-6
M107
G0 F9000 X64.426 Y82.687 Z0.24
;TYPE:SUPPORT-INTERFACE
G1 F2700 E0
G1 F1125 X64.585 Y82.574 E0.01557
G1 X65.323 Y82.084 E0.08628
G1 X65.449 Y82.008 E0.09803
G1 X66.243 Y81.562 E0.17072
G1 X66.393 Y81.484 E0.18422
G1 X67.208 Y81.101 E0.2561
G1 X67.351 Y81.041 E0.26848
G1 X68.21 Y80.712 E0.34191
G1 X68.36 Y80.66 E0.35458
G1 X69.21 Y80.405 E0.42542
G1 X69.383 Y80.358 E0.43973
G1 X70.278 Y80.158 E0.51293
G1 X70.408 Y80.135 E0.52347
G1 X71.313 Y80.001 E0.5965
G1 X71.482 Y79.983 E0.61007
G1 X72.371 Y79.917 E0.68123
G1 X72.555 Y79.908 E0.69593
G1 X73.06 Y79.9 E0.73625
G1 X85.122 Y79.9 E1.69909
G1 X85.79 Y79.858 E1.75252
G1 X86.461 Y79.729 E1.80706
G1 X87.11 Y79.516 E1.86158
G1 X87.727 Y79.224 E1.91607
G1 X88.302 Y78.856 E1.97057
G1 X88.826 Y78.418 E2.02508
G1 X89.29 Y77.918 E2.07953
G1 X89.689 Y77.362 E2.13416
G1 X90.013 Y76.762 E2.18859
G1 X90.259 Y76.126 E2.24303
G1 X90.422 Y75.468 E2.29714
G1 X90.476 Y75.102 E2.32667
G1 X90.549 Y74.448 E2.3792
G1 X90.573 Y74.281 E2.39267
G1 X90.735 Y73.403 E2.46394
G1 X90.765 Y73.269 E2.4749
G1 X90.996 Y72.384 E2.54791
G1 X91.048 Y72.212 E2.56225
G1 X91.334 Y71.37 E2.63324
G1 X91.398 Y71.204 E2.64744
G1 X91.739 Y70.401 E2.71708
G1 X91.82 Y70.226 E2.73247
G1 X92.235 Y69.418 E2.80498
G1 X92.302 Y69.301 E2.81574
G1 X92.776 Y68.522 E2.88853
G1 X92.876 Y68.371 E2.90299
G1 X93.387 Y67.657 E2.97307
G1 X93.5 Y67.509 E2.98794
G1 X94.076 Y66.818 E3.05975
G1 X94.177 Y66.705 E3.07185
G1 X94.802 Y66.056 E3.14377
G1 X94.927 Y65.936 E3.1576
G1 X95.598 Y65.333 E3.22961
G1 X95.714 Y65.237 E3.24163
G1 X96.426 Y64.687 E3.31345
G1 X96.585 Y64.574 E3.32902
G1 X97.323 Y64.084 E3.39973
G1 X97.449 Y64.008 E3.41148
G1 X98.243 Y63.562 E3.48417
G1 X98.393 Y63.484 E3.49767
G1 X99.208 Y63.101 E3.56955
G1 X99.351 Y63.041 E3.58193
G1 X100.21 Y62.712 E3.65536
G1 X100.36 Y62.66 E3.66803
G1 X101.21 Y62.405 E3.73887
G1 X101.383 Y62.358 E3.75318
G1 X102.278 Y62.158 E3.82638
G1 X102.408 Y62.135 E3.83692
G1 X103.313 Y62.001 E3.90995
G1 X103.482 Y61.983 E3.92352
G1 X104.371 Y61.917 E3.99468
G1 X104.555 Y61.908 E4.00938
G1 X105.06 Y61.9 E4.0497
G1 X130.003 Y61.901 E6.04076
G1 X131.004 Y61.937 E6.12071
G1 X131.127 Y61.946 E6.13056
G1 X132.044 Y62.048 E6.20421
G1 X132.219 Y62.073 E6.21832
G1 X133.108 Y62.237 E6.29048
G1 X133.231 Y62.265 E6.30055
G1 X134.125 Y62.499 E6.37432
G1 X134.288 Y62.548 E6.3879
G1 X135.13 Y62.834 E6.45889
G1 X135.296 Y62.898 E6.47309
G1 X136.099 Y63.239 E6.54273
G1 X136.288 Y63.327 E6.55937
G1 X137.082 Y63.735 E6.63063
G1 X137.199 Y63.802 E6.64139
G1 X137.978 Y64.276 E6.71418
G1 X138.129 Y64.376 E6.72864
G1 X138.843 Y64.887 E6.79872
G1 X138.991 Y65 E6.81359
G1 X139.682 Y65.576 E6.8854
G1 X139.795 Y65.677 E6.89749
G1 X140.444 Y66.302 E6.96942
G1 X140.564 Y66.427 E6.98325
G1 X141.167 Y67.098 E7.05526
G1 X141.263 Y67.214 E7.06728
G1 X141.822 Y67.938 E7.14029
G1 X141.916 Y68.069 E7.15317
G1 X142.416 Y68.823 E7.22538
G1 X142.492 Y68.949 E7.23713
G1 X142.938 Y69.743 E7.30982
G1 X143.016 Y69.893 E7.32332
G1 X143.399 Y70.708 E7.3952
G1 X143.459 Y70.851 E7.40758
G1 X143.788 Y71.71 E7.48101
G1 X143.84 Y71.86 E7.49368
G1 X144.095 Y72.71 E7.56452
G1 X144.142 Y72.883 E7.57883
G1 X144.34 Y73.769 E7.6513
G1 X144.365 Y73.908 E7.66257
G1 X144.499 Y74.817 E7.73592
G1 X144.573 Y75.476 E7.78885
G1 X144.585 Y75.475 E7.78981
G1 X144.75 Y76.14 E7.8445
G1 X144.999 Y76.776 E7.89903
G1 X145.325 Y77.375 E7.95346
G1 X145.724 Y77.929 E8.00796
G1 X146.19 Y78.428 E8.06246
G1 X146.715 Y78.865 E8.11699
G1 X147.292 Y79.231 E8.17153
G1 X147.91 Y79.522 E8.22606
G1 X148.559 Y79.732 E8.28051
G1 X149.229 Y79.86 E8.33496
G1 X149.884 Y79.9 E8.38734
G1 X162.003 Y79.901 E9.35473
G1 X163.004 Y79.937 E9.43469
G1 X163.127 Y79.946 E9.44453
G1 X164.044 Y80.048 E9.51818
G1 X164.219 Y80.073 E9.53229
G1 X165.108 Y80.237 E9.60445
G1 X165.231 Y80.265 E9.61452
G1 X166.125 Y80.499 E9.68829
G1 X166.288 Y80.548 E9.70188
G1 X167.13 Y80.834 E9.77286
G1 X167.296 Y80.898 E9.78706
G1 X168.099 Y81.239 E9.8567
G1 X168.288 Y81.327 E9.87334
G1 X169.082 Y81.735 E9.9446
G1 X169.199 Y81.802 E9.95536
G1 X169.978 Y82.276 E10.02815
G1 X170.129 Y82.376 E10.04261
G1 X170.843 Y82.887 E10.1127
G1 X170.991 Y83 E10.12756
G1 X171.682 Y83.576 E10.19937
G1 X171.795 Y83.677 E10.21147
G1 X172.444 Y84.302 E10.28339
G1 X172.564 Y84.427 E10.29722
G1 X173.167 Y85.098 E10.36924
G1 X173.263 Y85.214 E10.38126
G1 X173.822 Y85.938 E10.45427
G1 X173.916 Y86.069 E10.46714
G1 X174.416 Y86.823 E10.53936
G1 X174.492 Y86.949 E10.55111
G1 X174.938 Y87.743 E10.6238
G1 X175.016 Y87.893 E10.6373
G1 X175.399 Y88.708 E10.70918
G1 X175.459 Y88.851 E10.72156
G1 X175.788 Y89.71 E10.79498
G1 X175.84 Y89.86 E10.80766
G1 X176.095 Y90.71 E10.87849
G1 X176.142 Y90.883 E10.8928
G1 X176.34 Y91.769 E10.96527
G1 X176.365 Y91.908 E10.97655
G1 X176.498 Y92.807 E11.04909
G1 X176.516 Y92.969 E11.0621
G1 X176.583 Y93.871 E11.1343
G1 X176.592 Y94.055 E11.14901
G1 X176.6 Y94.556 E11.189
G1 X176.6 Y104.486 E11.98166
G1 X176.564 Y105.492 E12.06201
G1 X176.554 Y105.627 E12.07282
G1 X176.454 Y106.53 E12.14534
G1 X176.428 Y106.708 E12.1597
G1 X176.276 Y107.529 E12.22635
G1 X176.197 Y108.194 E12.27981
G1 X176.201 Y108.88 E12.33457
G1 X176.318 Y109.669 E12.39824
G1 X176.336 Y109.749 E12.40478
G1 X176.365 Y109.908 E12.41768
G1 X176.498 Y110.807 E12.49023
G1 X176.516 Y110.969 E12.50324
G1 X176.583 Y111.871 E12.57544
G1 X176.592 Y112.055 E12.59014
G1 X176.6 Y112.556 E12.63014
G1 X176.6 Y122.486 E13.4228
G1 X176.564 Y123.492 E13.50315
G1 X176.554 Y123.627 E13.51396
G1 X176.454 Y124.53 E13.58648
G1 X176.428 Y124.708 E13.60084
G1 X176.276 Y125.529 E13.66749
G1 X176.197 Y126.194 E13.72094
G1 X176.201 Y126.88 E13.77571
G1 X176.318 Y127.669 E13.83938
G1 X176.336 Y127.749 E13.84592
G1 X176.365 Y127.908 E13.85882
G1 X176.498 Y128.807 E13.93137
G1 X176.516 Y128.969 E13.94438
G1 X176.583 Y129.871 E14.01658
G1 X176.592 Y130.055 E14.03128
G1 X176.6 Y130.556 E14.07128
G1 X176.6 Y140.486 E14.86393
G1 X176.564 Y141.492 E14.94429
G1 X176.554 Y141.627 E14.95509
G1 X176.452 Y142.544 E15.02875
G1 X176.427 Y142.719 E15.04286
G1 X176.265 Y143.597 E15.11413
G1 X176.235 Y143.731 E15.12509
G1 X176.004 Y144.616 E15.1981
G1 X175.952 Y144.788 E15.21244
G1 X175.666 Y145.63 E15.28342
G1 X175.602 Y145.796 E15.29763
G1 X175.261 Y146.599 E15.36727
G1 X175.18 Y146.774 E15.38266
G1 X174.765 Y147.582 E15.45517
G1 X174.698 Y147.699 E15.46593
G1 X174.224 Y148.478 E15.53872
G1 X174.124 Y148.629 E15.55318
G1 X173.613 Y149.343 E15.62326
G1 X173.5 Y149.491 E15.63813
G1 X172.924 Y150.182 E15.70994
G1 X172.823 Y150.295 E15.72203
G1 X172.198 Y150.944 E15.79396
G1 X172.073 Y151.064 E15.80779
G1 X171.403 Y151.666 E15.87969
G1 X171.286 Y151.763 E15.89182
G1 X170.574 Y152.313 E15.96364
G1 X170.415 Y152.426 E15.97921
G1 X169.677 Y152.916 E16.04992
G1 X169.551 Y152.992 E16.06167
G1 X168.757 Y153.438 E16.13436
G1 X168.606 Y153.516 E16.14793
G1 X167.792 Y153.899 E16.21974
G1 X167.649 Y153.959 E16.23212
G1 X166.79 Y154.288 E16.30554
G1 X166.64 Y154.34 E16.31822
G1 X165.79 Y154.595 E16.38905
G1 X165.617 Y154.642 E16.40336
G1 X164.722 Y154.842 E16.47657
G1 X164.592 Y154.865 E16.48711
G1 X163.687 Y154.999 E16.56014
G1 X163.519 Y155.017 E16.57362
G1 X162.629 Y155.083 E16.64486
G1 X162.445 Y155.092 E16.65957
G1 X161.94 Y155.1 E16.69988
G1 X149.878 Y155.1 E17.66273
G1 X149.21 Y155.142 E17.71615
G1 X148.539 Y155.271 E17.7707
G1 X147.89 Y155.484 E17.82522
G1 X147.273 Y155.776 E17.87971
G1 X146.698 Y156.144 E17.9342
G1 X146.174 Y156.582 E17.98872
G1 X145.71 Y157.082 E18.04317
G1 X145.311 Y157.638 E18.0978
G1 X144.987 Y158.238 E18.15223
G1 X144.741 Y158.874 E18.20666
G1 X144.578 Y159.532 E18.26078
G1 X144.524 Y159.898 E18.29031
G1 X144.451 Y160.552 E18.34284
G1 X144.427 Y160.719 E18.3563
G1 X144.265 Y161.597 E18.42757
G1 X144.235 Y161.731 E18.43853
G1 X144.004 Y162.616 E18.51155
G1 X143.952 Y162.788 E18.52589
G1 X143.676 Y163.6 E18.59435
G1 X143.596 Y163.809 E18.61221
G1 X143.261 Y164.599 E18.68071
G1 X143.18 Y164.774 E18.6961
G1 X142.765 Y165.582 E18.76861
G1 X142.698 Y165.699 E18.77937
G1 X142.224 Y166.478 E18.85216
G1 X142.124 Y166.629 E18.86662
G1 X141.613 Y167.343 E18.93671
G1 X141.5 Y167.491 E18.95157
G1 X140.924 Y168.182 E19.02338
G1 X140.823 Y168.295 E19.03548
G1 X140.198 Y168.944 E19.1074
G1 X140.073 Y169.064 E19.12123
G1 X139.403 Y169.666 E19.19313
G1 X139.286 Y169.763 E19.20526
G1 X138.574 Y170.313 E19.27708
G1 X138.415 Y170.426 E19.29265
G1 X137.677 Y170.916 E19.36336
G1 X137.551 Y170.992 E19.37511
G1 X136.757 Y171.438 E19.44781
G1 X136.606 Y171.516 E19.46137
G1 X135.792 Y171.899 E19.53318
G1 X135.649 Y171.959 E19.54556
G1 X134.79 Y172.288 E19.61899
G1 X134.64 Y172.34 E19.63166
G1 X133.79 Y172.595 E19.7025
G1 X133.617 Y172.642 E19.71681
G1 X132.722 Y172.842 E19.79001
G1 X132.592 Y172.865 E19.80055
G1 X131.687 Y172.999 E19.87358
G1 X131.519 Y173.017 E19.88707
G1 X130.629 Y173.083 E19.95831
G1 X130.445 Y173.092 E19.97301
G1 X129.94 Y173.1 E20.01333
G1 X104.997 Y173.099 E22.00439
G1 X103.996 Y173.063 E22.08434
G1 X103.873 Y173.054 E22.09419
G1 X102.956 Y172.952 E22.16784
G1 X102.765 Y172.924 E22.18325
G1 X102.483 Y172.872 E22.20614
G1 X101.818 Y172.793 E22.25959
G1 X101.132 Y172.799 E22.31435
G1 X101.132 Y172.786 E22.31539
G1 X99.688 Y172.999 E22.43191
G1 X99.519 Y173.017 E22.44547
G1 X98.629 Y173.083 E22.51671
G1 X98.445 Y173.092 E22.53142
G1 X97.94 Y173.1 E22.57173
G1 X72.997 Y173.099 E24.56279
G1 X71.996 Y173.063 E24.64275
G1 X71.873 Y173.054 E24.65259
G1 X70.956 Y172.952 E24.72624
G1 X70.781 Y172.927 E24.74035
G1 X69.892 Y172.763 E24.81251
G1 X69.769 Y172.735 E24.82258
G1 X68.875 Y172.501 E24.89635
G1 X68.712 Y172.452 E24.90994
G1 X67.87 Y172.166 E24.98092
G1 X67.704 Y172.102 E24.99512
G1 X66.901 Y171.761 E25.06476
G1 X66.712 Y171.673 E25.0814
G1 X65.918 Y171.265 E25.15266
G1 X65.801 Y171.198 E25.16342
G1 X65.022 Y170.724 E25.23621
G1 X64.871 Y170.624 E25.25067
G1 X64.157 Y170.113 E25.32076
G1 X64.009 Y170 E25.33562
G1 X63.318 Y169.424 E25.40743
G1 X63.205 Y169.323 E25.41953
G1 X62.556 Y168.698 E25.49145
G1 X62.436 Y168.573 E25.50528
G1 X61.833 Y167.902 E25.5773
G1 X61.736 Y167.784 E25.58949
G1 X61.178 Y167.062 E25.66233
G1 X61.074 Y166.915 E25.6767
G1 X60.581 Y166.172 E25.74788
G1 X60.508 Y166.051 E25.75916
G1 X60.056 Y165.246 E25.83286
G1 X59.984 Y165.107 E25.84535
G1 X59.587 Y164.261 E25.91995
G1 X59.541 Y164.149 E25.92961
G1 X59.212 Y163.29 E26.00304
G1 X59.155 Y163.125 E26.01697
G1 X58.905 Y162.29 E26.08655
G1 X58.858 Y162.117 E26.10086
G1 X58.657 Y161.216 E26.17455
G1 X58.635 Y161.092 E26.1846
G1 X58.5 Y160.178 E26.25835
G1 X58.483 Y160.018 E26.2712
G1 X58.417 Y159.126 E26.3426
G1 X58.408 Y158.945 E26.35706
G1 X58.4 Y158.444 E26.39706
G1 X58.4 Y148.515 E27.18964
G1 X58.437 Y147.497 E27.27095
G1 X58.446 Y147.373 E27.28087
G1 X58.546 Y146.47 E27.3534
G1 X58.572 Y146.292 E27.36776
G1 X58.724 Y145.471 E27.43441
G1 X58.803 Y144.806 E27.48786
G1 X58.799 Y144.12 E27.54262
G1 X58.682 Y143.331 E27.60629
G1 X58.664 Y143.25 E27.61292
G1 X58.633 Y143.079 E27.62679
G1 X58.5 Y142.178 E27.69949
G1 X58.483 Y142.018 E27.71233
G1 X58.417 Y141.126 E27.78373
G1 X58.408 Y140.945 E27.7982
G1 X58.4 Y140.444 E27.83819
G1 X58.4 Y130.514 E28.63085
G1 X58.436 Y129.508 E28.7112
G1 X58.446 Y129.373 E28.72201
G1 X58.546 Y128.47 E28.79453
G1 X58.572 Y128.292 E28.80889
G1 X58.724 Y127.471 E28.87554
G1 X58.803 Y126.806 E28.929
G1 X58.799 Y126.12 E28.98376
G1 X58.682 Y125.331 E29.04743
G1 X58.664 Y125.25 E29.05405
G1 X58.633 Y125.079 E29.06792
G1 X58.5 Y124.178 E29.14063
G1 X58.483 Y124.018 E29.15347
G1 X58.417 Y123.126 E29.22487
G1 X58.408 Y122.945 E29.23933
G1 X58.4 Y122.444 E29.27933
G1 X58.4 Y112.514 E30.07199
G1 X58.436 Y111.508 E30.15234
G1 X58.446 Y111.373 E30.16315
G1 X58.546 Y110.47 E30.23567
G1 X58.572 Y110.292 E30.25003
G1 X58.724 Y109.471 E30.31668
G1 X58.803 Y108.806 E30.37013
G1 X58.799 Y108.12 E30.42489
G1 X58.682 Y107.331 E30.48856
G1 X58.664 Y107.25 E30.49519
G1 X58.633 Y107.079 E30.50906
G1 X58.5 Y106.178 E30.58176
G1 X58.483 Y106.018 E30.5946
G1 X58.417 Y105.126 E30.666
G1 X58.408 Y104.945 E30.68047
G1 X58.4 Y104.444 E30.72047
G1 X58.4 Y94.514 E31.51312
G1 X58.436 Y93.508 E31.59348
G1 X58.446 Y93.373 E31.60428
G1 X58.548 Y92.456 E31.67793
G1 X58.573 Y92.281 E31.69204
G1 X58.735 Y91.403 E31.76331
G1 X58.765 Y91.269 E31.77427
G1 X58.996 Y90.384 E31.84728
G1 X59.048 Y90.212 E31.86163
G1 X59.334 Y89.37 E31.93261
G1 X59.398 Y89.204 E31.94681
G1 X59.739 Y88.401 E32.01645
G1 X59.82 Y88.226 E32.03185
G1 X60.235 Y87.418 E32.10435
G1 X60.302 Y87.301 E32.11512
G1 X60.776 Y86.522 E32.18791
G1 X60.876 Y86.371 E32.20236
G1 X61.387 Y85.657 E32.27245
G1 X61.5 Y85.509 E32.28731
G1 X62.076 Y84.818 E32.35912
G1 X62.177 Y84.705 E32.37122
G1 X62.802 Y84.056 E32.44314
G1 X62.927 Y83.936 E32.45698
G1 X63.598 Y83.333 E32.52899
G1 X63.714 Y83.237 E32.54101
G1 X64.426 Y82.687 E32.61282
G0 F9000 X64 Y83.016
G1 F1125 X64 Y169.992 E39.55562
G0 F9000 X65.6 Y171.075
G1 F1125 X65.6 Y81.923 E46.67212
G0 F9000 X67.2 Y81.104
G1 F1125 X67.2 Y171.887 E53.91881
G0 F9000 X68.8 Y172.478
G1 F1125 X68.8 Y80.528 E61.25866
G0 F9000 X70.4 Y80.136
G1 F1125 X70.4 Y172.856 E68.65997
G0 F9000 X72 Y173.063
G1 F1125 X72 Y79.944 E76.09313
G0 F9000 X73.6 Y79.9
G1 F1125 X73.6 Y173.099 E83.53268
G0 F9000 X75.2 Y173.099
G1 F1125 X75.2 Y79.9 E90.97223
G0 F9000 X76.8 Y79.9
G1 F1125 X76.8 Y173.099 E98.41178
G0 F9000 X78.4 Y173.099
G1 F1125 X78.4 Y79.9 E105.85132
G0 F9000 X80 Y79.9
G1 F1125 X80 Y173.099 E113.29087
G0 F9000 X81.6 Y173.099
G1 F1125 X81.6 Y79.9 E120.73042
G0 F9000 X83.2 Y79.9
G1 F1125 X83.2 Y173.099 E128.16996
G0 F9000 X84.8 Y173.099
G1 F1125 X84.8 Y79.9 E135.60951
G0 F9000 X86.4 Y79.74
G1 F1125 X86.4 Y173.099 E143.06183
G0 F9000 X88 Y173.099
G1 F1125 X88 Y79.049 E150.56931
G0 F9000 X89.6 Y77.486
G1 F1125 X89.6 Y173.099 E158.20155
G0 F9000 X91.2 Y173.099
G1 F1125 X91.2 Y71.764 E166.29055
G0 F9000 X92.8 Y68.485
G1 F1125 X92.8 Y173.099 E174.64129
G0 F9000 X94.4 Y173.099
G1 F1125 X94.4 Y66.473 E183.15264
G0 F9000 X96 Y65.016
G1 F1125 X96 Y173.099 E191.78029
G0 F9000 X97.6 Y173.099
G1 F1125 X97.6 Y63.923 E200.49519
G0 F9000 X99.2 Y63.104
G1 F1125 X99.2 Y173.041 E209.27084
G0 F9000 X100.8 Y172.835
G1 F1125 X100.8 Y62.528 E218.07602
G0 F9000 X102.4 Y62.136
G1 F1125 X102.4 Y172.862 E226.91465
G0 F9000 X104 Y173.063
G1 F1125 X104 Y61.944 E235.78465
G0 F9000 X105.6 Y61.901
G1 F1125 X105.6 Y173.099 E244.66095
G0 F9000 X107.2 Y173.099
G1 F1125 X107.2 Y61.901 E253.53726
G0 F9000 X108.8 Y61.901
G1 F1125 X108.8 Y173.099 E262.41356
G0 F9000 X110.4 Y173.099
G1 F1125 X110.4 Y61.901 E271.28987
G0 F9000 X112 Y61.901
G1 F1125 X112 Y173.099 E280.16617
G0 F9000 X113.6 Y173.099
G1 F1125 X113.6 Y61.901 E289.04248
G0 F9000 X115.2 Y61.901
G1 F1125 X115.2 Y173.099 E297.91878
G0 F9000 X116.8 Y173.099
G1 F1125 X116.8 Y61.901 E306.79509
G0 F9000 X118.4 Y61.901
G1 F1125 X118.4 Y173.099 E315.67139
G0 F9000 X120 Y173.099
G1 F1125 X120 Y61.901 E324.5477
G0 F9000 X121.6 Y61.901
G1 F1125 X121.6 Y173.099 E333.424
G0 F9000 X123.2 Y173.099
G1 F1125 X123.2 Y61.901 E342.30031
G0 F9000 X124.8 Y61.901
G1 F1125 X124.8 Y173.099 E351.17662
G0 F9000 X126.4 Y173.099
G1 F1125 X126.4 Y61.901 E360.05292
G0 F9000 X128 Y61.901
G1 F1125 X128 Y173.099 E368.92923
G0 F9000 X129.6 Y173.099
G1 F1125 X129.6 Y61.901 E377.80553
G0 F9000 X131.2 Y61.955
