;FLAVOR:Marlin
;TIME:1376
;Filament used: 1.10787m
;Layer height: 0.2
;MINX:89.336
;MINY:96.835
;MINZ:0.24
;MAXX:145.665
;MAXY:138.055
;MAXZ:9.09
;Generated with Cura_SteamEngine master
M140 S50
M105
M190 S50
M104 S200
M105
M109 S200
M82 ;absolute extrusion mode
; Ender 3 Custom Start G-code
G92 E0 ; Reset Extruder
G28 ; Home all axes
G1 Z2.0 F3000 ; Move Z Axis up little to prevent scratching of Heat Bed
G1 X0.1 Y20 Z0.3 F5000.0 ; Move to start position
G1 X0.1 Y200.0 Z0.3 F1500.0 E15 ; Draw the first line
G1 X0.4 Y200.0 Z0.3 F5000.0 ; Move to side a little
G1 X0.4 Y20 Z0.3 F1500.0 E30 ; Draw the second line
G92 E0 ; Reset Extruder
G1 Z2.0 F3000 ; Move Z Axis up little to prevent scratching of Heat Bed
G1 X5 Y20 Z0.3 F5000.0 ; Move over to prevent blob squish
G92 E0
G92 E0
G1 F2700 E-5
;LAYER_COUNT:40
;LAYER:-6
M107
G0 F9000 X94.927 Y101.936 Z0.24
;TYPE:SUPPORT-INTERFACE
G1 F2700 E0
G1 F1125 X95.598 Y101.333 E0.07201
G1 X95.714 Y101.237 E0.08403
G1 X96.426 Y100.687 E0.15585
G1 X96.585 Y100.574 E0.17142
G1 X97.323 Y100.084 E0.24213
G1 X97.449 Y100.008 E0.25388
G1 X98.243 Y99.562 E0.32657
G1 X98.393 Y99.484 E0.34007
G1 X99.208 Y99.101 E0.41195
G1 X99.351 Y99.041 E0.42433
G1 X100.21 Y98.712 E0.49776
G1 X100.36 Y98.66 E0.51043
G1 X101.21 Y98.405 E0.58127
G1 X101.383 Y98.358 E0.59558
G1 X102.278 Y98.158 E0.66878
G1 X102.408 Y98.135 E0.67932
G1 X103.313 Y98.001 E0.75235
G1 X103.482 Y97.983 E0.76592
G1 X104.371 Y97.917 E0.83708
G1 X104.555 Y97.908 E0.85178
G1 X105.06 Y97.9 E0.8921
G1 X130.003 Y97.901 E2.88316
G1 X131.004 Y97.937 E2.96311
G1 X131.127 Y97.946 E2.97296
G1 X132.044 Y98.048 E3.04661
G1 X132.219 Y98.073 E3.06072
G1 X133.108 Y98.237 E3.13288
G1 X133.231 Y98.265 E3.14295
G1 X134.125 Y98.499 E3.21672
G1 X134.288 Y98.548 E3.2303
G1 X135.13 Y98.834 E3.30129
G1 X135.296 Y98.898 E3.31549
G1 X136.099 Y99.239 E3.38513
G1 X136.288 Y99.327 E3.40177
G1 X137.082 Y99.735 E3.47303
G1 X137.199 Y99.802 E3.48379
G1 X137.978 Y100.276 E3.55658
G1 X138.129 Y100.376 E3.57104
G1 X138.843 Y100.887 E3.64112
G1 X138.991 Y101 E3.65599
G1 X139.682 Y101.576 E3.7278
G1 X139.795 Y101.677 E3.73989
G1 X140.444 Y102.302 E3.81182
G1 X140.564 Y102.427 E3.82565
G1 X141.167 Y103.098 E3.89766
G1 X141.263 Y103.214 E3.90968
G1 X141.822 Y103.938 E3.98269
G1 X141.916 Y104.069 E3.99557
G1 X142.416 Y104.823 E4.06778
G1 X142.492 Y104.949 E4.07953
G1 X142.938 Y105.743 E4.15222
G1 X143.016 Y105.893 E4.16572
G1 X143.399 Y106.708 E4.2376
G1 X143.459 Y106.851 E4.24998
G1 X143.788 Y107.71 E4.32341
G1 X143.84 Y107.86 E4.33608
G1 X144.095 Y108.71 E4.40692
G1 X144.142 Y108.883 E4.42123
G1 X144.34 Y109.769 E4.4937
G1 X144.365 Y109.908 E4.50497
G1 X144.498 Y110.807 E4.57751
G1 X144.516 Y110.969 E4.59053
G1 X144.583 Y111.871 E4.66273
G1 X144.592 Y112.055 E4.67743
G1 X144.6 Y112.556 E4.71743
G1 X144.6 Y122.486 E5.51008
G1 X144.564 Y123.492 E5.59044
G1 X144.554 Y123.627 E5.60124
G1 X144.452 Y124.544 E5.67489
G1 X144.427 Y124.719 E5.68901
G1 X144.265 Y125.597 E5.76027
G1 X144.235 Y125.731 E5.77124
G1 X144.004 Y126.616 E5.84425
G1 X143.952 Y126.788 E5.85859
G1 X143.676 Y127.6 E5.92705
G1 X143.596 Y127.809 E5.94491
G1 X143.261 Y128.599 E6.01341
G1 X143.18 Y128.774 E6.0288
G1 X142.765 Y129.582 E6.10131
G1 X142.698 Y129.699 E6.11207
G1 X142.224 Y130.478 E6.18486
G1 X142.124 Y130.629 E6.19932
G1 X141.613 Y131.343 E6.26941
G1 X141.5 Y131.491 E6.28427
G1 X140.924 Y132.182 E6.35608
G1 X140.823 Y132.295 E6.36818
G1 X140.198 Y132.944 E6.4401
G1 X140.073 Y133.064 E6.45393
G1 X139.403 Y133.666 E6.52583
G1 X139.286 Y133.763 E6.53796
G1 X138.574 Y134.313 E6.60978
G1 X138.415 Y134.426 E6.62535
G1 X137.677 Y134.916 E6.69607
G1 X137.551 Y134.992 E6.70781
G1 X136.757 Y135.438 E6.78051
G1 X136.606 Y135.516 E6.79407
G1 X135.792 Y135.899 E6.86588
G1 X135.649 Y135.959 E6.87826
G1 X134.79 Y136.288 E6.95169
G1 X134.64 Y136.34 E6.96436
G1 X133.79 Y136.595 E7.0352
G1 X133.617 Y136.642 E7.04951
G1 X132.722 Y136.842 E7.12271
G1 X132.592 Y136.865 E7.13325
G1 X131.687 Y136.999 E7.20628
G1 X131.519 Y137.017 E7.21977
G1 X130.629 Y137.083 E7.29101
G1 X130.445 Y137.092 E7.30571
G1 X129.94 Y137.1 E7.34603
G1 X104.997 Y137.099 E9.33709
G1 X103.996 Y137.063 E9.41704
G1 X103.873 Y137.054 E9.42689
G1 X102.956 Y136.952 E9.50054
G1 X102.781 Y136.927 E9.51465
G1 X101.892 Y136.763 E9.58681
G1 X101.769 Y136.735 E9.59688
G1 X100.875 Y136.501 E9.67065
G1 X100.712 Y136.452 E9.68423
G1 X99.87 Y136.166 E9.75522
G1 X99.704 Y136.102 E9.76942
G1 X98.901 Y135.761 E9.83906
G1 X98.712 Y135.673 E9.8557
G1 X97.918 Y135.265 E9.92696
G1 X97.801 Y135.198 E9.93772
G1 X97.022 Y134.724 E10.01051
G1 X96.871 Y134.624 E10.02497
G1 X96.157 Y134.113 E10.09505
G1 X96.009 Y134 E10.10992
G1 X95.318 Y133.424 E10.18173
G1 X95.205 Y133.323 E10.19383
G1 X94.556 Y132.698 E10.26575
G1 X94.436 Y132.573 E10.27958
G1 X93.833 Y131.902 E10.35159
G1 X93.736 Y131.784 E10.36379
G1 X93.178 Y131.062 E10.43662
G1 X93.074 Y130.915 E10.451
G1 X92.581 Y130.172 E10.52218
G1 X92.508 Y130.051 E10.53346
G1 X92.056 Y129.246 E10.60715
G1 X91.984 Y129.107 E10.61965
G1 X91.587 Y128.261 E10.69425
G1 X91.541 Y128.149 E10.70391
G1 X91.212 Y127.29 E10.77734
G1 X91.155 Y127.125 E10.79127
G1 X90.905 Y126.29 E10.86085
G1 X90.858 Y126.117 E10.87516
G1 X90.657 Y125.216 E10.94885
G1 X90.635 Y125.092 E10.9589
G1 X90.5 Y124.178 E11.03265
G1 X90.483 Y124.018 E11.0455
G1 X90.417 Y123.126 E11.11689
G1 X90.408 Y122.945 E11.13136
G1 X90.4 Y122.444 E11.17136
G1 X90.4 Y112.514 E11.96401
G1 X90.436 Y111.508 E12.04437
G1 X90.446 Y111.373 E12.05517
G1 X90.548 Y110.456 E12.12882
G1 X90.573 Y110.281 E12.14293
G1 X90.735 Y109.403 E12.2142
G1 X90.765 Y109.269 E12.22516
G1 X90.996 Y108.384 E12.29818
G1 X91.048 Y108.212 E12.31252
G1 X91.334 Y107.37 E12.3835
G1 X91.398 Y107.204 E12.3977
G1 X91.739 Y106.401 E12.46734
G1 X91.82 Y106.226 E12.48274
G1 X92.235 Y105.418 E12.55524
G1 X92.302 Y105.301 E12.56601
G1 X92.776 Y104.522 E12.6388
G1 X92.876 Y104.371 E12.65325
G1 X93.387 Y103.657 E12.72334
G1 X93.5 Y103.509 E12.7382
G1 X94.076 Y102.818 E12.81001
G1 X94.177 Y102.705 E12.82211
G1 X94.802 Y102.056 E12.89403
G1 X94.927 Y101.936 E12.90787
G0 F9000 X94.4 Y102.473
G1 F1125 X94.4 Y132.532 E15.30731
G0 F9000 X96 Y133.992
G1 F1125 X96 Y101.016 E17.93959
G0 F9000 X97.6 Y99.923
G1 F1125 X97.6 Y135.075 E20.74558
G0 F9000 X99.2 Y135.887
G1 F1125 X99.2 Y99.104 E23.68176
G0 F9000 X100.8 Y98.528
G1 F1125 X100.8 Y136.478 E26.71109
G0 F9000 X102.4 Y136.856
G1 F1125 X102.4 Y98.136 E29.80189
G0 F9000 X104 Y97.944
G1 F1125 X104 Y137.063 E32.92453
G0 F9000 X105.6 Y137.099
G1 F1125 X105.6 Y97.901 E36.05349
G0 F9000 X107.2 Y97.901
G1 F1125 X107.2 Y137.099 E39.18244
G0 F9000 X108.8 Y137.099
G1 F1125 X108.8 Y97.901 E42.3114
G0 F9000 X110.4 Y97.901
G1 F1125 X110.4 Y137.099 E45.44035
G0 F9000 X112 Y137.099
G1 F1125 X112 Y97.901 E48.5693
G0 F9000 X113.6 Y97.901
G1 F1125 X113.6 Y137.099 E51.69826
G0 F9000 X115.2 Y137.099
G1 F1125 X115.2 Y97.901 E54.82721
G0 F9000 X116.8 Y97.901
G1 F1125 X116.8 Y137.099 E57.95616
G0 F9000 X118.4 Y137.099
G1 F1125 X118.4 Y97.901 E61.08512
G0 F9000 X120 Y97.901
G1 F1125 X120 Y137.099 E64.21407
G0 F9000 X121.6 Y137.099
G1 F1125 X121.6 Y97.901 E67.34303
G0 F9000 X123.2 Y97.901
G1 F1125 X123.2 Y137.099 E70.47198
G0 F9000 X124.8 Y137.099
G1 F1125 X124.8 Y97.901 E73.60093
G0 F9000 X126.4 Y97.901
G1 F1125 X126.4 Y137.099 E76.72989
G0 F9000 X128 Y137.099
G1 F1125 X128 Y97.901 E79.85884
G0 F9000 X129.6 Y97.901
G1 F1125 X129.6 Y137.099 E82.9878
G0 F9000 X131.2 Y137.041
G1 F1125 X131.2 Y97.955 E86.10781
G0 F9000 X132.8 Y98.181
G1 F1125 X132.8 Y136.825 E89.19254
G0 F9000 X134.4 Y136.412
G1 F1125 X134.4 Y98.587 E92.2119
G0 F9000 X136 Y99.197
G1 F1125 X136 Y135.802 E95.13386
G0 F9000 X137.6 Y134.963
G1 F1125 X137.6 Y100.046 E97.92109
G0 F9000 X139.2 Y101.175
G1 F1125 X139.2 Y133.83 E100.52775
G0 F9000 X140.8 Y132.319
G1 F1125 X140.8 Y102.69 E102.89287
G0 F9000 X142.4 Y104.799
G1 F1125 X142.4 Y130.189 E104.91961
G0 F9000 X144 Y126.63
G1 F1125 X144 Y108.394 E106.37528
G1 F2700 E101.37528
G0 F9000 X145.019 Y108.088
G0 X144.375 Y106.283
G0 X143.415 Y104.418
G0 X142.673 Y103.298
G0 X141.34 Y101.698
G0 X140.383 Y100.775
G0 X138.739 Y99.504
G0 X137.58 Y98.795
G0 X135.7 Y97.913
G0 X134.41 Y97.473
G0 X132.383 Y97.021
G0 X131.057 Y96.874
G0 X104.31 Y96.854
G0 X102.242 Y97.083
G0 X100.927 Y97.379
G0 X98.961 Y98.05
G0 X97.743 Y98.622
G0 X95.977 Y99.701
G0 X94.897 Y100.532
G0 X93.392 Y101.986
G0 X93.15 Y102.278
G0 X92.004 Y103.761
G0 X92.8 Y104.485
G1 F2700 E106.37528
G1 F1125 X92.8 Y130.502 E108.45207
G0 F9000 X91.2 Y127.255
G1 F1125 X91.2 Y107.764 E110.00793
G1 F2700 E105.00793
G0 F300 X91.2 Y107.764 Z0.54
G0 F9000 X90.036 Y107.88
G0 X89.694 Y109.184
G0 X89.387 Y111.269
G0 X89.336 Y112.489
G0 X89.354 Y123.187
G0 X89.583 Y125.258
G0 X89.879 Y126.573
G0 X90.421 Y128.164
G0 X91.02 Y129.558
G0 X91.983 Y129.105
;TIME_ELAPSED:83.997217
;LAYER:-5
;TYPE:SUPPORT
G1 F2700 E110.00793
G1 F1125 X92.056 Y129.245 E110.02368
G1 X92.507 Y130.049 E110.11567
G1 X92.581 Y130.171 E110.1299
G1 X93.074 Y130.914 E110.21888
G1 X93.177 Y131.061 E110.23679
G1 X93.736 Y131.782 E110.32782
G1 X93.833 Y131.9 E110.34306
G1 X94.436 Y132.571 E110.43308
G1 X94.555 Y132.697 E110.45037
G1 X95.204 Y133.322 E110.54027
G1 X95.317 Y133.423 E110.5554
G1 X96.008 Y133.998 E110.64509
G1 X96.157 Y134.111 E110.66375
G1 X96.87 Y134.623 E110.75134
G1 X97.022 Y134.723 E110.76949
G1 X97.801 Y135.197 E110.86048
G1 X97.918 Y135.264 E110.87393
G1 X98.712 Y135.672 E110.96301
G1 X98.901 Y135.76 E110.98381
G1 X99.056 Y135.826 E111.00062
G1 X91.672 Y128.441 E112.04265
G1 X91.587 Y128.26 E112.0626
G1 X91.541 Y128.148 E112.07468
G1 X91.212 Y127.289 E112.16647
G1 X91.155 Y127.124 E112.18389
G1 X90.905 Y126.289 E112.27086
G1 X90.894 Y126.249 E112.275
G1 X101.24 Y136.595 E113.73493
G1 X101.768 Y136.733 E113.78938
G1 X101.891 Y136.762 E113.80199
G1 X102.781 Y136.926 E113.89229
G1 X102.956 Y136.951 E113.90993
G1 X103.016 Y136.957 E113.91595
G1 X90.545 Y124.486 E115.67574
G1 X90.5 Y124.177 E115.7069
G1 X90.483 Y124.017 E115.72295
G1 X90.417 Y123.124 E115.8123
G1 X90.407 Y122.944 E115.83029
G1 X90.407 Y122.934 E115.83128
G1 X104.554 Y137.081 E117.82758
G1 X104.996 Y137.098 E117.87171
G1 X105.985 Y137.098 E117.9704
G1 X90.4 Y121.512 E120.16968
G1 X90.4 Y120.098 E120.31077
G1 X107.399 Y137.098 E122.70958
G1 X108.813 Y137.098 E122.85067
G1 X90.4 Y118.684 E125.44902
G1 X90.4 Y117.27 E125.59011
G1 X110.228 Y137.098 E128.38805
G1 X111.642 Y137.098 E128.52914
G1 X90.4 Y115.855 E131.52669
G1 X90.4 Y114.441 E131.66778
G1 X113.056 Y137.098 E134.86485
G1 X114.47 Y137.098 E135.00594
G1 X90.4 Y113.027 E138.40255
G1 X90.4 Y112.512 E138.45394
G1 X90.43 Y111.643 E138.5407
G1 X115.884 Y137.098 E142.1326
G1 X117.299 Y137.098 E142.27379
G1 X90.561 Y110.36 E146.04681
G1 X90.573 Y110.28 E146.05488
G1 X90.734 Y109.402 E146.14395
G1 X90.764 Y109.268 E146.15765
G1 X90.788 Y109.173 E146.16743
G1 X118.713 Y137.098 E150.10795
G1 X120.127 Y137.098 E150.24904
G1 X91.096 Y108.067 E154.34563
G1 X91.333 Y107.369 E154.41918
G1 X91.397 Y107.203 E154.43693
G1 X91.472 Y107.028 E154.45593
G1 X121.541 Y137.098 E158.69906
G1 X122.955 Y137.098 E158.84015
G1 X91.909 Y106.051 E163.22115
G1 X92.235 Y105.416 E163.29237
G1 X92.302 Y105.3 E163.30573
G1 X92.404 Y105.131 E163.32543
G1 X124.37 Y137.098 E167.83625
G1 X125.784 Y137.098 E167.97734
G1 X92.95 Y104.264 E172.61057
G1 X93.387 Y103.656 E172.68528
G1 X93.5 Y103.508 E172.70386
G1 X93.549 Y103.449 E172.71151
G1 X127.198 Y137.098 E177.45975
G1 X128.612 Y137.098 E177.60084
G1 X94.197 Y102.682 E182.45724
G1 X94.801 Y102.055 E182.54411
G1 X94.895 Y101.966 E182.55702
G1 X130.026 Y137.097 E187.51439
G1 X130.444 Y137.091 E187.5561
G1 X130.628 Y137.081 E187.57449
G1 X131.369 Y137.026 E187.64863
G1 X95.641 Y101.297 E192.69031
G1 X95.713 Y101.236 E192.69972
G1 X96.426 Y100.685 E192.78963
G1 X96.436 Y100.679 E192.7908
G1 X132.616 Y136.859 E197.89619
G1 X132.721 Y136.841 E197.90682
G1 X133.617 Y136.64 E197.99844
G1 X133.771 Y136.599 E198.01434
G1 X97.282 Y100.11 E203.16333
G1 X97.322 Y100.083 E203.16815
G1 X97.449 Y100.007 E203.18292
G1 X98.181 Y99.595 E203.26673
G1 X134.85 Y136.264 E208.44112
G1 X135.648 Y135.958 E208.5264
G1 X135.792 Y135.898 E208.54197
G1 X135.864 Y135.864 E208.54991
G1 X99.134 Y99.134 E213.73291
G1 X99.207 Y99.101 E213.74091
G1 X99.35 Y99.04 E213.75642
G1 X100.149 Y98.735 E213.84175
G1 X136.817 Y135.403 E219.016
G1 X137.55 Y134.992 E219.09986
G1 X137.676 Y134.915 E219.11459
G1 X137.716 Y134.888 E219.11941
G1 X101.228 Y98.4 E224.26826
G1 X101.382 Y98.358 E224.28418
G1 X102.277 Y98.157 E224.37571
G1 X102.382 Y98.14 E224.38633
G1 X138.562 Y134.319 E229.49164
G1 X138.573 Y134.313 E229.49289
G1 X139.285 Y133.762 E229.58273
G1 X139.358 Y133.701 E229.59222
G1 X103.629 Y97.972 E234.63397
G1 X104.37 Y97.917 E234.70811
G1 X104.554 Y97.907 E234.72649
G1 X104.972 Y97.901 E234.76821
G1 X140.104 Y133.032 E239.72564
G1 X140.197 Y132.943 E239.73848
G1 X140.801 Y132.316 E239.82535
G1 X106.386 Y97.901 E244.68168
G1 X107.8 Y97.901 E244.82277
G1 X141.45 Y131.55 E249.57108
G1 X141.499 Y131.49 E249.57881
G1 X141.612 Y131.343 E249.59731
G1 X142.048 Y130.734 E249.67204
G1 X109.214 Y97.901 E254.3052
G1 X110.628 Y97.901 E254.44629
G1 X142.595 Y129.867 E258.95711
G1 X142.696 Y129.698 E258.97676
G1 X142.764 Y129.582 E258.99017
G1 X143.09 Y128.947 E259.0614
G1 X112.043 Y97.901 E263.44239
G1 X113.457 Y97.901 E263.58348
G1 X143.527 Y127.97 E267.82661
G1 X143.595 Y127.808 E267.84414
G1 X143.675 Y127.6 E267.86638
G1 X143.903 Y126.932 E267.93681
G1 X114.871 Y97.901 E272.03347
G1 X116.285 Y97.901 E272.17456
G1 X144.21 Y125.825 E276.11501
G1 X144.234 Y125.73 E276.12478
G1 X144.264 Y125.597 E276.13839
G1 X144.425 Y124.718 E276.22755
G1 X144.437 Y124.638 E276.23563
G1 X117.7 Y97.901 E280.0085
G1 X119.114 Y97.901 E280.14959
G1 X144.568 Y123.355 E283.74143
G1 X144.599 Y122.486 E283.82819
G1 X144.599 Y121.971 E283.87958
G1 X120.528 Y97.901 E287.27619
G1 X121.942 Y97.901 E287.41728
G1 X144.599 Y120.557 E290.61435
G1 X144.599 Y119.143 E290.75544
G1 X123.356 Y97.901 E293.75299
G1 X124.771 Y97.901 E293.89418
G1 X144.599 Y117.729 E296.69212
G1 X144.599 Y116.314 E296.83331
G1 X126.185 Y97.901 E299.43166
G1 X127.599 Y97.901 E299.57275
G1 X144.599 Y114.9 E301.97156
G1 X144.599 Y113.486 E302.11265
G1 X129.013 Y97.901 E304.31193
G1 X130.002 Y97.901 E304.41061
G1 X130.444 Y97.917 E304.45475
G1 X144.592 Y112.065 E306.45118
G1 X144.591 Y112.054 E306.45228
G1 X144.582 Y111.871 E306.47057
G1 X144.515 Y110.969 E306.56082
G1 X144.497 Y110.806 E306.57718
G1 X144.454 Y110.513 E306.60673
G1 X131.982 Y98.041 E308.36666
G1 X132.042 Y98.048 E308.37269
G1 X132.218 Y98.073 E308.39043
G1 X133.107 Y98.236 E308.48061
G1 X133.23 Y98.265 E308.49322
G1 X133.759 Y98.403 E308.54777
G1 X144.104 Y108.749 E310.00763
G1 X144.094 Y108.71 E310.01165
G1 X143.838 Y107.859 E310.10032
G1 X143.786 Y107.71 E310.11607
G1 X143.457 Y106.85 E310.20794
G1 X143.398 Y106.708 E310.22329
G1 X143.328 Y106.558 E310.2398
G1 X135.943 Y99.173 E311.28191
G1 X136.098 Y99.239 E311.29872
G1 X136.287 Y99.326 E311.31948
G1 X137.081 Y99.734 E311.40855
G1 X137.198 Y99.802 E311.42205
G1 X137.977 Y100.276 E311.51304
G1 X138.128 Y100.375 E311.53106
G1 X138.841 Y100.887 E311.61864
G1 X138.99 Y101 E311.6373
G1 X139.681 Y101.575 E311.727
G1 X139.794 Y101.677 E311.74219
G1 X140.443 Y102.302 E311.83209
G1 X140.562 Y102.427 E311.84931
G1 X141.166 Y103.098 E311.93939
G1 X141.262 Y103.214 E311.95442
G1 X141.821 Y103.937 E312.04561
G1 X141.914 Y104.069 E312.06172
G1 X142.415 Y104.822 E312.15197
G1 X142.491 Y104.949 E312.16673
G1 X142.937 Y105.743 E312.2576
G1 X143.015 Y105.893 E312.27447
G1 F2700 E307.27447
G0 F300 X143.015 Y105.893 Z0.74
G0 F9000 X143.878 Y105.243
G0 X142.796 Y103.472
G0 X141.968 Y102.397
G0 X140.514 Y100.892
G0 X139.481 Y100.034
G0 X137.743 Y98.887
G0 X136.538 Y98.269
G0 X134.985 Y97.676
G0 X133.488 Y97.232
G0 X132.927 Y98
;TIME_ELAPSED:194.288224
;LAYER:-4
;TYPE:SUPPORT-INTERFACE
G1 F2700 E312.27447
G1 F1500 X102.072 Y98 E313.30071
G1 X102.233 Y97.964 E313.3062
G1 X102.386 Y97.936 E313.31137
G1 X103.286 Y97.803 E313.34163
