;FLAVOR:Marlin
;TIME:2286
;Filament used: 1.83667m
;Layer height: 0.2
;MINX:76.836
;MINY:97.023
;MINZ:0.24
;MAXX:158.165
;MAXY:138.164
;MAXZ:9.09
;Generated with Cura_SteamEngine master
M140 S60
M105
M190 S60
M104 S200
M105
M109 S200
M82 ;absolute extrusion mode
; Ender 3 Custom Start G-code
G92 E0 ; Reset Extruder
G28 ; Home all axes
G1 Z2.0 F3000 ; Move Z Axis up little to prevent scratching of Heat Bed
G1 X0.1 Y20 Z0.3 F5000.0 ; Move to start position
G1 X0.1 Y200.0 Z0.3 F1500.0 E15 ; Draw the first line
G1 X0.4 Y200.0 Z0.3 F5000.0 ; Move to side a little
G1 X0.4 Y20 Z0.3 F1500.0 E30 ; Draw the second line
G92 E0 ; Reset Extruder
G1 Z2.0 F3000 ; Move Z Axis up little to prevent scratching of Heat Bed
G1 X5 Y20 Z0.3 F5000.0 ; Move over to prevent blob squish
G92 E0
G92 E0
G1 F2700 E-5
;LAYER_COUNT:40
;LAYER:-6
M107
G0 F9000 X83.214 Y101.237 Z0.24
;TYPE:SUPPORT-INTERFACE
G1 F2700 E0
G1 F1125 X83.926 Y100.687 E0.07182
G1 X84.085 Y100.574 E0.08739
G1 X84.823 Y100.084 E0.1581
G1 X84.949 Y100.008 E0.16985
G1 X85.743 Y99.562 E0.24254
G1 X85.893 Y99.484 E0.25604
G1 X86.708 Y99.101 E0.32792
G1 X86.851 Y99.041 E0.3403
G1 X87.71 Y98.712 E0.41373
G1 X87.86 Y98.66 E0.4264
G1 X88.71 Y98.405 E0.49724
G1 X88.883 Y98.358 E0.51155
G1 X89.778 Y98.158 E0.58475
G1 X89.908 Y98.135 E0.59529
G1 X90.813 Y98.001 E0.66832
G1 X90.982 Y97.983 E0.68188
G1 X91.871 Y97.917 E0.75304
G1 X92.055 Y97.908 E0.76775
G1 X92.56 Y97.9 E0.80807
G1 X142.503 Y97.901 E4.79473
G1 X143.504 Y97.937 E4.87469
G1 X143.627 Y97.946 E4.88453
G1 X144.544 Y98.048 E4.95818
G1 X144.719 Y98.073 E4.97229
G1 X145.608 Y98.237 E5.04445
G1 X145.731 Y98.265 E5.05452
G1 X146.625 Y98.499 E5.12829
G1 X146.788 Y98.548 E5.14188
G1 X147.63 Y98.834 E5.21286
G1 X147.796 Y98.898 E5.22706
G1 X148.599 Y99.239 E5.2967
G1 X148.788 Y99.327 E5.31334
G1 X149.582 Y99.735 E5.3846
G1 X149.699 Y99.802 E5.39537
G1 X150.478 Y100.276 E5.46815
G1 X150.629 Y100.376 E5.48261
G1 X151.343 Y100.887 E5.5527
G1 X151.491 Y101 E5.56756
G1 X152.182 Y101.576 E5.63937
G1 X152.295 Y101.677 E5.65147
G1 X152.944 Y102.302 E5.72339
G1 X153.064 Y102.427 E5.73722
G1 X153.667 Y103.098 E5.80924
G1 X153.763 Y103.214 E5.82126
G1 X154.322 Y103.938 E5.89427
G1 X154.416 Y104.069 E5.90714
G1 X154.916 Y104.823 E5.97936
G1 X154.992 Y104.949 E5.99111
G1 X155.438 Y105.743 E6.0638
G1 X155.516 Y105.893 E6.0773
G1 X155.899 Y106.708 E6.14918
G1 X155.959 Y106.851 E6.16156
G1 X156.288 Y107.71 E6.23498
G1 X156.34 Y107.86 E6.24766
G1 X156.595 Y108.71 E6.3185
G1 X156.642 Y108.883 E6.33281
G1 X156.84 Y109.769 E6.40527
G1 X156.865 Y109.908 E6.41655
G1 X156.998 Y110.807 E6.48909
G1 X157.016 Y110.969 E6.5021
G1 X157.083 Y111.871 E6.5743
G1 X157.092 Y112.055 E6.58901
G1 X157.1 Y112.556 E6.629
G1 X157.1 Y122.486 E7.42166
G1 X157.064 Y123.492 E7.50201
G1 X157.054 Y123.627 E7.51282
G1 X156.952 Y124.544 E7.58647
G1 X156.927 Y124.719 E7.60058
G1 X156.765 Y125.597 E7.67185
G1 X156.735 Y125.731 E7.68281
G1 X156.504 Y126.616 E7.75582
G1 X156.452 Y126.788 E7.77017
G1 X156.176 Y127.6 E7.83863
G1 X156.096 Y127.809 E7.85649
G1 X155.761 Y128.599 E7.92499
G1 X155.68 Y128.774 E7.94038
G1 X155.265 Y129.582 E8.01289
G1 X155.198 Y129.699 E8.02365
G1 X154.724 Y130.478 E8.09644
G1 X154.624 Y130.629 E8.1109
G1 X154.113 Y131.343 E8.18098
G1 X154 Y131.491 E8.19585
G1 X153.424 Y132.182 E8.26766
G1 X153.323 Y132.295 E8.27975
G1 X152.698 Y132.944 E8.35168
G1 X152.573 Y133.064 E8.36551
G1 X151.903 Y133.666 E8.43741
G1 X151.786 Y133.763 E8.44954
G1 X151.074 Y134.313 E8.52136
G1 X150.915 Y134.426 E8.53693
G1 X150.177 Y134.916 E8.60764
G1 X150.051 Y134.992 E8.61939
G1 X149.257 Y135.438 E8.69208
G1 X149.106 Y135.516 E8.70565
G1 X148.292 Y135.899 E8.77746
G1 X148.149 Y135.959 E8.78984
G1 X147.29 Y136.288 E8.86326
G1 X147.14 Y136.34 E8.87594
G1 X146.29 Y136.595 E8.94678
G1 X146.117 Y136.642 E8.96109
G1 X145.222 Y136.842 E9.03429
G1 X145.092 Y136.865 E9.04483
G1 X144.187 Y136.999 E9.11786
G1 X144.019 Y137.017 E9.13134
G1 X143.129 Y137.083 E9.20258
G1 X142.945 Y137.092 E9.21729
G1 X142.44 Y137.1 E9.25761
G1 X92.497 Y137.099 E13.24427
G1 X91.496 Y137.063 E13.32423
G1 X91.373 Y137.054 E13.33407
G1 X90.456 Y136.952 E13.40772
G1 X90.281 Y136.927 E13.42183
G1 X89.392 Y136.763 E13.49399
G1 X89.269 Y136.735 E13.50406
G1 X88.375 Y136.501 E13.57783
G1 X88.212 Y136.452 E13.59142
G1 X87.37 Y136.166 E13.6624
G1 X87.204 Y136.102 E13.6766
G1 X86.401 Y135.761 E13.74624
G1 X86.212 Y135.673 E13.76288
G1 X85.418 Y135.265 E13.83414
G1 X85.301 Y135.198 E13.8449
G1 X84.522 Y134.724 E13.91769
G1 X84.371 Y134.624 E13.93215
G1 X83.657 Y134.113 E14.00224
G1 X83.509 Y134 E14.0171
G1 X82.818 Y133.424 E14.08891
G1 X82.705 Y133.323 E14.10101
G1 X82.056 Y132.698 E14.17293
G1 X81.936 Y132.573 E14.18676
G1 X81.333 Y131.902 E14.25878
G1 X81.236 Y131.784 E14.27097
G1 X80.678 Y131.062 E14.34381
G1 X80.574 Y130.915 E14.35818
G1 X80.081 Y130.172 E14.42936
G1 X80.008 Y130.051 E14.44064
G1 X79.556 Y129.246 E14.51434
G1 X79.484 Y129.107 E14.52683
G1 X79.087 Y128.261 E14.60143
G1 X79.041 Y128.149 E14.61109
G1 X78.712 Y127.29 E14.68452
G1 X78.655 Y127.125 E14.69846
G1 X78.405 Y126.29 E14.76803
G1 X78.358 Y126.117 E14.78234
G1 X78.157 Y125.216 E14.85603
G1 X78.135 Y125.092 E14.86609
G1 X78 Y124.178 E14.93984
G1 X77.983 Y124.018 E14.95268
G1 X77.917 Y123.126 E15.02408
G1 X77.908 Y122.945 E15.03854
G1 X77.9 Y122.444 E15.07854
G1 X77.9 Y112.514 E15.8712
G1 X77.936 Y111.508 E15.95155
G1 X77.946 Y111.373 E15.96236
G1 X78.048 Y110.456 E16.03601
G1 X78.073 Y110.281 E16.05012
G1 X78.235 Y109.403 E16.12139
G1 X78.265 Y109.269 E16.13235
G1 X78.496 Y108.384 E16.20536
G1 X78.548 Y108.212 E16.2197
G1 X78.834 Y107.37 E16.29069
G1 X78.898 Y107.204 E16.30489
G1 X79.239 Y106.401 E16.37453
G1 X79.32 Y106.226 E16.38992
G1 X79.735 Y105.418 E16.46243
G1 X79.802 Y105.301 E16.47319
G1 X80.276 Y104.522 E16.54598
G1 X80.376 Y104.371 E16.56044
G1 X80.887 Y103.657 E16.63053
G1 X81 Y103.509 E16.64539
G1 X81.576 Y102.818 E16.7172
G1 X81.677 Y102.705 E16.7293
G1 X82.302 Y102.056 E16.80122
G1 X82.427 Y101.936 E16.81505
G1 X83.098 Y101.333 E16.88706
G1 X83.214 Y101.237 E16.89908
G0 F9000 X83.2 Y101.248
G1 F1125 X83.2 Y133.742 E19.49289
G0 F9000 X84.8 Y134.893
G1 F1125 X84.8 Y100.099 E22.2703
G0 F9000 X86.4 Y99.245
G1 F1125 X86.4 Y135.76 E25.18509
G0 F9000 X88 Y136.379
G1 F1125 X88 Y98.618 E28.19933
G0 F9000 X89.6 Y98.197
G1 F1125 X89.6 Y136.801 E31.28087
G0 F9000 X91.2 Y137.034
G1 F1125 X91.2 Y97.966 E34.39945
G0 F9000 X92.8 Y97.901
G1 F1125 X92.8 Y137.099 E37.5284
G0 F9000 X94.4 Y137.099
G1 F1125 X94.4 Y97.901 E40.65736
G0 F9000 X96 Y97.901
G1 F1125 X96 Y137.099 E43.78631
G0 F9000 X97.6 Y137.099
G1 F1125 X97.6 Y97.901 E46.91526
G0 F9000 X99.2 Y97.901
G1 F1125 X99.2 Y137.099 E50.04422
G0 F9000 X100.8 Y137.099
G1 F1125 X100.8 Y97.901 E53.17317
G0 F9000 X102.4 Y97.901
G1 F1125 X102.4 Y137.099 E56.30212
G0 F9000 X104 Y137.099
G1 F1125 X104 Y97.901 E59.43108
G0 F9000 X105.6 Y97.901
G1 F1125 X105.6 Y137.099 E62.56003
G0 F9000 X107.2 Y137.099
G1 F1125 X107.2 Y97.901 E65.68899
G0 F9000 X108.8 Y97.901
G1 F1125 X108.8 Y137.099 E68.81794
G0 F9000 X110.4 Y137.099
G1 F1125 X110.4 Y97.901 E71.94689
G0 F9000 X112 Y97.901
G1 F1125 X112 Y137.099 E75.07585
G0 F9000 X113.6 Y137.099
G1 F1125 X113.6 Y97.901 E78.2048
G0 F9000 X115.2 Y97.901
G1 F1125 X115.2 Y137.099 E81.33376
G0 F9000 X116.8 Y137.099
G1 F1125 X116.8 Y97.901 E84.46271
G0 F9000 X118.4 Y97.901
G1 F1125 X118.4 Y137.099 E87.59166
G0 F9000 X120 Y137.099
G1 F1125 X120 Y97.901 E90.72062
G0 F9000 X121.6 Y97.901
G1 F1125 X121.6 Y137.099 E93.84957
G0 F9000 X123.2 Y137.099
G1 F1125 X123.2 Y97.901 E96.97852
G0 F9000 X124.8 Y97.901
G1 F1125 X124.8 Y137.099 E100.10748
G0 F9000 X126.4 Y137.099
G1 F1125 X126.4 Y97.901 E103.23643
G0 F9000 X128 Y97.901
G1 F1125 X128 Y137.099 E106.36539
G0 F9000 X129.6 Y137.099
G1 F1125 X129.6 Y97.901 E109.49434
G0 F9000 X131.2 Y97.901
G1 F1125 X131.2 Y137.099 E112.62329
G0 F9000 X132.8 Y137.099
G1 F1125 X132.8 Y97.901 E115.75225
G0 F9000 X134.4 Y97.901
G1 F1125 X134.4 Y137.099 E118.8812
G0 F9000 X136 Y137.099
G1 F1125 X136 Y97.901 E122.01016
G0 F9000 X137.6 Y97.901
G1 F1125 X137.6 Y137.099 E125.13911
G0 F9000 X139.2 Y137.099
G1 F1125 X139.2 Y97.901 E128.26806
G0 F9000 X140.8 Y97.901
G1 F1125 X140.8 Y137.099 E131.39702
G0 F9000 X142.4 Y137.099
G1 F1125 X142.4 Y97.901 E134.52597
G0 F9000 X144 Y97.988
G1 F1125 X144 Y137.019 E137.64159
G0 F9000 X145.6 Y136.758
G1 F1125 X145.6 Y98.236 E140.71659
G0 F9000 X147.2 Y98.688
G1 F1125 X147.2 Y136.32 E143.72054
G0 F9000 X148.8 Y135.66
G1 F1125 X148.8 Y99.334 E146.62023
G0 F9000 X150.4 Y100.229
G1 F1125 X150.4 Y134.768 E149.37729
G0 F9000 X152 Y133.579
G1 F1125 X152 Y101.425 E151.94396
G0 F9000 X153.6 Y103.024
G1 F1125 X153.6 Y131.971 E154.25463
G0 F9000 X155.2 Y129.696
G1 F1125 X155.2 Y105.32 E156.20043
G1 F2700 E151.20043
G0 F9000 X156.378 Y105.243
G0 X156.95 Y106.461
G0 X157.064 Y106.766
G0 X157.673 Y108.622
G0 X156.8 Y109.591
G1 F2700 E156.20043
G1 F1125 X156.8 Y125.408 E157.46301
G1 F2700 E152.46301
G0 F9000 X157.806 Y125.816
G0 X157.464 Y127.12
G0 X156.731 Y129.038
G0 X156.113 Y130.243
G0 X154.966 Y131.981
G0 X154.108 Y133.014
G0 X152.603 Y134.468
G0 X151.523 Y135.299
G0 X149.757 Y136.378
G0 X148.539 Y136.95
G0 X146.573 Y137.621
G0 X145.258 Y137.917
G0 X143.19 Y138.146
G0 X91.443 Y138.126
G0 X90.117 Y137.979
G0 X88.09 Y137.527
G0 X86.8 Y137.087
G0 X84.92 Y136.205
G0 X83.761 Y135.496
G0 X82.43 Y134.468
G0 X81.16 Y133.302
G0 X81.6 Y132.199
G1 F2700 E157.46301
G1 F1125 X81.6 Y102.791 E159.81049
G0 F9000 X80 Y104.975
G1 F1125 X80 Y130.036 E161.81096
G0 F9000 X78.4 Y126.271
G1 F1125 X78.4 Y108.751 E163.20949
G1 F2700 E158.20949
G0 F300 X78.4 Y108.751 Z0.54
G0 F9000 X77.232 Y109.012
G0 X76.991 Y110.328
G0 X76.836 Y112.489
G0 X76.854 Y123.187
G0 X77.083 Y125.258
G0 X77.379 Y126.573
G0 X77.568 Y127.129
G0 X78.117 Y128.7
G0 X79.373 Y128.87
;TIME_ELAPSED:121.985930
;LAYER:-5
;TYPE:SUPPORT
G1 F2700 E163.20949
G1 F1125 X86.136 Y135.633 E164.16382
G1 X85.417 Y135.264 E164.24446
G1 X85.301 Y135.197 E164.25782
G1 X84.521 Y134.723 E164.34889
G1 X84.37 Y134.623 E164.36697
G1 X83.657 Y134.111 E164.45455
G1 X83.509 Y133.999 E164.47307
G1 X82.818 Y133.423 E164.56283
G1 X82.704 Y133.322 E164.57803
G1 X82.056 Y132.697 E164.66786
G1 X81.935 Y132.571 E164.68529
G1 X81.332 Y131.9 E164.77531
G1 X81.235 Y131.782 E164.79055
G1 X80.678 Y131.06 E164.88154
G1 X80.574 Y130.914 E164.89942
G1 X80.081 Y130.171 E164.9884
G1 X80.008 Y130.05 E165.0025
G1 X79.555 Y129.245 E165.09466
G1 X79.484 Y129.106 E165.11024
G1 F2700 E160.11024
G0 F9000 X78.622 Y129.757
G0 X79.701 Y131.523
G0 X80.532 Y132.603
G0 X81.986 Y134.108
G0 X83.019 Y134.966
G0 X84.426 Y135.894
G0 X85.649 Y136.58
G0 X86.136 Y135.633
G1 F2700 E165.11024
G1 F1125 X86.211 Y135.672 E165.11867
G1 X86.401 Y135.76 E165.13957
G1 X87.203 Y136.101 E165.22652
G1 X87.37 Y136.164 E165.24433
G1 X88.212 Y136.451 E165.33309
G1 X88.374 Y136.5 E165.34998
G1 X88.432 Y136.515 E165.35596
G1 X78.49 Y126.573 E166.75888
G1 X78.405 Y126.289 E166.78846
G1 X78.358 Y126.116 E166.80635
G1 X78.157 Y125.215 E166.89846
G1 X78.135 Y125.091 E166.91103
G1 X78.085 Y124.754 E166.94502
G1 X90.251 Y136.92 E168.66178
G1 X90.281 Y136.926 E168.66483
G1 X90.455 Y136.951 E168.68237
G1 X91.373 Y137.053 E168.77453
G1 X91.496 Y137.062 E168.78684
G1 X91.818 Y137.073 E168.81899
G1 X77.92 Y123.175 E170.78014
G1 X77.916 Y123.124 E170.78525
G1 X77.908 Y122.943 E170.80333
G1 X77.899 Y122.443 E170.85322
G1 X77.899 Y121.74 E170.92337
G1 X93.257 Y137.098 E173.09055
G1 X94.671 Y137.098 E173.23164
G1 X77.899 Y120.326 E175.59835
G1 X77.899 Y118.912 E175.73944
G1 X96.085 Y137.098 E178.30568
G1 X97.5 Y137.098 E178.44687
G1 X77.899 Y117.497 E181.21278
G1 X77.899 Y116.083 E181.35387
G1 X98.914 Y137.098 E184.31932
G1 X100.328 Y137.098 E184.4604
G1 X77.899 Y114.669 E187.62538
G1 X77.899 Y113.255 E187.76647
G1 X101.742 Y137.098 E191.13097
G1 X103.156 Y137.098 E191.27206
G1 X77.923 Y111.864 E194.83278
G1 X77.936 Y111.507 E194.86843
G1 X77.945 Y111.372 E194.88193
G1 X78.035 Y110.562 E194.96325
G1 X104.571 Y137.098 E198.70776
G1 X105.985 Y137.098 E198.84885
G1 X78.244 Y109.357 E202.76341
G1 X78.264 Y109.268 E202.77251
G1 X78.495 Y108.383 E202.86377
G1 X78.539 Y108.238 E202.87889
G1 X107.399 Y137.098 E206.95135
G1 X108.813 Y137.098 E207.09244
G1 X78.903 Y107.187 E211.31314
G1 X79.239 Y106.4 E211.39852
G1 X79.319 Y106.225 E211.41772
G1 X79.331 Y106.201 E211.4204
G1 X110.228 Y137.098 E215.7803
G1 X111.642 Y137.098 E215.92139
G1 X79.817 Y105.273 E220.41224
G1 X80.275 Y104.52 E220.50018
G1 X80.356 Y104.397 E220.51487
G1 X113.057 Y137.098 E225.12934
G1 X114.471 Y137.098 E225.27043
G1 X80.948 Y103.575 E230.00089
G1 X80.999 Y103.508 E230.00929
G1 X81.576 Y102.817 E230.09911
G1 X81.588 Y102.802 E230.10103
G1 X115.885 Y137.098 E234.94064
G1 X117.299 Y137.098 E235.08173
G1 X82.278 Y102.077 E240.02357
G1 X82.301 Y102.055 E240.02674
G1 X82.427 Y101.935 E240.0441
G1 X83.019 Y101.404 E240.12345
G1 X118.714 Y137.098 E245.16033
G1 X120.128 Y137.098 E245.30142
G1 X83.807 Y100.778 E250.42664
G1 X83.926 Y100.686 E250.44165
G1 X84.084 Y100.573 E250.46103
G1 X84.644 Y100.201 E250.52811
G1 X121.542 Y137.098 E255.73475
G1 X122.956 Y137.098 E255.87584
G1 X85.535 Y99.678 E261.15627
G1 X85.743 Y99.561 E261.18009
G1 X85.892 Y99.483 E261.19687
G1 X86.479 Y99.207 E261.26159
G1 X124.37 Y137.098 E266.60842
G1 X125.785 Y137.098 E266.74961
G1 X87.484 Y98.798 E272.15422
G1 X87.71 Y98.711 E272.17839
G1 X87.86 Y98.659 E272.19423
G1 X88.552 Y98.451 E272.26633
G1 X127.2 Y137.099 E277.71998
G1 X128.614 Y137.099 E277.86107
G1 X89.691 Y98.176 E283.35352
G1 X89.777 Y98.157 E283.36231
G1 X89.907 Y98.134 E283.37548
G1 X90.813 Y98 E283.46687
G1 X90.918 Y97.989 E283.4774
G1 X130.028 Y137.099 E288.99625
G1 X131.442 Y137.099 E289.13734
G1 X92.247 Y97.904 E294.66817
G1 X92.56 Y97.898 E294.69941
G1 X93.657 Y97.899 E294.80887
G1 X132.856 Y137.099 E300.34034
G1 X134.271 Y137.099 E300.48153
G1 X95.071 Y97.899 E306.01308
G1 X96.485 Y97.899 E306.15416
G1 X135.685 Y137.099 E311.68571
G1 X137.099 Y137.099 E311.8268
G1 X97.899 Y97.899 E317.35834
G1 X99.313 Y97.899 E317.49943
G1 X138.513 Y137.099 E323.03097
G1 X139.927 Y137.099 E323.17206
G1 X100.728 Y97.899 E328.70354
G1 X102.142 Y97.899 E328.84463
G1 X141.342 Y137.099 E334.37617
G1 X142.438 Y137.1 E334.48553
G1 X142.752 Y137.095 E334.51686
G1 X103.556 Y97.899 E340.04784
G1 X104.97 Y97.899 E340.18893
G1 X144.08 Y137.009 E345.70778
G1 X144.186 Y136.999 E345.7184
G1 X145.091 Y136.864 E345.8097
G1 X145.221 Y136.842 E345.82286
G1 X145.307 Y136.822 E345.83167
G1 X106.384 Y97.899 E351.32412
G1 X107.799 Y97.899 E351.46531
G1 X146.446 Y136.547 E356.91889
G1 X147.139 Y136.34 E356.99106
G1 X147.288 Y136.287 E357.00684
G1 X147.514 Y136.2 E357.031
G1 X109.214 Y97.9 E362.43554
G1 X110.628 Y97.9 E362.57663
G1 X148.519 Y135.791 E367.92346
G1 X149.105 Y135.516 E367.98805
G1 X149.256 Y135.437 E368.00506
G1 X149.463 Y135.321 E368.02873
G1 X112.042 Y97.9 E373.30924
G1 X113.456 Y97.9 E373.45033
G1 X150.354 Y134.797 E378.65697
G1 X150.914 Y134.425 E378.72405
G1 X151.073 Y134.313 E378.74345
G1 X151.192 Y134.221 E378.75846
G1 X114.87 Y97.9 E383.88382
G1 X116.285 Y97.9 E384.02501
G1 X151.979 Y133.595 E389.06189
G1 X152.571 Y133.064 E389.14124
G1 X152.697 Y132.943 E389.15867
G1 X152.72 Y132.921 E389.16184
G1 X117.699 Y97.9 E394.10369
G1 X119.113 Y97.9 E394.24478
G1 X153.41 Y132.197 E399.08445
G1 X153.423 Y132.181 E399.08651
G1 X153.999 Y131.49 E399.17627
G1 X154.05 Y131.423 E399.18467
G1 X120.527 Y97.9 E403.91513
G1 X121.941 Y97.9 E404.05622
G1 X154.642 Y130.601 E408.67068
G1 X154.723 Y130.478 E408.68538
G1 X155.181 Y129.725 E408.77332
G1 X123.356 Y97.9 E413.26417
G1 X124.77 Y97.9 E413.40526
G1 X155.668 Y128.798 E417.7653
G1 X155.679 Y128.774 E417.76794
G1 X155.76 Y128.598 E417.78727
G1 X156.095 Y127.81 E417.87271
G1 X126.185 Y97.901 E422.09326
G1 X127.599 Y97.901 E422.23435
G1 X156.459 Y126.76 E426.30674
G1 X156.503 Y126.615 E426.32186
G1 X156.734 Y125.73 E426.41312
G1 X156.754 Y125.642 E426.42212
G1 X129.013 Y97.901 E430.33668
G1 X130.427 Y97.901 E430.47777
G1 X156.963 Y124.436 E434.22221
