;FLAVOR:Marlin
;TIME:4003
;Filament used: 2.51687m
;Layer height: 0.2
;MINX:89.336
;MINY:96.838
;MINZ:0.24
;MAXX:145.663
;MAXY:136.989
;MAXZ:45.09
;Generated with Cura_SteamEngine master
M140 S55
M105
M190 S55
M104 S200
M105
M109 S200
M82 ;absolute extrusion mode
; Ender 3 Custom Start G-code
G92 E0 ; Reset Extruder
G28 ; Home all axes
G1 Z2.0 F3000 ; Move Z Axis up little to prevent scratching of Heat Bed
G1 X0.1 Y20 Z0.3 F5000.0 ; Move to start position
G1 X0.1 Y200.0 Z0.3 F1500.0 E15 ; Draw the first line
G1 X0.4 Y200.0 Z0.3 F5000.0 ; Move to side a little
G1 X0.4 Y20 Z0.3 F1500.0 E30 ; Draw the second line
G92 E0 ; Reset Extruder
G1 Z2.0 F3000 ; Move Z Axis up little to prevent scratching of Heat Bed
G1 X5 Y20 Z0.3 F5000.0 ; Move over to prevent blob squish
G92 E0
G92 E0
G1 F2700 E-5
;LAYER_COUNT:220
;LAYER:-6
M107
G0 F9000 X94.927 Y101.939 Z0.24
;TYPE:SUPPORT-INTERFACE
G1 F2700 E0
G1 F1125 X95.598 Y101.336 E0.07201
G1 X95.714 Y101.24 E0.08403
G1 X96.426 Y100.69 E0.15585
G1 X96.585 Y100.577 E0.17142
G1 X97.323 Y100.087 E0.24213
G1 X97.449 Y100.011 E0.25388
G1 X98.243 Y99.565 E0.32657
G1 X98.393 Y99.487 E0.34007
G1 X99.208 Y99.104 E0.41195
G1 X99.351 Y99.044 E0.42433
G1 X100.21 Y98.715 E0.49776
G1 X100.36 Y98.663 E0.51043
G1 X101.21 Y98.408 E0.58127
G1 X101.383 Y98.361 E0.59558
G1 X102.278 Y98.161 E0.66878
G1 X102.408 Y98.138 E0.67932
G1 X103.313 Y98.004 E0.75235
G1 X103.482 Y97.986 E0.76592
G1 X104.371 Y97.92 E0.83708
G1 X104.555 Y97.911 E0.85178
G1 X105.06 Y97.903 E0.8921
G1 X130.001 Y97.904 E2.883
G1 X131.002 Y97.94 E2.96295
G1 X131.125 Y97.949 E2.9728
G1 X132.042 Y98.051 E3.04645
G1 X132.217 Y98.076 E3.06056
G1 X133.106 Y98.24 E3.13272
G1 X133.229 Y98.268 E3.14279
G1 X134.123 Y98.502 E3.21656
G1 X134.286 Y98.551 E3.23014
G1 X135.128 Y98.837 E3.30113
G1 X135.294 Y98.901 E3.31533
G1 X136.097 Y99.242 E3.38497
G1 X136.286 Y99.33 E3.40161
G1 X137.08 Y99.738 E3.47287
G1 X137.197 Y99.805 E3.48363
G1 X137.976 Y100.279 E3.55642
G1 X138.127 Y100.379 E3.57088
G1 X138.841 Y100.89 E3.64096
G1 X138.989 Y101.003 E3.65583
G1 X139.68 Y101.579 E3.72764
G1 X139.793 Y101.68 E3.73973
G1 X140.442 Y102.305 E3.81166
G1 X140.562 Y102.43 E3.82549
G1 X141.165 Y103.101 E3.8975
G1 X141.261 Y103.217 E3.90952
G1 X141.82 Y103.941 E3.98253
G1 X141.914 Y104.072 E3.99541
G1 X142.414 Y104.826 E4.06762
G1 X142.49 Y104.952 E4.07937
G1 X142.936 Y105.746 E4.15206
G1 X143.014 Y105.896 E4.16556
G1 X143.397 Y106.711 E4.23744
G1 X143.457 Y106.854 E4.24982
G1 X143.786 Y107.713 E4.32325
G1 X143.838 Y107.863 E4.33592
G1 X144.093 Y108.713 E4.40676
G1 X144.14 Y108.886 E4.42107
G1 X144.338 Y109.772 E4.49354
G1 X144.363 Y109.911 E4.50481
G1 X144.496 Y110.81 E4.57735
G1 X144.514 Y110.972 E4.59037
G1 X144.581 Y111.876 E4.66273
G1 X144.59 Y112.056 E4.67711
G1 X144.598 Y112.577 E4.7187
G1 X144.597 Y113.43 E4.7868
G1 X144.594 Y113.569 E4.79789
G1 X144.559 Y114.497 E4.87202
G1 X144.548 Y114.65 E4.88427
G1 X144.451 Y115.529 E4.95486
G1 X144.421 Y115.732 E4.97124
G1 X144.261 Y116.595 E5.0413
G1 X144.225 Y116.754 E5.05432
G1 X143.991 Y117.645 E5.12785
G1 X143.953 Y117.771 E5.13836
G1 X143.882 Y117.98 E5.15598
G1 X143.707 Y118.627 E5.20948
G1 X143.613 Y119.298 E5.26356
G1 X143.598 Y119.703 E5.29591
G1 X143.598 Y121.498 E5.4392
G1 X143.562 Y122.504 E5.51955
G1 X143.552 Y122.639 E5.53036
G1 X143.45 Y123.556 E5.60401
G1 X143.425 Y123.731 E5.61812
G1 X143.263 Y124.609 E5.68939
G1 X143.233 Y124.743 E5.70035
G1 X143.002 Y125.628 E5.77336
G1 X142.95 Y125.8 E5.78771
G1 X142.674 Y126.612 E5.85616
G1 X142.594 Y126.821 E5.87403
G1 X142.259 Y127.611 E5.94253
G1 X142.178 Y127.786 E5.95792
G1 X141.763 Y128.594 E6.03043
G1 X141.696 Y128.711 E6.04119
G1 X141.222 Y129.49 E6.11398
G1 X141.122 Y129.641 E6.12844
G1 X140.611 Y130.355 E6.19852
G1 X140.498 Y130.503 E6.21339
G1 X139.922 Y131.194 E6.2852
G1 X139.821 Y131.307 E6.29729
G1 X139.196 Y131.956 E6.36922
G1 X139.071 Y132.076 E6.38305
G1 X138.401 Y132.678 E6.45495
G1 X138.284 Y132.775 E6.46708
G1 X137.572 Y133.325 E6.5389
G1 X137.413 Y133.438 E6.55447
G1 X136.675 Y133.928 E6.62518
G1 X136.549 Y134.004 E6.63693
G1 X135.755 Y134.45 E6.70962
G1 X135.604 Y134.528 E6.72319
G1 X134.79 Y134.911 E6.795
G1 X134.647 Y134.971 E6.80738
G1 X133.788 Y135.3 E6.8808
G1 X133.638 Y135.352 E6.89348
G1 X132.788 Y135.607 E6.96431
G1 X132.615 Y135.654 E6.97862
G1 X131.72 Y135.854 E7.05183
G1 X131.59 Y135.877 E7.06237
G1 X130.685 Y136.011 E7.1354
G1 X130.517 Y136.029 E7.14888
G1 X129.627 Y136.095 E7.22012
G1 X129.443 Y136.104 E7.23483
G1 X128.938 Y136.112 E7.27514
G1 X105.995 Y136.111 E9.10655
G1 X104.994 Y136.075 E9.18651
G1 X104.871 Y136.066 E9.19635
G1 X103.954 Y135.964 E9.27
G1 X103.779 Y135.939 E9.28412
G1 X102.89 Y135.775 E9.35628
G1 X102.767 Y135.747 E9.36635
G1 X101.873 Y135.513 E9.44011
G1 X101.71 Y135.464 E9.4537
G1 X100.868 Y135.178 E9.52468
G1 X100.702 Y135.114 E9.53888
G1 X99.899 Y134.773 E9.60852
G1 X99.71 Y134.685 E9.62517
G1 X98.916 Y134.277 E9.69642
G1 X98.799 Y134.21 E9.70719
G1 X98.02 Y133.736 E9.77998
G1 X97.869 Y133.636 E9.79443
G1 X97.155 Y133.125 E9.86452
G1 X97.007 Y133.012 E9.87938
G1 X96.316 Y132.436 E9.95119
G1 X96.203 Y132.335 E9.96329
G1 X95.554 Y131.71 E10.03521
G1 X95.434 Y131.585 E10.04905
G1 X94.831 Y130.914 E10.12106
G1 X94.734 Y130.796 E10.13325
G1 X94.176 Y130.074 E10.20609
G1 X94.072 Y129.927 E10.22047
G1 X93.579 Y129.184 E10.29164
G1 X93.506 Y129.063 E10.30292
G1 X93.054 Y128.258 E10.37662
G1 X92.982 Y128.119 E10.38911
G1 X92.585 Y127.273 E10.46371
G1 X92.539 Y127.161 E10.47338
G1 X92.21 Y126.302 E10.5468
G1 X92.153 Y126.137 E10.56074
G1 X91.903 Y125.302 E10.63031
G1 X91.856 Y125.129 E10.64462
G1 X91.655 Y124.228 E10.71831
G1 X91.633 Y124.104 E10.72837
G1 X91.498 Y123.19 E10.80212
G1 X91.481 Y123.03 E10.81496
G1 X91.415 Y122.138 E10.88636
G1 X91.406 Y121.957 E10.90083
G1 X91.398 Y121.456 E10.94082
G1 X91.398 Y119.703 E11.08075
G1 X91.355 Y119.03 E11.13459
G1 X91.173 Y118.173 E11.20452
G1 X90.898 Y117.263 E11.28041
G1 X90.859 Y117.113 E11.29278
G1 X90.657 Y116.21 E11.36664
G1 X90.635 Y116.086 E11.37669
G1 X90.5 Y115.172 E11.45044
G1 X90.483 Y115.012 E11.46329
G1 X90.417 Y114.12 E11.53469
G1 X90.408 Y113.939 E11.54915
G1 X90.4 Y113.438 E11.58915
G1 X90.4 Y112.517 E11.66267
G1 X90.436 Y111.511 E11.74302
G1 X90.446 Y111.376 E11.75383
G1 X90.548 Y110.459 E11.82748
G1 X90.573 Y110.284 E11.84159
G1 X90.735 Y109.406 E11.91286
G1 X90.765 Y109.272 E11.92382
G1 X90.996 Y108.387 E11.99683
G1 X91.048 Y108.215 E12.01117
G1 X91.334 Y107.373 E12.08216
G1 X91.398 Y107.207 E12.09636
G1 X91.739 Y106.404 E12.166
G1 X91.82 Y106.229 E12.18139
G1 X92.235 Y105.421 E12.2539
G1 X92.302 Y105.304 E12.26466
G1 X92.776 Y104.525 E12.33745
G1 X92.876 Y104.374 E12.35191
G1 X93.387 Y103.66 E12.422
G1 X93.5 Y103.512 E12.43686
G1 X94.076 Y102.821 E12.50867
G1 X94.177 Y102.708 E12.52077
G1 X94.802 Y102.059 E12.59269
G1 X94.927 Y101.939 E12.60652
G0 F9000 X94.4 Y102.476
G1 F1125 X94.4 Y130.363 E14.83258
G0 F9000 X96 Y132.139
G1 F1125 X96 Y101.019 E17.31672
G0 F9000 X97.6 Y99.926
G1 F1125 X97.6 Y133.443 E19.99219
G0 F9000 X99.2 Y134.422
G1 F1125 X99.2 Y99.107 E22.81118
G0 F9000 X100.8 Y98.531
G1 F1125 X100.8 Y135.151 E25.73435
G0 F9000 X102.4 Y135.65
G1 F1125 X102.4 Y98.139 E28.72864
G0 F9000 X104 Y97.947
G1 F1125 X104 Y135.969 E31.76372
G0 F9000 X105.6 Y136.096
G1 F1125 X105.6 Y97.904 E34.81237
G0 F9000 X107.2 Y97.904
G1 F1125 X107.2 Y136.111 E37.86222
G0 F9000 X108.8 Y136.111
G1 F1125 X108.8 Y97.904 E40.91207
G0 F9000 X110.4 Y97.904
G1 F1125 X110.4 Y136.111 E43.96191
G0 F9000 X112 Y136.111
G1 F1125 X112 Y97.904 E47.01176
G0 F9000 X113.6 Y97.904
G1 F1125 X113.6 Y136.111 E50.06161
G0 F9000 X115.2 Y136.111
G1 F1125 X115.2 Y97.904 E53.11146
G0 F9000 X116.8 Y97.904
G1 F1125 X116.8 Y136.111 E56.16131
G0 F9000 X118.4 Y136.111
G1 F1125 X118.4 Y97.904 E59.21115
G0 F9000 X120 Y97.904
G1 F1125 X120 Y136.111 E62.261
G0 F9000 X121.6 Y136.111
G1 F1125 X121.6 Y97.904 E65.31085
G0 F9000 X123.2 Y97.904
G1 F1125 X123.2 Y136.111 E68.3607
G0 F9000 X124.8 Y136.111
G1 F1125 X124.8 Y97.904 E71.41055
G0 F9000 X126.4 Y97.904
G1 F1125 X126.4 Y136.111 E74.46039
G0 F9000 X128 Y136.111
G1 F1125 X128 Y97.904 E77.51024
G0 F9000 X129.6 Y97.904
G1 F1125 X129.6 Y136.097 E80.55897
G0 F9000 X131.2 Y135.935
G1 F1125 X131.2 Y97.958 E83.59046
G0 F9000 X132.8 Y98.184
G1 F1125 X132.8 Y135.604 E86.57749
G0 F9000 X134.4 Y135.066
G1 F1125 X134.4 Y98.59 E89.48916
G0 F9000 X136 Y99.201
G1 F1125 X136 Y134.313 E92.29195
G0 F9000 X137.6 Y133.304
G1 F1125 X137.6 Y100.051 E94.94635
G0 F9000 X139.2 Y101.179
G1 F1125 X139.2 Y131.952 E97.40278
G0 F9000 X140.8 Y130.091
G1 F1125 X140.8 Y102.695 E99.58965
G0 F9000 X142.4 Y104.805
G1 F1125 X142.4 Y127.279 E101.38362
G1 F2700 E96.38362
G0 F9000 X143.585 Y127.212
G0 X144.025 Y125.922
G0 X144.477 Y123.895
G0 X144.518 Y123.52
G0 X144.899 Y118.298
G0 X144 Y117.611
G1 F2700 E101.38362
G1 F1125 X144 Y108.403 E102.11864
G1 F2700 E97.11864
G0 F9000 X145.019 Y108.097
G0 X144.373 Y106.286
G0 X143.413 Y104.421
G0 X142.671 Y103.301
G0 X141.338 Y101.701
G0 X140.381 Y100.778
G0 X138.737 Y99.507
G0 X137.578 Y98.798
G0 X135.698 Y97.916
G0 X134.408 Y97.476
G0 X132.381 Y97.024
G0 X131.055 Y96.877
G0 X104.31 Y96.857
G0 X102.242 Y97.086
G0 X100.927 Y97.382
G0 X98.961 Y98.053
G0 X97.743 Y98.625
G0 X95.977 Y99.704
G0 X94.897 Y100.535
G0 X93.392 Y101.989
G0 X93.15 Y102.281
G0 X92.004 Y103.764
G0 X92.8 Y104.488
G1 F2700 E102.11864
G1 F1125 X92.8 Y127.731 E103.974
G1 F2700 E98.974
G0 F9000 X91.615 Y127.712
G0 X91.142 Y126.47
G0 X90.613 Y124.446
G0 X90.422 Y123.133
G0 X90.397 Y122.659
G0 X90.298 Y119.171
G0 X91.2 Y118.3
G1 F2700 E103.974
G1 F1125 X91.2 Y107.767 E104.81479
G1 F2700 E99.81479
G0 F300 X91.2 Y107.767 Z0.54
G0 F9000 X90.036 Y107.883
G0 X89.694 Y109.187
G0 X89.387 Y111.272
G0 X89.354 Y114.181
G0 X89.583 Y116.252
G0 X90.613 Y124.446
G0 X91.142 Y126.47
G0 X91.409 Y127.173
G0 X92.12 Y128.769
G0 X93.249 Y128.605
;TIME_ELAPSED:81.707551
;LAYER:-5
;TYPE:SUPPORT
G1 F2700 E104.81479
G1 F1125 X98.927 Y134.282 E105.61595
G1 X98.915 Y134.276 E105.61729
G1 X98.799 Y134.209 E105.63065
G1 X98.019 Y133.735 E105.72173
G1 X97.868 Y133.635 E105.7398
G1 X97.155 Y133.124 E105.82732
G1 X97.006 Y133.011 E105.84598
G1 X96.316 Y132.435 E105.93567
G1 X96.202 Y132.334 E105.95087
G1 X95.553 Y131.709 E106.04077
G1 X95.433 Y131.584 E106.05806
G1 X94.83 Y130.913 E106.14807
G1 X94.733 Y130.794 E106.16339
G1 X94.176 Y130.072 E106.25438
G1 X94.072 Y129.926 E106.27227
G1 X93.579 Y129.183 E106.36124
G1 X93.506 Y129.062 E106.37534
G1 F2700 E101.37534
G0 F9000 X92.679 Y129.752
G0 X93.899 Y131.456
G0 X94.795 Y132.457
G0 X96.35 Y133.85
G0 X96.662 Y134.073
G0 X98.255 Y135.125
G0 X98.927 Y134.282
G1 F2700 E106.37534
G1 F1125 X99.709 Y134.684 E106.46307
G1 X99.899 Y134.772 E106.48397
G1 X100.702 Y135.113 E106.57102
G1 X100.868 Y135.176 E106.58873
G1 X101.424 Y135.365 E106.64733
G1 X92.134 Y126.075 E107.95825
G1 X91.903 Y125.301 E108.03884
G1 X91.855 Y125.128 E108.05676
G1 X91.655 Y124.227 E108.14885
G1 X91.645 Y124.172 E108.15443
G1 X103.328 Y135.855 E109.80302
G1 X103.779 Y135.938 E109.84878
G1 X103.953 Y135.963 E109.86632
G1 X104.871 Y136.065 E109.95848
G1 X104.958 Y136.071 E109.96718
G1 X91.445 Y122.558 E111.87401
G1 X91.414 Y122.137 E111.91614
G1 X91.406 Y121.956 E111.93421
G1 X91.397 Y121.455 E111.98421
G1 X91.397 Y121.096 E112.02003
G1 X106.411 Y136.11 E114.13867
G1 X107.826 Y136.11 E114.27986
G1 X91.396 Y119.68 E116.59831
G1 X91.354 Y119.029 E116.6634
G1 X91.172 Y118.171 E116.75092
G1 X91.117 Y117.987 E116.77008
G1 X109.24 Y136.11 E119.32743
G1 X110.654 Y136.11 E119.46852
G1 X90.635 Y116.091 E122.29342
G1 X90.634 Y116.085 E122.29403
G1 X90.5 Y115.171 E122.3862
G1 X90.482 Y115.01 E122.40236
G1 X90.443 Y114.485 E122.45489
G1 X112.068 Y136.11 E125.50641
G1 X113.482 Y136.11 E125.6475
G1 X90.399 Y113.026 E128.90484
G1 X90.399 Y112.516 E128.95572
G1 X90.431 Y111.644 E129.04279
G1 X114.897 Y136.11 E132.49521
G1 X116.311 Y136.11 E132.6363
G1 X90.561 Y110.36 E136.2699
G1 X90.573 Y110.283 E136.27768
G1 X90.735 Y109.405 E136.36676
G1 X90.764 Y109.271 E136.38044
G1 X90.789 Y109.174 E136.39044
G1 X117.725 Y136.11 E140.1914
G1 X119.139 Y136.11 E140.33249
G1 X91.097 Y108.067 E144.28959
G1 X91.334 Y107.372 E144.36286
G1 X91.397 Y107.205 E144.38067
G1 X91.472 Y107.029 E144.39975
G1 X120.553 Y136.11 E148.5034
G1 X121.968 Y136.11 E148.64459
G1 X91.909 Y106.051 E152.88624
G1 X92.235 Y105.419 E152.95719
G1 X92.302 Y105.303 E152.97056
G1 X92.404 Y105.132 E152.99043
G1 X123.382 Y136.11 E157.36176
G1 X124.796 Y136.11 E157.50285
G1 X92.952 Y104.265 E161.99645
G1 X93.386 Y103.659 E162.07082
G1 X93.5 Y103.511 E162.08946
G1 X93.55 Y103.449 E162.09741
G1 X126.21 Y136.11 E166.70616
G1 X127.624 Y136.11 E166.84725
G1 X94.198 Y102.683 E171.56409
G1 X94.801 Y102.058 E171.65075
G1 X94.897 Y101.968 E171.66388
G1 X129.038 Y136.109 E176.48154
G1 X129.442 Y136.103 E176.52186
G1 X129.626 Y136.094 E176.54024
G1 X130.381 Y136.038 E176.61578
G1 X95.642 Y101.299 E181.51783
G1 X95.713 Y101.239 E181.5271
G1 X96.426 Y100.689 E181.61695
G1 X96.438 Y100.681 E181.61839
G1 X131.626 Y135.869 E186.5838
G1 X131.719 Y135.853 E186.59322
G1 X132.615 Y135.652 E186.68484
G1 X132.779 Y135.607 E186.70181
G1 X97.283 Y100.112 E191.71061
G1 X97.322 Y100.086 E191.71528
G1 X97.449 Y100.01 E191.73005
G1 X98.183 Y99.598 E191.81404
G1 X133.857 Y135.271 E196.84796
G1 X134.646 Y134.97 E196.93222
G1 X134.79 Y134.91 E196.94778
G1 X134.871 Y134.871 E196.95675
G1 X99.137 Y99.137 E201.99921
G1 X99.207 Y99.103 E202.00697
G1 X99.35 Y99.043 E202.02245
G1 X100.151 Y98.737 E202.108
G1 X135.823 Y134.409 E207.14171
G1 X136.547 Y134.003 E207.22453
G1 X136.674 Y133.928 E207.23925
G1 X136.723 Y133.894 E207.2452
G1 X101.23 Y98.402 E212.25358
G1 X101.382 Y98.361 E212.26928
G1 X102.277 Y98.16 E212.36081
G1 X102.384 Y98.142 E212.37164
G1 X137.569 Y133.326 E217.33655
G0 F9000 X137.571 Y133.324
G1 F1125 X138.283 Y132.774 E217.42632
G1 X138.363 Y132.706 E217.4368
G1 X103.632 Y97.975 E222.33772
G1 X104.37 Y97.92 E222.41156
G1 X104.554 Y97.91 E222.42995
G1 X104.975 Y97.904 E222.47196
G1 X139.109 Y132.038 E227.28864
G1 X139.195 Y131.956 E227.30049
G1 X139.807 Y131.321 E227.38849
G1 X106.389 Y97.903 E232.10413
G1 X107.803 Y97.903 E232.24522
G1 X140.454 Y130.555 E236.8527
G1 X140.497 Y130.502 E236.85951
G1 X140.61 Y130.354 E236.87809
G1 X141.052 Y129.738 E236.95374
G1 X109.217 Y97.903 E241.446
G1 X110.631 Y97.903 E241.58709
G1 X141.598 Y128.87 E245.95687
G1 X141.695 Y128.711 E245.97545
G1 X141.762 Y128.594 E245.98891
G1 X142.093 Y127.95 E246.06116
G1 X112.046 Y97.903 E250.30111
G1 X113.46 Y97.903 E250.4422
G1 X142.529 Y126.973 E254.54422
G1 X142.593 Y126.821 E254.56068
G1 X142.672 Y126.611 E254.58307
G1 X142.904 Y125.933 E254.65457
G1 X114.874 Y97.903 E258.6099
G1 X116.288 Y97.903 E258.75099
G1 X143.211 Y124.826 E262.55012
G1 X143.232 Y124.742 E262.55876
G1 X143.262 Y124.609 E262.57236
G1 X143.423 Y123.73 E262.66153
G1 X143.438 Y123.639 E262.67073
G1 X117.702 Y97.903 E266.30236
G1 X119.117 Y97.903 E266.44355
G1 X143.567 Y122.354 E269.89378
G1 X143.597 Y121.497 E269.97934
G1 X143.597 Y120.97 E270.03193
G1 X120.531 Y97.903 E273.28686
G1 X121.945 Y97.903 E273.42795
G1 X143.602 Y119.561 E276.48406
G1 X143.612 Y119.298 E276.51032
G1 X143.706 Y118.627 E276.57792
G1 X143.787 Y118.331 E276.60854
G1 X123.359 Y97.903 E279.49116
G1 X124.773 Y97.903 E279.63225
G1 X144.099 Y117.229 E282.35935
G1 X144.224 Y116.754 E282.40836
G1 X144.26 Y116.595 E282.42463
G1 X144.357 Y116.072 E282.4777
G1 X126.188 Y97.903 E285.04155
G1 X127.602 Y97.903 E285.18264
G1 X144.527 Y114.829 E287.57101
G1 X144.547 Y114.649 E287.58908
G1 X144.558 Y114.496 E287.60438
G1 X144.592 Y113.569 E287.69694
G1 X144.595 Y113.482 E287.70563
G1 X129.016 Y97.903 E289.90399
G1 X130 Y97.903 E290.00218
G1 X130.447 Y97.92 E290.04681
G1 X144.59 Y112.063 E292.04254
G1 X144.589 Y112.055 E292.04335
G1 X144.58 Y111.876 E292.06123
G1 X144.512 Y110.971 E292.15178
G1 X144.495 Y110.809 E292.16804
G1 X144.451 Y110.51 E292.19819
G1 X131.986 Y98.045 E293.95714
G1 X132.041 Y98.05 E293.96265
G1 X132.216 Y98.075 E293.98029
G1 X133.105 Y98.24 E294.07051
